(Exported by FreeCAD)
(Post Processor: linuxcnc_post)
(Output Time:2024-04-30 16:42:48.309421)
(begin preamble)
G17 G54 G40 G49 G80 G90
G21
(begin operation: Fixture)
(machine units: mm/min)
G54 
(finish operation: Fixture)
(begin operation: 6mm_Endmill002)
(machine units: mm/min)
(6mm_Endmill002) 
M5
M6 T2 
G43 H2 
(finish operation: 6mm_Endmill002)
(begin operation: Helix)
(machine units: mm/min)
(Helix) 
(helix cut operation) 
G0 Z6.000 
G0 Z6.000 
G0 X117.800 Y149.796 Z6.000 
G0 X117.800 Y149.796 Z1.000 
G0 X118.769 Y149.796 
G1 Z1.000 F18.000 
G2 X116.831 Y149.796 Z-1.842 I-0.969 J0.000 F18.000 
G2 X118.769 Y149.796 Z-4.683 I0.969 J0.000 F18.000 
G2 X116.831 Y149.796 Z-7.525 I-0.969 J0.000 F18.000 
G2 X118.769 Y149.796 Z-10.367 I0.969 J0.000 F18.000 
G2 X116.831 Y149.796 Z-13.208 I-0.969 J0.000 F18.000 
G2 X118.769 Y149.796 Z-16.050 I0.969 J0.000 F18.000 
G2 X116.831 Y149.796 Z-16.050 I-0.969 J0.000 F18.000 
G2 X118.769 Y149.796 Z-16.050 I0.969 J0.000 F18.000 
G0 X117.800 Y149.796 Z-16.050 
G0 Z1.000 
G0 Z6.000 
G0 X117.800 Y225.996 Z6.000 
G0 X117.800 Y225.996 Z1.000 
G0 X118.769 Y225.996 
G1 Z1.000 F18.000 
G2 X116.831 Y225.996 Z-1.842 I-0.969 J0.000 F18.000 
G2 X118.769 Y225.996 Z-4.683 I0.969 J0.000 F18.000 
G2 X116.831 Y225.996 Z-7.525 I-0.969 J0.000 F18.000 
G2 X118.769 Y225.996 Z-10.367 I0.969 J0.000 F18.000 
G2 X116.831 Y225.996 Z-13.208 I-0.969 J0.000 F18.000 
G2 X118.769 Y225.996 Z-16.050 I0.969 J0.000 F18.000 
G2 X116.831 Y225.996 Z-16.050 I-0.969 J0.000 F18.000 
G2 X118.769 Y225.996 Z-16.050 I0.969 J0.000 F18.000 
G0 X117.800 Y225.996 Z-16.050 
G0 Z1.000 
G0 Z6.000 
G0 X117.800 Y302.196 Z6.000 
G0 X117.800 Y302.196 Z1.000 
G0 X118.769 Y302.196 
G1 Z1.000 F18.000 
G2 X116.831 Y302.196 Z-1.842 I-0.969 J0.000 F18.000 
G2 X118.769 Y302.196 Z-4.683 I0.969 J0.000 F18.000 
G2 X116.831 Y302.196 Z-7.525 I-0.969 J0.000 F18.000 
G2 X118.769 Y302.196 Z-10.367 I0.969 J0.000 F18.000 
G2 X116.831 Y302.196 Z-13.208 I-0.969 J0.000 F18.000 
G2 X118.769 Y302.196 Z-16.050 I0.969 J0.000 F18.000 
G2 X116.831 Y302.196 Z-16.050 I-0.969 J0.000 F18.000 
G2 X118.769 Y302.196 Z-16.050 I0.969 J0.000 F18.000 
G0 X117.800 Y302.196 Z-16.050 
G0 Z1.000 
G0 Z6.000 
G0 X117.800 Y378.396 Z6.000 
G0 X117.800 Y378.396 Z1.000 
G0 X118.769 Y378.396 
G1 Z1.000 F18.000 
G2 X116.831 Y378.396 Z-1.842 I-0.969 J0.000 F18.000 
G2 X118.769 Y378.396 Z-4.683 I0.969 J0.000 F18.000 
G2 X116.831 Y378.396 Z-7.525 I-0.969 J0.000 F18.000 
G2 X118.769 Y378.396 Z-10.367 I0.969 J0.000 F18.000 
G2 X116.831 Y378.396 Z-13.208 I-0.969 J0.000 F18.000 
G2 X118.769 Y378.396 Z-16.050 I0.969 J0.000 F18.000 
G2 X116.831 Y378.396 Z-16.050 I-0.969 J0.000 F18.000 
G2 X118.769 Y378.396 Z-16.050 I0.969 J0.000 F18.000 
G0 X117.800 Y378.396 Z-16.050 
G0 Z1.000 
G0 Z6.000 
G0 X117.800 Y454.596 Z6.000 
G0 X117.800 Y454.596 Z1.000 
G0 X118.769 Y454.596 
G1 Z1.000 F18.000 
G2 X116.831 Y454.596 Z-1.842 I-0.969 J0.000 F18.000 
G2 X118.769 Y454.596 Z-4.683 I0.969 J0.000 F18.000 
G2 X116.831 Y454.596 Z-7.525 I-0.969 J0.000 F18.000 
G2 X118.769 Y454.596 Z-10.367 I0.969 J0.000 F18.000 
G2 X116.831 Y454.596 Z-13.208 I-0.969 J0.000 F18.000 
G2 X118.769 Y454.596 Z-16.050 I0.969 J0.000 F18.000 
G2 X116.831 Y454.596 Z-16.050 I-0.969 J0.000 F18.000 
G2 X118.769 Y454.596 Z-16.050 I0.969 J0.000 F18.000 
G0 X117.800 Y454.596 Z-16.050 
G0 Z1.000 
G0 Z6.000 
G0 X117.800 Y530.796 Z6.000 
G0 X117.800 Y530.796 Z1.000 
G0 X118.769 Y530.796 
G1 Z1.000 F18.000 
G2 X116.831 Y530.796 Z-1.842 I-0.969 J0.000 F18.000 
G2 X118.769 Y530.796 Z-4.683 I0.969 J0.000 F18.000 
G2 X116.831 Y530.796 Z-7.525 I-0.969 J0.000 F18.000 
G2 X118.769 Y530.796 Z-10.367 I0.969 J0.000 F18.000 
G2 X116.831 Y530.796 Z-13.208 I-0.969 J0.000 F18.000 
G2 X118.769 Y530.796 Z-16.050 I0.969 J0.000 F18.000 
G2 X116.831 Y530.796 Z-16.050 I-0.969 J0.000 F18.000 
G2 X118.769 Y530.796 Z-16.050 I0.969 J0.000 F18.000 
G0 X117.800 Y530.796 Z-16.050 
G0 Z1.000 
G0 Z6.000 
G0 X117.800 Y606.996 Z6.000 
G0 X117.800 Y606.996 Z1.000 
G0 X118.769 Y606.996 
G1 Z1.000 F18.000 
G2 X116.831 Y606.996 Z-1.842 I-0.969 J0.000 F18.000 
G2 X118.769 Y606.996 Z-4.683 I0.969 J0.000 F18.000 
G2 X116.831 Y606.996 Z-7.525 I-0.969 J0.000 F18.000 
G2 X118.769 Y606.996 Z-10.367 I0.969 J0.000 F18.000 
G2 X116.831 Y606.996 Z-13.208 I-0.969 J0.000 F18.000 
G2 X118.769 Y606.996 Z-16.050 I0.969 J0.000 F18.000 
G2 X116.831 Y606.996 Z-16.050 I-0.969 J0.000 F18.000 
G2 X118.769 Y606.996 Z-16.050 I0.969 J0.000 F18.000 
G0 X117.800 Y606.996 Z-16.050 
G0 Z1.000 
G0 Z6.000 
G0 X117.800 Y683.196 Z6.000 
G0 X117.800 Y683.196 Z1.000 
G0 X118.769 Y683.196 
G1 Z1.000 F18.000 
G2 X116.831 Y683.196 Z-1.842 I-0.969 J0.000 F18.000 
G2 X118.769 Y683.196 Z-4.683 I0.969 J0.000 F18.000 
G2 X116.831 Y683.196 Z-7.525 I-0.969 J0.000 F18.000 
G2 X118.769 Y683.196 Z-10.367 I0.969 J0.000 F18.000 
G2 X116.831 Y683.196 Z-13.208 I-0.969 J0.000 F18.000 
G2 X118.769 Y683.196 Z-16.050 I0.969 J0.000 F18.000 
G2 X116.831 Y683.196 Z-16.050 I-0.969 J0.000 F18.000 
G2 X118.769 Y683.196 Z-16.050 I0.969 J0.000 F18.000 
G0 X117.800 Y683.196 Z-16.050 
G0 Z1.000 
G0 Z6.000 
G0 X117.800 Y759.396 Z6.000 
G0 X117.800 Y759.396 Z1.000 
G0 X118.769 Y759.396 
G1 Z1.000 F18.000 
G2 X116.831 Y759.396 Z-1.842 I-0.969 J0.000 F18.000 
G2 X118.769 Y759.396 Z-4.683 I0.969 J0.000 F18.000 
G2 X116.831 Y759.396 Z-7.525 I-0.969 J0.000 F18.000 
G2 X118.769 Y759.396 Z-10.367 I0.969 J0.000 F18.000 
G2 X116.831 Y759.396 Z-13.208 I-0.969 J0.000 F18.000 
G2 X118.769 Y759.396 Z-16.050 I0.969 J0.000 F18.000 
G2 X116.831 Y759.396 Z-16.050 I-0.969 J0.000 F18.000 
G2 X118.769 Y759.396 Z-16.050 I0.969 J0.000 F18.000 
G0 X117.800 Y759.396 Z-16.050 
G0 Z1.000 
G0 Z6.000 
G0 X117.800 Y835.596 Z6.000 
G0 X117.800 Y835.596 Z1.000 
G0 X118.769 Y835.596 
G1 Z1.000 F18.000 
G2 X116.831 Y835.596 Z-1.842 I-0.969 J0.000 F18.000 
G2 X118.769 Y835.596 Z-4.683 I0.969 J0.000 F18.000 
G2 X116.831 Y835.596 Z-7.525 I-0.969 J0.000 F18.000 
G2 X118.769 Y835.596 Z-10.367 I0.969 J0.000 F18.000 
G2 X116.831 Y835.596 Z-13.208 I-0.969 J0.000 F18.000 
G2 X118.769 Y835.596 Z-16.050 I0.969 J0.000 F18.000 
G2 X116.831 Y835.596 Z-16.050 I-0.969 J0.000 F18.000 
G2 X118.769 Y835.596 Z-16.050 I0.969 J0.000 F18.000 
G0 X117.800 Y835.596 Z-16.050 
G0 Z1.000 
G0 Z6.000 
G0 X194.000 Y835.596 Z6.000 
G0 X194.000 Y835.596 Z1.000 
G0 X194.969 Y835.596 
G1 Z1.000 F18.000 
G2 X193.031 Y835.596 Z-1.842 I-0.969 J0.000 F18.000 
G2 X194.969 Y835.596 Z-4.683 I0.969 J0.000 F18.000 
G2 X193.031 Y835.596 Z-7.525 I-0.969 J0.000 F18.000 
G2 X194.969 Y835.596 Z-10.367 I0.969 J0.000 F18.000 
G2 X193.031 Y835.596 Z-13.208 I-0.969 J0.000 F18.000 
G2 X194.969 Y835.596 Z-16.050 I0.969 J0.000 F18.000 
G2 X193.031 Y835.596 Z-16.050 I-0.969 J0.000 F18.000 
G2 X194.969 Y835.596 Z-16.050 I0.969 J0.000 F18.000 
G0 X194.000 Y835.596 Z-16.050 
G0 Z1.000 
G0 Z6.000 
G0 X194.000 Y759.396 Z6.000 
G0 X194.000 Y759.396 Z1.000 
G0 X194.969 Y759.396 
G1 Z1.000 F18.000 
G2 X193.031 Y759.396 Z-1.842 I-0.969 J0.000 F18.000 
G2 X194.969 Y759.396 Z-4.683 I0.969 J0.000 F18.000 
G2 X193.031 Y759.396 Z-7.525 I-0.969 J0.000 F18.000 
G2 X194.969 Y759.396 Z-10.367 I0.969 J0.000 F18.000 
G2 X193.031 Y759.396 Z-13.208 I-0.969 J0.000 F18.000 
G2 X194.969 Y759.396 Z-16.050 I0.969 J0.000 F18.000 
G2 X193.031 Y759.396 Z-16.050 I-0.969 J0.000 F18.000 
G2 X194.969 Y759.396 Z-16.050 I0.969 J0.000 F18.000 
G0 X194.000 Y759.396 Z-16.050 
G0 Z1.000 
G0 Z6.000 
G0 X270.200 Y759.396 Z6.000 
G0 X270.200 Y759.396 Z1.000 
G0 X271.169 Y759.396 
G1 Z1.000 F18.000 
G2 X269.231 Y759.396 Z-1.842 I-0.969 J0.000 F18.000 
G2 X271.169 Y759.396 Z-4.683 I0.969 J0.000 F18.000 
G2 X269.231 Y759.396 Z-7.525 I-0.969 J0.000 F18.000 
G2 X271.169 Y759.396 Z-10.367 I0.969 J0.000 F18.000 
G2 X269.231 Y759.396 Z-13.208 I-0.969 J0.000 F18.000 
G2 X271.169 Y759.396 Z-16.050 I0.969 J0.000 F18.000 
G2 X269.231 Y759.396 Z-16.050 I-0.969 J0.000 F18.000 
G2 X271.169 Y759.396 Z-16.050 I0.969 J0.000 F18.000 
G0 X270.200 Y759.396 Z-16.050 
G0 Z1.000 
G0 Z6.000 
G0 X270.200 Y683.196 Z6.000 
G0 X270.200 Y683.196 Z1.000 
G0 X271.169 Y683.196 
G1 Z1.000 F18.000 
G2 X269.231 Y683.196 Z-1.842 I-0.969 J0.000 F18.000 
G2 X271.169 Y683.196 Z-4.683 I0.969 J0.000 F18.000 
G2 X269.231 Y683.196 Z-7.525 I-0.969 J0.000 F18.000 
G2 X271.169 Y683.196 Z-10.367 I0.969 J0.000 F18.000 
G2 X269.231 Y683.196 Z-13.208 I-0.969 J0.000 F18.000 
G2 X271.169 Y683.196 Z-16.050 I0.969 J0.000 F18.000 
G2 X269.231 Y683.196 Z-16.050 I-0.969 J0.000 F18.000 
G2 X271.169 Y683.196 Z-16.050 I0.969 J0.000 F18.000 
G0 X270.200 Y683.196 Z-16.050 
G0 Z1.000 
G0 Z6.000 
G0 X270.200 Y606.996 Z6.000 
G0 X270.200 Y606.996 Z1.000 
G0 X271.169 Y606.996 
G1 Z1.000 F18.000 
G2 X269.231 Y606.996 Z-1.842 I-0.969 J0.000 F18.000 
G2 X271.169 Y606.996 Z-4.683 I0.969 J0.000 F18.000 
G2 X269.231 Y606.996 Z-7.525 I-0.969 J0.000 F18.000 
G2 X271.169 Y606.996 Z-10.367 I0.969 J0.000 F18.000 
G2 X269.231 Y606.996 Z-13.208 I-0.969 J0.000 F18.000 
G2 X271.169 Y606.996 Z-16.050 I0.969 J0.000 F18.000 
G2 X269.231 Y606.996 Z-16.050 I-0.969 J0.000 F18.000 
G2 X271.169 Y606.996 Z-16.050 I0.969 J0.000 F18.000 
G0 X270.200 Y606.996 Z-16.050 
G0 Z1.000 
G0 Z6.000 
G0 X194.000 Y606.996 Z6.000 
G0 X194.000 Y606.996 Z1.000 
G0 X194.969 Y606.996 
G1 Z1.000 F18.000 
G2 X193.031 Y606.996 Z-1.842 I-0.969 J0.000 F18.000 
G2 X194.969 Y606.996 Z-4.683 I0.969 J0.000 F18.000 
G2 X193.031 Y606.996 Z-7.525 I-0.969 J0.000 F18.000 
G2 X194.969 Y606.996 Z-10.367 I0.969 J0.000 F18.000 
G2 X193.031 Y606.996 Z-13.208 I-0.969 J0.000 F18.000 
G2 X194.969 Y606.996 Z-16.050 I0.969 J0.000 F18.000 
G2 X193.031 Y606.996 Z-16.050 I-0.969 J0.000 F18.000 
G2 X194.969 Y606.996 Z-16.050 I0.969 J0.000 F18.000 
G0 X194.000 Y606.996 Z-16.050 
G0 Z1.000 
G0 Z6.000 
G0 X194.000 Y530.796 Z6.000 
G0 X194.000 Y530.796 Z1.000 
G0 X194.969 Y530.796 
G1 Z1.000 F18.000 
G2 X193.031 Y530.796 Z-1.842 I-0.969 J0.000 F18.000 
G2 X194.969 Y530.796 Z-4.683 I0.969 J0.000 F18.000 
G2 X193.031 Y530.796 Z-7.525 I-0.969 J0.000 F18.000 
G2 X194.969 Y530.796 Z-10.367 I0.969 J0.000 F18.000 
G2 X193.031 Y530.796 Z-13.208 I-0.969 J0.000 F18.000 
G2 X194.969 Y530.796 Z-16.050 I0.969 J0.000 F18.000 
G2 X193.031 Y530.796 Z-16.050 I-0.969 J0.000 F18.000 
G2 X194.969 Y530.796 Z-16.050 I0.969 J0.000 F18.000 
G0 X194.000 Y530.796 Z-16.050 
G0 Z1.000 
G0 Z6.000 
G0 X270.200 Y530.796 Z6.000 
G0 X270.200 Y530.796 Z1.000 
G0 X271.169 Y530.796 
G1 Z1.000 F18.000 
G2 X269.231 Y530.796 Z-1.842 I-0.969 J0.000 F18.000 
G2 X271.169 Y530.796 Z-4.683 I0.969 J0.000 F18.000 
G2 X269.231 Y530.796 Z-7.525 I-0.969 J0.000 F18.000 
G2 X271.169 Y530.796 Z-10.367 I0.969 J0.000 F18.000 
G2 X269.231 Y530.796 Z-13.208 I-0.969 J0.000 F18.000 
G2 X271.169 Y530.796 Z-16.050 I0.969 J0.000 F18.000 
G2 X269.231 Y530.796 Z-16.050 I-0.969 J0.000 F18.000 
G2 X271.169 Y530.796 Z-16.050 I0.969 J0.000 F18.000 
G0 X270.200 Y530.796 Z-16.050 
G0 Z1.000 
G0 Z6.000 
G0 X270.200 Y454.596 Z6.000 
G0 X270.200 Y454.596 Z1.000 
G0 X271.169 Y454.596 
G1 Z1.000 F18.000 
G2 X269.231 Y454.596 Z-1.842 I-0.969 J0.000 F18.000 
G2 X271.169 Y454.596 Z-4.683 I0.969 J0.000 F18.000 
G2 X269.231 Y454.596 Z-7.525 I-0.969 J0.000 F18.000 
G2 X271.169 Y454.596 Z-10.367 I0.969 J0.000 F18.000 
G2 X269.231 Y454.596 Z-13.208 I-0.969 J0.000 F18.000 
G2 X271.169 Y454.596 Z-16.050 I0.969 J0.000 F18.000 
G2 X269.231 Y454.596 Z-16.050 I-0.969 J0.000 F18.000 
G2 X271.169 Y454.596 Z-16.050 I0.969 J0.000 F18.000 
G0 X270.200 Y454.596 Z-16.050 
G0 Z1.000 
G0 Z6.000 
G0 X270.200 Y378.396 Z6.000 
G0 X270.200 Y378.396 Z1.000 
G0 X271.169 Y378.396 
G1 Z1.000 F18.000 
G2 X269.231 Y378.396 Z-1.842 I-0.969 J0.000 F18.000 
G2 X271.169 Y378.396 Z-4.683 I0.969 J0.000 F18.000 
G2 X269.231 Y378.396 Z-7.525 I-0.969 J0.000 F18.000 
G2 X271.169 Y378.396 Z-10.367 I0.969 J0.000 F18.000 
G2 X269.231 Y378.396 Z-13.208 I-0.969 J0.000 F18.000 
G2 X271.169 Y378.396 Z-16.050 I0.969 J0.000 F18.000 
G2 X269.231 Y378.396 Z-16.050 I-0.969 J0.000 F18.000 
G2 X271.169 Y378.396 Z-16.050 I0.969 J0.000 F18.000 
G0 X270.200 Y378.396 Z-16.050 
G0 Z1.000 
G0 Z6.000 
G0 X194.000 Y378.396 Z6.000 
G0 X194.000 Y378.396 Z1.000 
G0 X194.969 Y378.396 
G1 Z1.000 F18.000 
G2 X193.031 Y378.396 Z-1.842 I-0.969 J0.000 F18.000 
G2 X194.969 Y378.396 Z-4.683 I0.969 J0.000 F18.000 
G2 X193.031 Y378.396 Z-7.525 I-0.969 J0.000 F18.000 
G2 X194.969 Y378.396 Z-10.367 I0.969 J0.000 F18.000 
G2 X193.031 Y378.396 Z-13.208 I-0.969 J0.000 F18.000 
G2 X194.969 Y378.396 Z-16.050 I0.969 J0.000 F18.000 
G2 X193.031 Y378.396 Z-16.050 I-0.969 J0.000 F18.000 
G2 X194.969 Y378.396 Z-16.050 I0.969 J0.000 F18.000 
G0 X194.000 Y378.396 Z-16.050 
G0 Z1.000 
G0 Z6.000 
G0 X194.000 Y302.196 Z6.000 
G0 X194.000 Y302.196 Z1.000 
G0 X194.969 Y302.196 
G1 Z1.000 F18.000 
G2 X193.031 Y302.196 Z-1.842 I-0.969 J0.000 F18.000 
G2 X194.969 Y302.196 Z-4.683 I0.969 J0.000 F18.000 
G2 X193.031 Y302.196 Z-7.525 I-0.969 J0.000 F18.000 
G2 X194.969 Y302.196 Z-10.367 I0.969 J0.000 F18.000 
G2 X193.031 Y302.196 Z-13.208 I-0.969 J0.000 F18.000 
G2 X194.969 Y302.196 Z-16.050 I0.969 J0.000 F18.000 
G2 X193.031 Y302.196 Z-16.050 I-0.969 J0.000 F18.000 
G2 X194.969 Y302.196 Z-16.050 I0.969 J0.000 F18.000 
G0 X194.000 Y302.196 Z-16.050 
G0 Z1.000 
G0 Z6.000 
G0 X270.200 Y302.196 Z6.000 
G0 X270.200 Y302.196 Z1.000 
G0 X271.169 Y302.196 
G1 Z1.000 F18.000 
G2 X269.231 Y302.196 Z-1.842 I-0.969 J0.000 F18.000 
G2 X271.169 Y302.196 Z-4.683 I0.969 J0.000 F18.000 
G2 X269.231 Y302.196 Z-7.525 I-0.969 J0.000 F18.000 
G2 X271.169 Y302.196 Z-10.367 I0.969 J0.000 F18.000 
G2 X269.231 Y302.196 Z-13.208 I-0.969 J0.000 F18.000 
G2 X271.169 Y302.196 Z-16.050 I0.969 J0.000 F18.000 
G2 X269.231 Y302.196 Z-16.050 I-0.969 J0.000 F18.000 
G2 X271.169 Y302.196 Z-16.050 I0.969 J0.000 F18.000 
G0 X270.200 Y302.196 Z-16.050 
G0 Z1.000 
G0 Z6.000 
G0 X270.200 Y225.996 Z6.000 
G0 X270.200 Y225.996 Z1.000 
G0 X271.169 Y225.996 
G1 Z1.000 F18.000 
G2 X269.231 Y225.996 Z-1.842 I-0.969 J0.000 F18.000 
G2 X271.169 Y225.996 Z-4.683 I0.969 J0.000 F18.000 
G2 X269.231 Y225.996 Z-7.525 I-0.969 J0.000 F18.000 
G2 X271.169 Y225.996 Z-10.367 I0.969 J0.000 F18.000 
G2 X269.231 Y225.996 Z-13.208 I-0.969 J0.000 F18.000 
G2 X271.169 Y225.996 Z-16.050 I0.969 J0.000 F18.000 
G2 X269.231 Y225.996 Z-16.050 I-0.969 J0.000 F18.000 
G2 X271.169 Y225.996 Z-16.050 I0.969 J0.000 F18.000 
G0 X270.200 Y225.996 Z-16.050 
G0 Z1.000 
G0 Z6.000 
G0 X270.200 Y149.796 Z6.000 
G0 X270.200 Y149.796 Z1.000 
G0 X271.169 Y149.796 
G1 Z1.000 F18.000 
G2 X269.231 Y149.796 Z-1.842 I-0.969 J0.000 F18.000 
G2 X271.169 Y149.796 Z-4.683 I0.969 J0.000 F18.000 
G2 X269.231 Y149.796 Z-7.525 I-0.969 J0.000 F18.000 
G2 X271.169 Y149.796 Z-10.367 I0.969 J0.000 F18.000 
G2 X269.231 Y149.796 Z-13.208 I-0.969 J0.000 F18.000 
G2 X271.169 Y149.796 Z-16.050 I0.969 J0.000 F18.000 
G2 X269.231 Y149.796 Z-16.050 I-0.969 J0.000 F18.000 
G2 X271.169 Y149.796 Z-16.050 I0.969 J0.000 F18.000 
G0 X270.200 Y149.796 Z-16.050 
G0 Z1.000 
G0 Z6.000 
G0 X194.000 Y149.796 Z6.000 
G0 X194.000 Y149.796 Z1.000 
G0 X194.969 Y149.796 
G1 Z1.000 F18.000 
G2 X193.031 Y149.796 Z-1.842 I-0.969 J0.000 F18.000 
G2 X194.969 Y149.796 Z-4.683 I0.969 J0.000 F18.000 
G2 X193.031 Y149.796 Z-7.525 I-0.969 J0.000 F18.000 
G2 X194.969 Y149.796 Z-10.367 I0.969 J0.000 F18.000 
G2 X193.031 Y149.796 Z-13.208 I-0.969 J0.000 F18.000 
G2 X194.969 Y149.796 Z-16.050 I0.969 J0.000 F18.000 
G2 X193.031 Y149.796 Z-16.050 I-0.969 J0.000 F18.000 
G2 X194.969 Y149.796 Z-16.050 I0.969 J0.000 F18.000 
G0 X194.000 Y149.796 Z-16.050 
G0 Z1.000 
G0 Z6.000 
G0 X397.200 Y149.796 Z6.000 
G0 X397.200 Y149.796 Z1.000 
G0 X398.169 Y149.796 
G1 Z1.000 F18.000 
G2 X396.231 Y149.796 Z-1.842 I-0.969 J0.000 F18.000 
G2 X398.169 Y149.796 Z-4.683 I0.969 J0.000 F18.000 
G2 X396.231 Y149.796 Z-7.525 I-0.969 J0.000 F18.000 
G2 X398.169 Y149.796 Z-10.367 I0.969 J0.000 F18.000 
G2 X396.231 Y149.796 Z-13.208 I-0.969 J0.000 F18.000 
G2 X398.169 Y149.796 Z-16.050 I0.969 J0.000 F18.000 
G2 X396.231 Y149.796 Z-16.050 I-0.969 J0.000 F18.000 
G2 X398.169 Y149.796 Z-16.050 I0.969 J0.000 F18.000 
G0 X397.200 Y149.796 Z-16.050 
G0 Z1.000 
G0 Z6.000 
G0 X397.200 Y225.996 Z6.000 
G0 X397.200 Y225.996 Z1.000 
G0 X398.169 Y225.996 
G1 Z1.000 F18.000 
G2 X396.231 Y225.996 Z-1.842 I-0.969 J0.000 F18.000 
G2 X398.169 Y225.996 Z-4.683 I0.969 J0.000 F18.000 
G2 X396.231 Y225.996 Z-7.525 I-0.969 J0.000 F18.000 
G2 X398.169 Y225.996 Z-10.367 I0.969 J0.000 F18.000 
G2 X396.231 Y225.996 Z-13.208 I-0.969 J0.000 F18.000 
G2 X398.169 Y225.996 Z-16.050 I0.969 J0.000 F18.000 
G2 X396.231 Y225.996 Z-16.050 I-0.969 J0.000 F18.000 
G2 X398.169 Y225.996 Z-16.050 I0.969 J0.000 F18.000 
G0 X397.200 Y225.996 Z-16.050 
G0 Z1.000 
G0 Z6.000 
G0 X397.200 Y302.196 Z6.000 
G0 X397.200 Y302.196 Z1.000 
G0 X398.169 Y302.196 
G1 Z1.000 F18.000 
G2 X396.231 Y302.196 Z-1.842 I-0.969 J0.000 F18.000 
G2 X398.169 Y302.196 Z-4.683 I0.969 J0.000 F18.000 
G2 X396.231 Y302.196 Z-7.525 I-0.969 J0.000 F18.000 
G2 X398.169 Y302.196 Z-10.367 I0.969 J0.000 F18.000 
G2 X396.231 Y302.196 Z-13.208 I-0.969 J0.000 F18.000 
G2 X398.169 Y302.196 Z-16.050 I0.969 J0.000 F18.000 
G2 X396.231 Y302.196 Z-16.050 I-0.969 J0.000 F18.000 
G2 X398.169 Y302.196 Z-16.050 I0.969 J0.000 F18.000 
G0 X397.200 Y302.196 Z-16.050 
G0 Z1.000 
G0 Z6.000 
G0 X397.200 Y378.396 Z6.000 
G0 X397.200 Y378.396 Z1.000 
G0 X398.169 Y378.396 
G1 Z1.000 F18.000 
G2 X396.231 Y378.396 Z-1.842 I-0.969 J0.000 F18.000 
G2 X398.169 Y378.396 Z-4.683 I0.969 J0.000 F18.000 
G2 X396.231 Y378.396 Z-7.525 I-0.969 J0.000 F18.000 
G2 X398.169 Y378.396 Z-10.367 I0.969 J0.000 F18.000 
G2 X396.231 Y378.396 Z-13.208 I-0.969 J0.000 F18.000 
G2 X398.169 Y378.396 Z-16.050 I0.969 J0.000 F18.000 
G2 X396.231 Y378.396 Z-16.050 I-0.969 J0.000 F18.000 
G2 X398.169 Y378.396 Z-16.050 I0.969 J0.000 F18.000 
G0 X397.200 Y378.396 Z-16.050 
G0 Z1.000 
G0 Z6.000 
G0 X397.200 Y454.596 Z6.000 
G0 X397.200 Y454.596 Z1.000 
G0 X398.169 Y454.596 
G1 Z1.000 F18.000 
G2 X396.231 Y454.596 Z-1.842 I-0.969 J0.000 F18.000 
G2 X398.169 Y454.596 Z-4.683 I0.969 J0.000 F18.000 
G2 X396.231 Y454.596 Z-7.525 I-0.969 J0.000 F18.000 
G2 X398.169 Y454.596 Z-10.367 I0.969 J0.000 F18.000 
G2 X396.231 Y454.596 Z-13.208 I-0.969 J0.000 F18.000 
G2 X398.169 Y454.596 Z-16.050 I0.969 J0.000 F18.000 
G2 X396.231 Y454.596 Z-16.050 I-0.969 J0.000 F18.000 
G2 X398.169 Y454.596 Z-16.050 I0.969 J0.000 F18.000 
G0 X397.200 Y454.596 Z-16.050 
G0 Z1.000 
G0 Z6.000 
G0 X397.200 Y530.796 Z6.000 
G0 X397.200 Y530.796 Z1.000 
G0 X398.169 Y530.796 
G1 Z1.000 F18.000 
G2 X396.231 Y530.796 Z-1.842 I-0.969 J0.000 F18.000 
G2 X398.169 Y530.796 Z-4.683 I0.969 J0.000 F18.000 
G2 X396.231 Y530.796 Z-7.525 I-0.969 J0.000 F18.000 
G2 X398.169 Y530.796 Z-10.367 I0.969 J0.000 F18.000 
G2 X396.231 Y530.796 Z-13.208 I-0.969 J0.000 F18.000 
G2 X398.169 Y530.796 Z-16.050 I0.969 J0.000 F18.000 
G2 X396.231 Y530.796 Z-16.050 I-0.969 J0.000 F18.000 
G2 X398.169 Y530.796 Z-16.050 I0.969 J0.000 F18.000 
G0 X397.200 Y530.796 Z-16.050 
G0 Z1.000 
G0 Z6.000 
G0 X397.200 Y606.996 Z6.000 
G0 X397.200 Y606.996 Z1.000 
G0 X398.169 Y606.996 
G1 Z1.000 F18.000 
G2 X396.231 Y606.996 Z-1.842 I-0.969 J0.000 F18.000 
G2 X398.169 Y606.996 Z-4.683 I0.969 J0.000 F18.000 
G2 X396.231 Y606.996 Z-7.525 I-0.969 J0.000 F18.000 
G2 X398.169 Y606.996 Z-10.367 I0.969 J0.000 F18.000 
G2 X396.231 Y606.996 Z-13.208 I-0.969 J0.000 F18.000 
G2 X398.169 Y606.996 Z-16.050 I0.969 J0.000 F18.000 
G2 X396.231 Y606.996 Z-16.050 I-0.969 J0.000 F18.000 
G2 X398.169 Y606.996 Z-16.050 I0.969 J0.000 F18.000 
G0 X397.200 Y606.996 Z-16.050 
G0 Z1.000 
G0 Z6.000 
G0 X397.200 Y683.196 Z6.000 
G0 X397.200 Y683.196 Z1.000 
G0 X398.169 Y683.196 
G1 Z1.000 F18.000 
G2 X396.231 Y683.196 Z-1.842 I-0.969 J0.000 F18.000 
G2 X398.169 Y683.196 Z-4.683 I0.969 J0.000 F18.000 
G2 X396.231 Y683.196 Z-7.525 I-0.969 J0.000 F18.000 
G2 X398.169 Y683.196 Z-10.367 I0.969 J0.000 F18.000 
G2 X396.231 Y683.196 Z-13.208 I-0.969 J0.000 F18.000 
G2 X398.169 Y683.196 Z-16.050 I0.969 J0.000 F18.000 
G2 X396.231 Y683.196 Z-16.050 I-0.969 J0.000 F18.000 
G2 X398.169 Y683.196 Z-16.050 I0.969 J0.000 F18.000 
G0 X397.200 Y683.196 Z-16.050 
G0 Z1.000 
G0 Z6.000 
G0 X397.200 Y759.396 Z6.000 
G0 X397.200 Y759.396 Z1.000 
G0 X398.169 Y759.396 
G1 Z1.000 F18.000 
G2 X396.231 Y759.396 Z-1.842 I-0.969 J0.000 F18.000 
G2 X398.169 Y759.396 Z-4.683 I0.969 J0.000 F18.000 
G2 X396.231 Y759.396 Z-7.525 I-0.969 J0.000 F18.000 
G2 X398.169 Y759.396 Z-10.367 I0.969 J0.000 F18.000 
G2 X396.231 Y759.396 Z-13.208 I-0.969 J0.000 F18.000 
G2 X398.169 Y759.396 Z-16.050 I0.969 J0.000 F18.000 
G2 X396.231 Y759.396 Z-16.050 I-0.969 J0.000 F18.000 
G2 X398.169 Y759.396 Z-16.050 I0.969 J0.000 F18.000 
G0 X397.200 Y759.396 Z-16.050 
G0 Z1.000 
G0 Z6.000 
G0 X397.200 Y835.596 Z6.000 
G0 X397.200 Y835.596 Z1.000 
G0 X398.169 Y835.596 
G1 Z1.000 F18.000 
G2 X396.231 Y835.596 Z-1.842 I-0.969 J0.000 F18.000 
G2 X398.169 Y835.596 Z-4.683 I0.969 J0.000 F18.000 
G2 X396.231 Y835.596 Z-7.525 I-0.969 J0.000 F18.000 
G2 X398.169 Y835.596 Z-10.367 I0.969 J0.000 F18.000 
G2 X396.231 Y835.596 Z-13.208 I-0.969 J0.000 F18.000 
G2 X398.169 Y835.596 Z-16.050 I0.969 J0.000 F18.000 
G2 X396.231 Y835.596 Z-16.050 I-0.969 J0.000 F18.000 
G2 X398.169 Y835.596 Z-16.050 I0.969 J0.000 F18.000 
G0 X397.200 Y835.596 Z-16.050 
G0 Z1.000 
G0 Z6.000 
G0 X473.400 Y835.596 Z6.000 
G0 X473.400 Y835.596 Z1.000 
G0 X474.369 Y835.596 
G1 Z1.000 F18.000 
G2 X472.431 Y835.596 Z-1.842 I-0.969 J0.000 F18.000 
G2 X474.369 Y835.596 Z-4.683 I0.969 J0.000 F18.000 
G2 X472.431 Y835.596 Z-7.525 I-0.969 J0.000 F18.000 
G2 X474.369 Y835.596 Z-10.367 I0.969 J0.000 F18.000 
G2 X472.431 Y835.596 Z-13.208 I-0.969 J0.000 F18.000 
G2 X474.369 Y835.596 Z-16.050 I0.969 J0.000 F18.000 
G2 X472.431 Y835.596 Z-16.050 I-0.969 J0.000 F18.000 
G2 X474.369 Y835.596 Z-16.050 I0.969 J0.000 F18.000 
G0 X473.400 Y835.596 Z-16.050 
G0 Z1.000 
G0 Z6.000 
G0 X473.400 Y759.396 Z6.000 
G0 X473.400 Y759.396 Z1.000 
G0 X474.369 Y759.396 
G1 Z1.000 F18.000 
G2 X472.431 Y759.396 Z-1.842 I-0.969 J0.000 F18.000 
G2 X474.369 Y759.396 Z-4.683 I0.969 J0.000 F18.000 
G2 X472.431 Y759.396 Z-7.525 I-0.969 J0.000 F18.000 
G2 X474.369 Y759.396 Z-10.367 I0.969 J0.000 F18.000 
G2 X472.431 Y759.396 Z-13.208 I-0.969 J0.000 F18.000 
G2 X474.369 Y759.396 Z-16.050 I0.969 J0.000 F18.000 
G2 X472.431 Y759.396 Z-16.050 I-0.969 J0.000 F18.000 
G2 X474.369 Y759.396 Z-16.050 I0.969 J0.000 F18.000 
G0 X473.400 Y759.396 Z-16.050 
G0 Z1.000 
G0 Z6.000 
G0 X549.600 Y759.396 Z6.000 
G0 X549.600 Y759.396 Z1.000 
G0 X550.569 Y759.396 
G1 Z1.000 F18.000 
G2 X548.631 Y759.396 Z-1.842 I-0.969 J0.000 F18.000 
G2 X550.569 Y759.396 Z-4.683 I0.969 J0.000 F18.000 
G2 X548.631 Y759.396 Z-7.525 I-0.969 J0.000 F18.000 
G2 X550.569 Y759.396 Z-10.367 I0.969 J0.000 F18.000 
G2 X548.631 Y759.396 Z-13.208 I-0.969 J0.000 F18.000 
G2 X550.569 Y759.396 Z-16.050 I0.969 J0.000 F18.000 
G2 X548.631 Y759.396 Z-16.050 I-0.969 J0.000 F18.000 
G2 X550.569 Y759.396 Z-16.050 I0.969 J0.000 F18.000 
G0 X549.600 Y759.396 Z-16.050 
G0 Z1.000 
G0 Z6.000 
G0 X549.600 Y683.196 Z6.000 
G0 X549.600 Y683.196 Z1.000 
G0 X550.569 Y683.196 
G1 Z1.000 F18.000 
G2 X548.631 Y683.196 Z-1.842 I-0.969 J0.000 F18.000 
G2 X550.569 Y683.196 Z-4.683 I0.969 J0.000 F18.000 
G2 X548.631 Y683.196 Z-7.525 I-0.969 J0.000 F18.000 
G2 X550.569 Y683.196 Z-10.367 I0.969 J0.000 F18.000 
G2 X548.631 Y683.196 Z-13.208 I-0.969 J0.000 F18.000 
G2 X550.569 Y683.196 Z-16.050 I0.969 J0.000 F18.000 
G2 X548.631 Y683.196 Z-16.050 I-0.969 J0.000 F18.000 
G2 X550.569 Y683.196 Z-16.050 I0.969 J0.000 F18.000 
G0 X549.600 Y683.196 Z-16.050 
G0 Z1.000 
G0 Z6.000 
G0 X549.600 Y606.996 Z6.000 
G0 X549.600 Y606.996 Z1.000 
G0 X550.569 Y606.996 
G1 Z1.000 F18.000 
G2 X548.631 Y606.996 Z-1.842 I-0.969 J0.000 F18.000 
G2 X550.569 Y606.996 Z-4.683 I0.969 J0.000 F18.000 
G2 X548.631 Y606.996 Z-7.525 I-0.969 J0.000 F18.000 
G2 X550.569 Y606.996 Z-10.367 I0.969 J0.000 F18.000 
G2 X548.631 Y606.996 Z-13.208 I-0.969 J0.000 F18.000 
G2 X550.569 Y606.996 Z-16.050 I0.969 J0.000 F18.000 
G2 X548.631 Y606.996 Z-16.050 I-0.969 J0.000 F18.000 
G2 X550.569 Y606.996 Z-16.050 I0.969 J0.000 F18.000 
G0 X549.600 Y606.996 Z-16.050 
G0 Z1.000 
G0 Z6.000 
G0 X473.400 Y606.996 Z6.000 
G0 X473.400 Y606.996 Z1.000 
G0 X474.369 Y606.996 
G1 Z1.000 F18.000 
G2 X472.431 Y606.996 Z-1.842 I-0.969 J0.000 F18.000 
G2 X474.369 Y606.996 Z-4.683 I0.969 J0.000 F18.000 
G2 X472.431 Y606.996 Z-7.525 I-0.969 J0.000 F18.000 
G2 X474.369 Y606.996 Z-10.367 I0.969 J0.000 F18.000 
G2 X472.431 Y606.996 Z-13.208 I-0.969 J0.000 F18.000 
G2 X474.369 Y606.996 Z-16.050 I0.969 J0.000 F18.000 
G2 X472.431 Y606.996 Z-16.050 I-0.969 J0.000 F18.000 
G2 X474.369 Y606.996 Z-16.050 I0.969 J0.000 F18.000 
G0 X473.400 Y606.996 Z-16.050 
G0 Z1.000 
G0 Z6.000 
G0 X473.400 Y530.796 Z6.000 
G0 X473.400 Y530.796 Z1.000 
G0 X474.369 Y530.796 
G1 Z1.000 F18.000 
G2 X472.431 Y530.796 Z-1.842 I-0.969 J0.000 F18.000 
G2 X474.369 Y530.796 Z-4.683 I0.969 J0.000 F18.000 
G2 X472.431 Y530.796 Z-7.525 I-0.969 J0.000 F18.000 
G2 X474.369 Y530.796 Z-10.367 I0.969 J0.000 F18.000 
G2 X472.431 Y530.796 Z-13.208 I-0.969 J0.000 F18.000 
G2 X474.369 Y530.796 Z-16.050 I0.969 J0.000 F18.000 
G2 X472.431 Y530.796 Z-16.050 I-0.969 J0.000 F18.000 
G2 X474.369 Y530.796 Z-16.050 I0.969 J0.000 F18.000 
G0 X473.400 Y530.796 Z-16.050 
G0 Z1.000 
G0 Z6.000 
G0 X549.600 Y530.796 Z6.000 
G0 X549.600 Y530.796 Z1.000 
G0 X550.569 Y530.796 
G1 Z1.000 F18.000 
G2 X548.631 Y530.796 Z-1.842 I-0.969 J0.000 F18.000 
G2 X550.569 Y530.796 Z-4.683 I0.969 J0.000 F18.000 
G2 X548.631 Y530.796 Z-7.525 I-0.969 J0.000 F18.000 
G2 X550.569 Y530.796 Z-10.367 I0.969 J0.000 F18.000 
G2 X548.631 Y530.796 Z-13.208 I-0.969 J0.000 F18.000 
G2 X550.569 Y530.796 Z-16.050 I0.969 J0.000 F18.000 
G2 X548.631 Y530.796 Z-16.050 I-0.969 J0.000 F18.000 
G2 X550.569 Y530.796 Z-16.050 I0.969 J0.000 F18.000 
G0 X549.600 Y530.796 Z-16.050 
G0 Z1.000 
G0 Z6.000 
G0 X549.600 Y454.596 Z6.000 
G0 X549.600 Y454.596 Z1.000 
G0 X550.569 Y454.596 
G1 Z1.000 F18.000 
G2 X548.631 Y454.596 Z-1.842 I-0.969 J0.000 F18.000 
G2 X550.569 Y454.596 Z-4.683 I0.969 J0.000 F18.000 
G2 X548.631 Y454.596 Z-7.525 I-0.969 J0.000 F18.000 
G2 X550.569 Y454.596 Z-10.367 I0.969 J0.000 F18.000 
G2 X548.631 Y454.596 Z-13.208 I-0.969 J0.000 F18.000 
G2 X550.569 Y454.596 Z-16.050 I0.969 J0.000 F18.000 
G2 X548.631 Y454.596 Z-16.050 I-0.969 J0.000 F18.000 
G2 X550.569 Y454.596 Z-16.050 I0.969 J0.000 F18.000 
G0 X549.600 Y454.596 Z-16.050 
G0 Z1.000 
G0 Z6.000 
G0 X549.600 Y378.396 Z6.000 
G0 X549.600 Y378.396 Z1.000 
G0 X550.569 Y378.396 
G1 Z1.000 F18.000 
G2 X548.631 Y378.396 Z-1.842 I-0.969 J0.000 F18.000 
G2 X550.569 Y378.396 Z-4.683 I0.969 J0.000 F18.000 
G2 X548.631 Y378.396 Z-7.525 I-0.969 J0.000 F18.000 
G2 X550.569 Y378.396 Z-10.367 I0.969 J0.000 F18.000 
G2 X548.631 Y378.396 Z-13.208 I-0.969 J0.000 F18.000 
G2 X550.569 Y378.396 Z-16.050 I0.969 J0.000 F18.000 
G2 X548.631 Y378.396 Z-16.050 I-0.969 J0.000 F18.000 
G2 X550.569 Y378.396 Z-16.050 I0.969 J0.000 F18.000 
G0 X549.600 Y378.396 Z-16.050 
G0 Z1.000 
G0 Z6.000 
G0 X473.400 Y378.396 Z6.000 
G0 X473.400 Y378.396 Z1.000 
G0 X474.369 Y378.396 
G1 Z1.000 F18.000 
G2 X472.431 Y378.396 Z-1.842 I-0.969 J0.000 F18.000 
G2 X474.369 Y378.396 Z-4.683 I0.969 J0.000 F18.000 
G2 X472.431 Y378.396 Z-7.525 I-0.969 J0.000 F18.000 
G2 X474.369 Y378.396 Z-10.367 I0.969 J0.000 F18.000 
G2 X472.431 Y378.396 Z-13.208 I-0.969 J0.000 F18.000 
G2 X474.369 Y378.396 Z-16.050 I0.969 J0.000 F18.000 
G2 X472.431 Y378.396 Z-16.050 I-0.969 J0.000 F18.000 
G2 X474.369 Y378.396 Z-16.050 I0.969 J0.000 F18.000 
G0 X473.400 Y378.396 Z-16.050 
G0 Z1.000 
G0 Z6.000 
G0 X473.400 Y302.196 Z6.000 
G0 X473.400 Y302.196 Z1.000 
G0 X474.369 Y302.196 
G1 Z1.000 F18.000 
G2 X472.431 Y302.196 Z-1.842 I-0.969 J0.000 F18.000 
G2 X474.369 Y302.196 Z-4.683 I0.969 J0.000 F18.000 
G2 X472.431 Y302.196 Z-7.525 I-0.969 J0.000 F18.000 
G2 X474.369 Y302.196 Z-10.367 I0.969 J0.000 F18.000 
G2 X472.431 Y302.196 Z-13.208 I-0.969 J0.000 F18.000 
G2 X474.369 Y302.196 Z-16.050 I0.969 J0.000 F18.000 
G2 X472.431 Y302.196 Z-16.050 I-0.969 J0.000 F18.000 
G2 X474.369 Y302.196 Z-16.050 I0.969 J0.000 F18.000 
G0 X473.400 Y302.196 Z-16.050 
G0 Z1.000 
G0 Z6.000 
G0 X549.600 Y302.196 Z6.000 
G0 X549.600 Y302.196 Z1.000 
G0 X550.569 Y302.196 
G1 Z1.000 F18.000 
G2 X548.631 Y302.196 Z-1.842 I-0.969 J0.000 F18.000 
G2 X550.569 Y302.196 Z-4.683 I0.969 J0.000 F18.000 
G2 X548.631 Y302.196 Z-7.525 I-0.969 J0.000 F18.000 
G2 X550.569 Y302.196 Z-10.367 I0.969 J0.000 F18.000 
G2 X548.631 Y302.196 Z-13.208 I-0.969 J0.000 F18.000 
G2 X550.569 Y302.196 Z-16.050 I0.969 J0.000 F18.000 
G2 X548.631 Y302.196 Z-16.050 I-0.969 J0.000 F18.000 
G2 X550.569 Y302.196 Z-16.050 I0.969 J0.000 F18.000 
G0 X549.600 Y302.196 Z-16.050 
G0 Z1.000 
G0 Z6.000 
G0 X549.600 Y225.996 Z6.000 
G0 X549.600 Y225.996 Z1.000 
G0 X550.569 Y225.996 
G1 Z1.000 F18.000 
G2 X548.631 Y225.996 Z-1.842 I-0.969 J0.000 F18.000 
G2 X550.569 Y225.996 Z-4.683 I0.969 J0.000 F18.000 
G2 X548.631 Y225.996 Z-7.525 I-0.969 J0.000 F18.000 
G2 X550.569 Y225.996 Z-10.367 I0.969 J0.000 F18.000 
G2 X548.631 Y225.996 Z-13.208 I-0.969 J0.000 F18.000 
G2 X550.569 Y225.996 Z-16.050 I0.969 J0.000 F18.000 
G2 X548.631 Y225.996 Z-16.050 I-0.969 J0.000 F18.000 
G2 X550.569 Y225.996 Z-16.050 I0.969 J0.000 F18.000 
G0 X549.600 Y225.996 Z-16.050 
G0 Z1.000 
G0 Z6.000 
G0 X549.600 Y149.796 Z6.000 
G0 X549.600 Y149.796 Z1.000 
G0 X550.569 Y149.796 
G1 Z1.000 F18.000 
G2 X548.631 Y149.796 Z-1.842 I-0.969 J0.000 F18.000 
G2 X550.569 Y149.796 Z-4.683 I0.969 J0.000 F18.000 
G2 X548.631 Y149.796 Z-7.525 I-0.969 J0.000 F18.000 
G2 X550.569 Y149.796 Z-10.367 I0.969 J0.000 F18.000 
G2 X548.631 Y149.796 Z-13.208 I-0.969 J0.000 F18.000 
G2 X550.569 Y149.796 Z-16.050 I0.969 J0.000 F18.000 
G2 X548.631 Y149.796 Z-16.050 I-0.969 J0.000 F18.000 
G2 X550.569 Y149.796 Z-16.050 I0.969 J0.000 F18.000 
G0 X549.600 Y149.796 Z-16.050 
G0 Z1.000 
G0 Z6.000 
G0 X473.400 Y149.796 Z6.000 
G0 X473.400 Y149.796 Z1.000 
G0 X474.369 Y149.796 
G1 Z1.000 F18.000 
G2 X472.431 Y149.796 Z-1.842 I-0.969 J0.000 F18.000 
G2 X474.369 Y149.796 Z-4.683 I0.969 J0.000 F18.000 
G2 X472.431 Y149.796 Z-7.525 I-0.969 J0.000 F18.000 
G2 X474.369 Y149.796 Z-10.367 I0.969 J0.000 F18.000 
G2 X472.431 Y149.796 Z-13.208 I-0.969 J0.000 F18.000 
G2 X474.369 Y149.796 Z-16.050 I0.969 J0.000 F18.000 
G2 X472.431 Y149.796 Z-16.050 I-0.969 J0.000 F18.000 
G2 X474.369 Y149.796 Z-16.050 I0.969 J0.000 F18.000 
G0 X473.400 Y149.796 Z-16.050 
G0 Z1.000 
G0 Z6.000 
G0 X676.600 Y149.796 Z6.000 
G0 X676.600 Y149.796 Z1.000 
G0 X677.569 Y149.796 
G1 Z1.000 F18.000 
G2 X675.631 Y149.796 Z-1.842 I-0.969 J0.000 F18.000 
G2 X677.569 Y149.796 Z-4.683 I0.969 J0.000 F18.000 
G2 X675.631 Y149.796 Z-7.525 I-0.969 J0.000 F18.000 
G2 X677.569 Y149.796 Z-10.367 I0.969 J0.000 F18.000 
G2 X675.631 Y149.796 Z-13.208 I-0.969 J0.000 F18.000 
G2 X677.569 Y149.796 Z-16.050 I0.969 J0.000 F18.000 
G2 X675.631 Y149.796 Z-16.050 I-0.969 J0.000 F18.000 
G2 X677.569 Y149.796 Z-16.050 I0.969 J0.000 F18.000 
G0 X676.600 Y149.796 Z-16.050 
G0 Z1.000 
G0 Z6.000 
G0 X676.600 Y225.996 Z6.000 
G0 X676.600 Y225.996 Z1.000 
G0 X677.569 Y225.996 
G1 Z1.000 F18.000 
G2 X675.631 Y225.996 Z-1.842 I-0.969 J0.000 F18.000 
G2 X677.569 Y225.996 Z-4.683 I0.969 J0.000 F18.000 
G2 X675.631 Y225.996 Z-7.525 I-0.969 J0.000 F18.000 
G2 X677.569 Y225.996 Z-10.367 I0.969 J0.000 F18.000 
G2 X675.631 Y225.996 Z-13.208 I-0.969 J0.000 F18.000 
G2 X677.569 Y225.996 Z-16.050 I0.969 J0.000 F18.000 
G2 X675.631 Y225.996 Z-16.050 I-0.969 J0.000 F18.000 
G2 X677.569 Y225.996 Z-16.050 I0.969 J0.000 F18.000 
G0 X676.600 Y225.996 Z-16.050 
G0 Z1.000 
G0 Z6.000 
G0 X676.600 Y302.196 Z6.000 
G0 X676.600 Y302.196 Z1.000 
G0 X677.569 Y302.196 
G1 Z1.000 F18.000 
G2 X675.631 Y302.196 Z-1.842 I-0.969 J0.000 F18.000 
G2 X677.569 Y302.196 Z-4.683 I0.969 J0.000 F18.000 
G2 X675.631 Y302.196 Z-7.525 I-0.969 J0.000 F18.000 
G2 X677.569 Y302.196 Z-10.367 I0.969 J0.000 F18.000 
G2 X675.631 Y302.196 Z-13.208 I-0.969 J0.000 F18.000 
G2 X677.569 Y302.196 Z-16.050 I0.969 J0.000 F18.000 
G2 X675.631 Y302.196 Z-16.050 I-0.969 J0.000 F18.000 
G2 X677.569 Y302.196 Z-16.050 I0.969 J0.000 F18.000 
G0 X676.600 Y302.196 Z-16.050 
G0 Z1.000 
G0 Z6.000 
G0 X676.600 Y378.396 Z6.000 
G0 X676.600 Y378.396 Z1.000 
G0 X677.569 Y378.396 
G1 Z1.000 F18.000 
G2 X675.631 Y378.396 Z-1.842 I-0.969 J0.000 F18.000 
G2 X677.569 Y378.396 Z-4.683 I0.969 J0.000 F18.000 
G2 X675.631 Y378.396 Z-7.525 I-0.969 J0.000 F18.000 
G2 X677.569 Y378.396 Z-10.367 I0.969 J0.000 F18.000 
G2 X675.631 Y378.396 Z-13.208 I-0.969 J0.000 F18.000 
G2 X677.569 Y378.396 Z-16.050 I0.969 J0.000 F18.000 
G2 X675.631 Y378.396 Z-16.050 I-0.969 J0.000 F18.000 
G2 X677.569 Y378.396 Z-16.050 I0.969 J0.000 F18.000 
G0 X676.600 Y378.396 Z-16.050 
G0 Z1.000 
G0 Z6.000 
G0 X676.600 Y454.596 Z6.000 
G0 X676.600 Y454.596 Z1.000 
G0 X677.569 Y454.596 
G1 Z1.000 F18.000 
G2 X675.631 Y454.596 Z-1.842 I-0.969 J0.000 F18.000 
G2 X677.569 Y454.596 Z-4.683 I0.969 J0.000 F18.000 
G2 X675.631 Y454.596 Z-7.525 I-0.969 J0.000 F18.000 
G2 X677.569 Y454.596 Z-10.367 I0.969 J0.000 F18.000 
G2 X675.631 Y454.596 Z-13.208 I-0.969 J0.000 F18.000 
G2 X677.569 Y454.596 Z-16.050 I0.969 J0.000 F18.000 
G2 X675.631 Y454.596 Z-16.050 I-0.969 J0.000 F18.000 
G2 X677.569 Y454.596 Z-16.050 I0.969 J0.000 F18.000 
G0 X676.600 Y454.596 Z-16.050 
G0 Z1.000 
G0 Z6.000 
G0 X676.600 Y530.796 Z6.000 
G0 X676.600 Y530.796 Z1.000 
G0 X677.569 Y530.796 
G1 Z1.000 F18.000 
G2 X675.631 Y530.796 Z-1.842 I-0.969 J0.000 F18.000 
G2 X677.569 Y530.796 Z-4.683 I0.969 J0.000 F18.000 
G2 X675.631 Y530.796 Z-7.525 I-0.969 J0.000 F18.000 
G2 X677.569 Y530.796 Z-10.367 I0.969 J0.000 F18.000 
G2 X675.631 Y530.796 Z-13.208 I-0.969 J0.000 F18.000 
G2 X677.569 Y530.796 Z-16.050 I0.969 J0.000 F18.000 
G2 X675.631 Y530.796 Z-16.050 I-0.969 J0.000 F18.000 
G2 X677.569 Y530.796 Z-16.050 I0.969 J0.000 F18.000 
G0 X676.600 Y530.796 Z-16.050 
G0 Z1.000 
G0 Z6.000 
G0 X676.600 Y606.996 Z6.000 
G0 X676.600 Y606.996 Z1.000 
G0 X677.569 Y606.996 
G1 Z1.000 F18.000 
G2 X675.631 Y606.996 Z-1.842 I-0.969 J0.000 F18.000 
G2 X677.569 Y606.996 Z-4.683 I0.969 J0.000 F18.000 
G2 X675.631 Y606.996 Z-7.525 I-0.969 J0.000 F18.000 
G2 X677.569 Y606.996 Z-10.367 I0.969 J0.000 F18.000 
G2 X675.631 Y606.996 Z-13.208 I-0.969 J0.000 F18.000 
G2 X677.569 Y606.996 Z-16.050 I0.969 J0.000 F18.000 
G2 X675.631 Y606.996 Z-16.050 I-0.969 J0.000 F18.000 
G2 X677.569 Y606.996 Z-16.050 I0.969 J0.000 F18.000 
G0 X676.600 Y606.996 Z-16.050 
G0 Z1.000 
G0 Z6.000 
G0 X676.600 Y683.196 Z6.000 
G0 X676.600 Y683.196 Z1.000 
G0 X677.569 Y683.196 
G1 Z1.000 F18.000 
G2 X675.631 Y683.196 Z-1.842 I-0.969 J0.000 F18.000 
G2 X677.569 Y683.196 Z-4.683 I0.969 J0.000 F18.000 
G2 X675.631 Y683.196 Z-7.525 I-0.969 J0.000 F18.000 
G2 X677.569 Y683.196 Z-10.367 I0.969 J0.000 F18.000 
G2 X675.631 Y683.196 Z-13.208 I-0.969 J0.000 F18.000 
G2 X677.569 Y683.196 Z-16.050 I0.969 J0.000 F18.000 
G2 X675.631 Y683.196 Z-16.050 I-0.969 J0.000 F18.000 
G2 X677.569 Y683.196 Z-16.050 I0.969 J0.000 F18.000 
G0 X676.600 Y683.196 Z-16.050 
G0 Z1.000 
G0 Z6.000 
G0 X676.600 Y759.396 Z6.000 
G0 X676.600 Y759.396 Z1.000 
G0 X677.569 Y759.396 
G1 Z1.000 F18.000 
G2 X675.631 Y759.396 Z-1.842 I-0.969 J0.000 F18.000 
G2 X677.569 Y759.396 Z-4.683 I0.969 J0.000 F18.000 
G2 X675.631 Y759.396 Z-7.525 I-0.969 J0.000 F18.000 
G2 X677.569 Y759.396 Z-10.367 I0.969 J0.000 F18.000 
G2 X675.631 Y759.396 Z-13.208 I-0.969 J0.000 F18.000 
G2 X677.569 Y759.396 Z-16.050 I0.969 J0.000 F18.000 
G2 X675.631 Y759.396 Z-16.050 I-0.969 J0.000 F18.000 
G2 X677.569 Y759.396 Z-16.050 I0.969 J0.000 F18.000 
G0 X676.600 Y759.396 Z-16.050 
G0 Z1.000 
G0 Z6.000 
G0 X676.600 Y835.596 Z6.000 
G0 X676.600 Y835.596 Z1.000 
G0 X677.569 Y835.596 
G1 Z1.000 F18.000 
G2 X675.631 Y835.596 Z-1.842 I-0.969 J0.000 F18.000 
G2 X677.569 Y835.596 Z-4.683 I0.969 J0.000 F18.000 
G2 X675.631 Y835.596 Z-7.525 I-0.969 J0.000 F18.000 
G2 X677.569 Y835.596 Z-10.367 I0.969 J0.000 F18.000 
G2 X675.631 Y835.596 Z-13.208 I-0.969 J0.000 F18.000 
G2 X677.569 Y835.596 Z-16.050 I0.969 J0.000 F18.000 
G2 X675.631 Y835.596 Z-16.050 I-0.969 J0.000 F18.000 
G2 X677.569 Y835.596 Z-16.050 I0.969 J0.000 F18.000 
G0 X676.600 Y835.596 Z-16.050 
G0 Z1.000 
G0 Z6.000 
G0 X752.800 Y835.596 Z6.000 
G0 X752.800 Y835.596 Z1.000 
G0 X753.769 Y835.596 
G1 Z1.000 F18.000 
G2 X751.831 Y835.596 Z-1.842 I-0.969 J0.000 F18.000 
G2 X753.769 Y835.596 Z-4.683 I0.969 J0.000 F18.000 
G2 X751.831 Y835.596 Z-7.525 I-0.969 J0.000 F18.000 
G2 X753.769 Y835.596 Z-10.367 I0.969 J0.000 F18.000 
G2 X751.831 Y835.596 Z-13.208 I-0.969 J0.000 F18.000 
G2 X753.769 Y835.596 Z-16.050 I0.969 J0.000 F18.000 
G2 X751.831 Y835.596 Z-16.050 I-0.969 J0.000 F18.000 
G2 X753.769 Y835.596 Z-16.050 I0.969 J0.000 F18.000 
G0 X752.800 Y835.596 Z-16.050 
G0 Z1.000 
G0 Z6.000 
G0 X752.800 Y759.396 Z6.000 
G0 X752.800 Y759.396 Z1.000 
G0 X753.769 Y759.396 
G1 Z1.000 F18.000 
G2 X751.831 Y759.396 Z-1.842 I-0.969 J0.000 F18.000 
G2 X753.769 Y759.396 Z-4.683 I0.969 J0.000 F18.000 
G2 X751.831 Y759.396 Z-7.525 I-0.969 J0.000 F18.000 
G2 X753.769 Y759.396 Z-10.367 I0.969 J0.000 F18.000 
G2 X751.831 Y759.396 Z-13.208 I-0.969 J0.000 F18.000 
G2 X753.769 Y759.396 Z-16.050 I0.969 J0.000 F18.000 
G2 X751.831 Y759.396 Z-16.050 I-0.969 J0.000 F18.000 
G2 X753.769 Y759.396 Z-16.050 I0.969 J0.000 F18.000 
G0 X752.800 Y759.396 Z-16.050 
G0 Z1.000 
G0 Z6.000 
G0 X829.000 Y759.396 Z6.000 
G0 X829.000 Y759.396 Z1.000 
G0 X829.969 Y759.396 
G1 Z1.000 F18.000 
G2 X828.031 Y759.396 Z-1.842 I-0.969 J0.000 F18.000 
G2 X829.969 Y759.396 Z-4.683 I0.969 J0.000 F18.000 
G2 X828.031 Y759.396 Z-7.525 I-0.969 J0.000 F18.000 
G2 X829.969 Y759.396 Z-10.367 I0.969 J0.000 F18.000 
G2 X828.031 Y759.396 Z-13.208 I-0.969 J0.000 F18.000 
G2 X829.969 Y759.396 Z-16.050 I0.969 J0.000 F18.000 
G2 X828.031 Y759.396 Z-16.050 I-0.969 J0.000 F18.000 
G2 X829.969 Y759.396 Z-16.050 I0.969 J0.000 F18.000 
G0 X829.000 Y759.396 Z-16.050 
G0 Z1.000 
G0 Z6.000 
G0 X829.000 Y683.196 Z6.000 
G0 X829.000 Y683.196 Z1.000 
G0 X829.969 Y683.196 
G1 Z1.000 F18.000 
G2 X828.031 Y683.196 Z-1.842 I-0.969 J0.000 F18.000 
G2 X829.969 Y683.196 Z-4.683 I0.969 J0.000 F18.000 
G2 X828.031 Y683.196 Z-7.525 I-0.969 J0.000 F18.000 
G2 X829.969 Y683.196 Z-10.367 I0.969 J0.000 F18.000 
G2 X828.031 Y683.196 Z-13.208 I-0.969 J0.000 F18.000 
G2 X829.969 Y683.196 Z-16.050 I0.969 J0.000 F18.000 
G2 X828.031 Y683.196 Z-16.050 I-0.969 J0.000 F18.000 
G2 X829.969 Y683.196 Z-16.050 I0.969 J0.000 F18.000 
G0 X829.000 Y683.196 Z-16.050 
G0 Z1.000 
G0 Z6.000 
G0 X829.000 Y606.996 Z6.000 
G0 X829.000 Y606.996 Z1.000 
G0 X829.969 Y606.996 
G1 Z1.000 F18.000 
G2 X828.031 Y606.996 Z-1.842 I-0.969 J0.000 F18.000 
G2 X829.969 Y606.996 Z-4.683 I0.969 J0.000 F18.000 
G2 X828.031 Y606.996 Z-7.525 I-0.969 J0.000 F18.000 
G2 X829.969 Y606.996 Z-10.367 I0.969 J0.000 F18.000 
G2 X828.031 Y606.996 Z-13.208 I-0.969 J0.000 F18.000 
G2 X829.969 Y606.996 Z-16.050 I0.969 J0.000 F18.000 
G2 X828.031 Y606.996 Z-16.050 I-0.969 J0.000 F18.000 
G2 X829.969 Y606.996 Z-16.050 I0.969 J0.000 F18.000 
G0 X829.000 Y606.996 Z-16.050 
G0 Z1.000 
G0 Z6.000 
G0 X752.800 Y606.996 Z6.000 
G0 X752.800 Y606.996 Z1.000 
G0 X753.769 Y606.996 
G1 Z1.000 F18.000 
G2 X751.831 Y606.996 Z-1.842 I-0.969 J0.000 F18.000 
G2 X753.769 Y606.996 Z-4.683 I0.969 J0.000 F18.000 
G2 X751.831 Y606.996 Z-7.525 I-0.969 J0.000 F18.000 
G2 X753.769 Y606.996 Z-10.367 I0.969 J0.000 F18.000 
G2 X751.831 Y606.996 Z-13.208 I-0.969 J0.000 F18.000 
G2 X753.769 Y606.996 Z-16.050 I0.969 J0.000 F18.000 
G2 X751.831 Y606.996 Z-16.050 I-0.969 J0.000 F18.000 
G2 X753.769 Y606.996 Z-16.050 I0.969 J0.000 F18.000 
G0 X752.800 Y606.996 Z-16.050 
G0 Z1.000 
G0 Z6.000 
G0 X752.800 Y530.796 Z6.000 
G0 X752.800 Y530.796 Z1.000 
G0 X753.769 Y530.796 
G1 Z1.000 F18.000 
G2 X751.831 Y530.796 Z-1.842 I-0.969 J0.000 F18.000 
G2 X753.769 Y530.796 Z-4.683 I0.969 J0.000 F18.000 
G2 X751.831 Y530.796 Z-7.525 I-0.969 J0.000 F18.000 
G2 X753.769 Y530.796 Z-10.367 I0.969 J0.000 F18.000 
G2 X751.831 Y530.796 Z-13.208 I-0.969 J0.000 F18.000 
G2 X753.769 Y530.796 Z-16.050 I0.969 J0.000 F18.000 
G2 X751.831 Y530.796 Z-16.050 I-0.969 J0.000 F18.000 
G2 X753.769 Y530.796 Z-16.050 I0.969 J0.000 F18.000 
G0 X752.800 Y530.796 Z-16.050 
G0 Z1.000 
G0 Z6.000 
G0 X829.000 Y530.796 Z6.000 
G0 X829.000 Y530.796 Z1.000 
G0 X829.969 Y530.796 
G1 Z1.000 F18.000 
G2 X828.031 Y530.796 Z-1.842 I-0.969 J0.000 F18.000 
G2 X829.969 Y530.796 Z-4.683 I0.969 J0.000 F18.000 
G2 X828.031 Y530.796 Z-7.525 I-0.969 J0.000 F18.000 
G2 X829.969 Y530.796 Z-10.367 I0.969 J0.000 F18.000 
G2 X828.031 Y530.796 Z-13.208 I-0.969 J0.000 F18.000 
G2 X829.969 Y530.796 Z-16.050 I0.969 J0.000 F18.000 
G2 X828.031 Y530.796 Z-16.050 I-0.969 J0.000 F18.000 
G2 X829.969 Y530.796 Z-16.050 I0.969 J0.000 F18.000 
G0 X829.000 Y530.796 Z-16.050 
G0 Z1.000 
G0 Z6.000 
G0 X829.000 Y454.596 Z6.000 
G0 X829.000 Y454.596 Z1.000 
G0 X829.969 Y454.596 
G1 Z1.000 F18.000 
G2 X828.031 Y454.596 Z-1.842 I-0.969 J0.000 F18.000 
G2 X829.969 Y454.596 Z-4.683 I0.969 J0.000 F18.000 
G2 X828.031 Y454.596 Z-7.525 I-0.969 J0.000 F18.000 
G2 X829.969 Y454.596 Z-10.367 I0.969 J0.000 F18.000 
G2 X828.031 Y454.596 Z-13.208 I-0.969 J0.000 F18.000 
G2 X829.969 Y454.596 Z-16.050 I0.969 J0.000 F18.000 
G2 X828.031 Y454.596 Z-16.050 I-0.969 J0.000 F18.000 
G2 X829.969 Y454.596 Z-16.050 I0.969 J0.000 F18.000 
G0 X829.000 Y454.596 Z-16.050 
G0 Z1.000 
G0 Z6.000 
G0 X829.000 Y378.396 Z6.000 
G0 X829.000 Y378.396 Z1.000 
G0 X829.969 Y378.396 
G1 Z1.000 F18.000 
G2 X828.031 Y378.396 Z-1.842 I-0.969 J0.000 F18.000 
G2 X829.969 Y378.396 Z-4.683 I0.969 J0.000 F18.000 
G2 X828.031 Y378.396 Z-7.525 I-0.969 J0.000 F18.000 
G2 X829.969 Y378.396 Z-10.367 I0.969 J0.000 F18.000 
G2 X828.031 Y378.396 Z-13.208 I-0.969 J0.000 F18.000 
G2 X829.969 Y378.396 Z-16.050 I0.969 J0.000 F18.000 
G2 X828.031 Y378.396 Z-16.050 I-0.969 J0.000 F18.000 
G2 X829.969 Y378.396 Z-16.050 I0.969 J0.000 F18.000 
G0 X829.000 Y378.396 Z-16.050 
G0 Z1.000 
G0 Z6.000 
G0 X752.800 Y378.396 Z6.000 
G0 X752.800 Y378.396 Z1.000 
G0 X753.769 Y378.396 
G1 Z1.000 F18.000 
G2 X751.831 Y378.396 Z-1.842 I-0.969 J0.000 F18.000 
G2 X753.769 Y378.396 Z-4.683 I0.969 J0.000 F18.000 
G2 X751.831 Y378.396 Z-7.525 I-0.969 J0.000 F18.000 
G2 X753.769 Y378.396 Z-10.367 I0.969 J0.000 F18.000 
G2 X751.831 Y378.396 Z-13.208 I-0.969 J0.000 F18.000 
G2 X753.769 Y378.396 Z-16.050 I0.969 J0.000 F18.000 
G2 X751.831 Y378.396 Z-16.050 I-0.969 J0.000 F18.000 
G2 X753.769 Y378.396 Z-16.050 I0.969 J0.000 F18.000 
G0 X752.800 Y378.396 Z-16.050 
G0 Z1.000 
G0 Z6.000 
G0 X752.800 Y302.196 Z6.000 
G0 X752.800 Y302.196 Z1.000 
G0 X753.769 Y302.196 
G1 Z1.000 F18.000 
G2 X751.831 Y302.196 Z-1.842 I-0.969 J0.000 F18.000 
G2 X753.769 Y302.196 Z-4.683 I0.969 J0.000 F18.000 
G2 X751.831 Y302.196 Z-7.525 I-0.969 J0.000 F18.000 
G2 X753.769 Y302.196 Z-10.367 I0.969 J0.000 F18.000 
G2 X751.831 Y302.196 Z-13.208 I-0.969 J0.000 F18.000 
G2 X753.769 Y302.196 Z-16.050 I0.969 J0.000 F18.000 
G2 X751.831 Y302.196 Z-16.050 I-0.969 J0.000 F18.000 
G2 X753.769 Y302.196 Z-16.050 I0.969 J0.000 F18.000 
G0 X752.800 Y302.196 Z-16.050 
G0 Z1.000 
G0 Z6.000 
G0 X829.000 Y302.196 Z6.000 
G0 X829.000 Y302.196 Z1.000 
G0 X829.969 Y302.196 
G1 Z1.000 F18.000 
G2 X828.031 Y302.196 Z-1.842 I-0.969 J0.000 F18.000 
G2 X829.969 Y302.196 Z-4.683 I0.969 J0.000 F18.000 
G2 X828.031 Y302.196 Z-7.525 I-0.969 J0.000 F18.000 
G2 X829.969 Y302.196 Z-10.367 I0.969 J0.000 F18.000 
G2 X828.031 Y302.196 Z-13.208 I-0.969 J0.000 F18.000 
G2 X829.969 Y302.196 Z-16.050 I0.969 J0.000 F18.000 
G2 X828.031 Y302.196 Z-16.050 I-0.969 J0.000 F18.000 
G2 X829.969 Y302.196 Z-16.050 I0.969 J0.000 F18.000 
G0 X829.000 Y302.196 Z-16.050 
G0 Z1.000 
G0 Z6.000 
G0 X829.000 Y225.996 Z6.000 
G0 X829.000 Y225.996 Z1.000 
G0 X829.969 Y225.996 
G1 Z1.000 F18.000 
G2 X828.031 Y225.996 Z-1.842 I-0.969 J0.000 F18.000 
G2 X829.969 Y225.996 Z-4.683 I0.969 J0.000 F18.000 
G2 X828.031 Y225.996 Z-7.525 I-0.969 J0.000 F18.000 
G2 X829.969 Y225.996 Z-10.367 I0.969 J0.000 F18.000 
G2 X828.031 Y225.996 Z-13.208 I-0.969 J0.000 F18.000 
G2 X829.969 Y225.996 Z-16.050 I0.969 J0.000 F18.000 
G2 X828.031 Y225.996 Z-16.050 I-0.969 J0.000 F18.000 
G2 X829.969 Y225.996 Z-16.050 I0.969 J0.000 F18.000 
G0 X829.000 Y225.996 Z-16.050 
G0 Z1.000 
G0 Z6.000 
G0 X829.000 Y149.796 Z6.000 
G0 X829.000 Y149.796 Z1.000 
G0 X829.969 Y149.796 
G1 Z1.000 F18.000 
G2 X828.031 Y149.796 Z-1.842 I-0.969 J0.000 F18.000 
G2 X829.969 Y149.796 Z-4.683 I0.969 J0.000 F18.000 
G2 X828.031 Y149.796 Z-7.525 I-0.969 J0.000 F18.000 
G2 X829.969 Y149.796 Z-10.367 I0.969 J0.000 F18.000 
G2 X828.031 Y149.796 Z-13.208 I-0.969 J0.000 F18.000 
G2 X829.969 Y149.796 Z-16.050 I0.969 J0.000 F18.000 
G2 X828.031 Y149.796 Z-16.050 I-0.969 J0.000 F18.000 
G2 X829.969 Y149.796 Z-16.050 I0.969 J0.000 F18.000 
G0 X829.000 Y149.796 Z-16.050 
G0 Z1.000 
G0 Z6.000 
G0 X752.800 Y149.796 Z6.000 
G0 X752.800 Y149.796 Z1.000 
G0 X753.769 Y149.796 
G1 Z1.000 F18.000 
G2 X751.831 Y149.796 Z-1.842 I-0.969 J0.000 F18.000 
G2 X753.769 Y149.796 Z-4.683 I0.969 J0.000 F18.000 
G2 X751.831 Y149.796 Z-7.525 I-0.969 J0.000 F18.000 
G2 X753.769 Y149.796 Z-10.367 I0.969 J0.000 F18.000 
G2 X751.831 Y149.796 Z-13.208 I-0.969 J0.000 F18.000 
G2 X753.769 Y149.796 Z-16.050 I0.969 J0.000 F18.000 
G2 X751.831 Y149.796 Z-16.050 I-0.969 J0.000 F18.000 
G2 X753.769 Y149.796 Z-16.050 I0.969 J0.000 F18.000 
G0 X752.800 Y149.796 Z-16.050 
G0 Z1.000 
G0 Z6.000 
G0 X829.000 Y835.596 Z6.000 
G0 X829.000 Y835.596 Z1.000 
G0 X829.969 Y835.596 
G1 Z1.000 F18.000 
G2 X828.031 Y835.596 Z-1.842 I-0.969 J0.000 F18.000 
G2 X829.969 Y835.596 Z-4.683 I0.969 J0.000 F18.000 
G2 X828.031 Y835.596 Z-7.525 I-0.969 J0.000 F18.000 
G2 X829.969 Y835.596 Z-10.367 I0.969 J0.000 F18.000 
G2 X828.031 Y835.596 Z-13.208 I-0.969 J0.000 F18.000 
G2 X829.969 Y835.596 Z-16.050 I0.969 J0.000 F18.000 
G2 X828.031 Y835.596 Z-16.050 I-0.969 J0.000 F18.000 
G2 X829.969 Y835.596 Z-16.050 I0.969 J0.000 F18.000 
G0 X829.000 Y835.596 Z-16.050 
G0 Z1.000 
G0 Z6.000 
G0 X549.600 Y835.596 Z6.000 
G0 X549.600 Y835.596 Z1.000 
G0 X550.569 Y835.596 
G1 Z1.000 F18.000 
G2 X548.631 Y835.596 Z-1.842 I-0.969 J0.000 F18.000 
G2 X550.569 Y835.596 Z-4.683 I0.969 J0.000 F18.000 
G2 X548.631 Y835.596 Z-7.525 I-0.969 J0.000 F18.000 
G2 X550.569 Y835.596 Z-10.367 I0.969 J0.000 F18.000 
G2 X548.631 Y835.596 Z-13.208 I-0.969 J0.000 F18.000 
G2 X550.569 Y835.596 Z-16.050 I0.969 J0.000 F18.000 
G2 X548.631 Y835.596 Z-16.050 I-0.969 J0.000 F18.000 
G2 X550.569 Y835.596 Z-16.050 I0.969 J0.000 F18.000 
G0 X549.600 Y835.596 Z-16.050 
G0 Z1.000 
G0 Z6.000 
G0 X270.200 Y835.596 Z6.000 
G0 X270.200 Y835.596 Z1.000 
G0 X271.169 Y835.596 
G1 Z1.000 F18.000 
G2 X269.231 Y835.596 Z-1.842 I-0.969 J0.000 F18.000 
G2 X271.169 Y835.596 Z-4.683 I0.969 J0.000 F18.000 
G2 X269.231 Y835.596 Z-7.525 I-0.969 J0.000 F18.000 
G2 X271.169 Y835.596 Z-10.367 I0.969 J0.000 F18.000 
G2 X269.231 Y835.596 Z-13.208 I-0.969 J0.000 F18.000 
G2 X271.169 Y835.596 Z-16.050 I0.969 J0.000 F18.000 
G2 X269.231 Y835.596 Z-16.050 I-0.969 J0.000 F18.000 
G2 X271.169 Y835.596 Z-16.050 I0.969 J0.000 F18.000 
G0 X270.200 Y835.596 Z-16.050 
G0 Z1.000 
G0 Z6.000 
(finish operation: Helix)
(begin postamble)
M05
G17 G54 G90 G80 G40
M2
