(Exported by FreeCAD)
(Post Processor: linuxcnc_post)
(Output Time:2024-05-06 20:39:21.828608)
(begin preamble)
G17 G54 G40 G49 G80 G90
G21
(begin operation: Fixture)
(machine units: mm/min)
G54 
(finish operation: Fixture)
(begin operation: TC: 6mm_Endmill)
(machine units: mm/min)
(TC: 6mm_Endmill) 
M5
M6 T1 
G43 H1 
(finish operation: TC: 6mm_Endmill)
(begin operation: Pocket_Shape)
(machine units: mm/min)
(Pocket_Shape) 
G0 Z6.000 
G0 X30.000 Y30.000 
G0 X58.650 Y3.000 
G0 X58.650 Y3.000 Z4.000 
G1 X58.650 Y3.000 Z-10.525 F1200.000 
G1 X58.650 Y11.485 Z-10.525 F1200.000 
G1 X50.165 Y3.000 Z-10.525 F1200.000 
G1 X44.600 Y3.000 Z-10.525 F1200.000 
G1 X44.600 Y5.921 Z-10.525 F1200.000 
G1 X58.650 Y19.971 Z-10.525 F1200.000 
G1 X58.650 Y28.456 Z-10.525 F1200.000 
G1 X44.600 Y14.406 Z-10.525 F1200.000 
G1 X44.600 Y22.891 Z-10.525 F1200.000 
G1 X58.650 Y36.941 Z-10.525 F1200.000 
G1 X58.650 Y45.426 Z-10.525 F1200.000 
G1 X44.600 Y31.376 Z-10.525 F1200.000 
G1 X44.600 Y39.862 Z-10.525 F1200.000 
G1 X58.650 Y53.912 Z-10.525 F1200.000 
G1 X58.650 Y62.397 Z-10.525 F1200.000 
G1 X44.600 Y48.347 Z-10.525 F1200.000 
G1 X44.600 Y56.832 Z-10.525 F1200.000 
G1 X58.650 Y70.882 Z-10.525 F1200.000 
G1 X58.650 Y79.368 Z-10.525 F1200.000 
G1 X44.600 Y65.318 Z-10.525 F1200.000 
G1 X44.600 Y73.803 Z-10.525 F1200.000 
G1 X58.650 Y87.853 Z-10.525 F1200.000 
G1 X58.650 Y96.338 Z-10.525 F1200.000 
G1 X44.600 Y82.288 Z-10.525 F1200.000 
G1 X44.600 Y90.773 Z-10.525 F1200.000 
G1 X58.650 Y104.823 Z-10.525 F1200.000 
G1 X58.650 Y113.309 Z-10.525 F1200.000 
G1 X44.600 Y99.259 Z-10.525 F1200.000 
G1 X44.600 Y107.744 Z-10.525 F1200.000 
G1 X58.650 Y121.794 Z-10.525 F1200.000 
G1 X58.650 Y130.279 Z-10.525 F1200.000 
G1 X44.600 Y116.229 Z-10.525 F1200.000 
G1 X44.600 Y124.715 Z-10.525 F1200.000 
G1 X58.650 Y138.765 Z-10.525 F1200.000 
G1 X58.650 Y147.250 Z-10.525 F1200.000 
G1 X44.600 Y133.200 Z-10.525 F1200.000 
G1 X44.600 Y141.685 Z-10.525 F1200.000 
G1 X58.650 Y155.735 Z-10.525 F1200.000 
G1 X58.650 Y164.220 Z-10.525 F1200.000 
G1 X44.600 Y150.170 Z-10.525 F1200.000 
G1 X44.600 Y158.656 Z-10.525 F1200.000 
G1 X58.650 Y172.706 Z-10.525 F1200.000 
G1 X58.650 Y181.191 Z-10.525 F1200.000 
G1 X44.600 Y167.141 Z-10.525 F1200.000 
G1 X44.600 Y175.626 Z-10.525 F1200.000 
G1 X58.650 Y189.676 Z-10.525 F1200.000 
G1 X58.650 Y198.161 Z-10.525 F1200.000 
G1 X44.600 Y184.111 Z-10.525 F1200.000 
G1 X44.600 Y192.597 Z-10.525 F1200.000 
G1 X58.650 Y206.647 Z-10.525 F1200.000 
G1 X58.650 Y215.132 Z-10.525 F1200.000 
G1 X44.600 Y201.082 Z-10.525 F1200.000 
G1 X44.600 Y209.567 Z-10.525 F1200.000 
G1 X58.650 Y223.617 Z-10.525 F1200.000 
G1 X58.650 Y232.103 Z-10.525 F1200.000 
G1 X44.600 Y218.053 Z-10.525 F1200.000 
G1 X44.600 Y226.538 Z-10.525 F1200.000 
G1 X58.650 Y240.588 Z-10.525 F1200.000 
G1 X58.650 Y249.073 Z-10.525 F1200.000 
G1 X44.600 Y235.023 Z-10.525 F1200.000 
G1 X44.600 Y243.508 Z-10.525 F1200.000 
G1 X58.650 Y257.558 Z-10.525 F1200.000 
G1 X58.650 Y266.044 Z-10.525 F1200.000 
G1 X44.600 Y251.994 Z-10.525 F1200.000 
G1 X44.600 Y260.479 Z-10.525 F1200.000 
G1 X58.650 Y274.529 Z-10.525 F1200.000 
G1 X58.650 Y283.014 Z-10.525 F1200.000 
G1 X44.600 Y268.964 Z-10.525 F1200.000 
G1 X44.600 Y277.450 Z-10.525 F1200.000 
G1 X58.650 Y291.500 Z-10.525 F1200.000 
G1 X58.650 Y299.985 Z-10.525 F1200.000 
G1 X44.600 Y285.935 Z-10.525 F1200.000 
G1 X44.600 Y294.420 Z-10.525 F1200.000 
G1 X58.650 Y308.470 Z-10.525 F1200.000 
G1 X58.650 Y316.955 Z-10.525 F1200.000 
G1 X44.600 Y302.905 Z-10.525 F1200.000 
G1 X44.600 Y311.391 Z-10.525 F1200.000 
G1 X58.650 Y325.441 Z-10.525 F1200.000 
G1 X58.650 Y333.926 Z-10.525 F1200.000 
G1 X44.600 Y319.876 Z-10.525 F1200.000 
G1 X44.600 Y328.361 Z-10.525 F1200.000 
G1 X58.650 Y342.411 Z-10.525 F1200.000 
G1 X58.650 Y350.897 Z-10.525 F1200.000 
G1 X44.600 Y336.847 Z-10.525 F1200.000 
G1 X44.600 Y345.332 Z-10.525 F1200.000 
G1 X58.650 Y359.382 Z-10.525 F1200.000 
G1 X58.650 Y367.867 Z-10.525 F1200.000 
G1 X44.600 Y353.817 Z-10.525 F1200.000 
G1 X44.600 Y362.302 Z-10.525 F1200.000 
G1 X58.650 Y376.352 Z-10.525 F1200.000 
G1 X58.650 Y384.838 Z-10.525 F1200.000 
G1 X44.600 Y370.788 Z-10.525 F1200.000 
G1 X44.600 Y379.273 Z-10.525 F1200.000 
G1 X58.650 Y393.323 Z-10.525 F1200.000 
G1 X58.650 Y401.808 Z-10.525 F1200.000 
G1 X44.600 Y387.758 Z-10.525 F1200.000 
G1 X44.600 Y396.244 Z-10.525 F1200.000 
G1 X58.650 Y410.294 Z-10.525 F1200.000 
G1 X58.650 Y418.779 Z-10.525 F1200.000 
G1 X44.600 Y404.729 Z-10.525 F1200.000 
G1 X44.600 Y413.214 Z-10.525 F1200.000 
G1 X58.650 Y427.264 Z-10.525 F1200.000 
G1 X58.650 Y435.749 Z-10.525 F1200.000 
G1 X44.600 Y421.699 Z-10.525 F1200.000 
G1 X44.600 Y430.185 Z-10.525 F1200.000 
G1 X58.650 Y444.235 Z-10.525 F1200.000 
G1 X58.650 Y452.720 Z-10.525 F1200.000 
G1 X44.600 Y438.670 Z-10.525 F1200.000 
G1 X44.600 Y447.155 Z-10.525 F1200.000 
G1 X58.650 Y461.205 Z-10.525 F1200.000 
G1 X58.650 Y469.690 Z-10.525 F1200.000 
G1 X44.600 Y455.640 Z-10.525 F1200.000 
G1 X44.600 Y464.126 Z-10.525 F1200.000 
G1 X58.650 Y478.176 Z-10.525 F1200.000 
G1 X58.650 Y486.661 Z-10.525 F1200.000 
G1 X44.600 Y472.611 Z-10.525 F1200.000 
G1 X44.600 Y481.096 Z-10.525 F1200.000 
G1 X58.650 Y495.146 Z-10.525 F1200.000 
G1 X58.650 Y503.632 Z-10.525 F1200.000 
G1 X44.600 Y489.582 Z-10.525 F1200.000 
G1 X44.600 Y498.067 Z-10.525 F1200.000 
G1 X58.650 Y512.117 Z-10.525 F1200.000 
G1 X58.650 Y520.602 Z-10.525 F1200.000 
G1 X44.600 Y506.552 Z-10.525 F1200.000 
G1 X44.600 Y515.037 Z-10.525 F1200.000 
G1 X58.650 Y529.087 Z-10.525 F1200.000 
G1 X58.650 Y537.573 Z-10.525 F1200.000 
G1 X44.600 Y523.523 Z-10.525 F1200.000 
G1 X44.600 Y532.008 Z-10.525 F1200.000 
G1 X58.650 Y546.058 Z-10.525 F1200.000 
G1 X58.650 Y554.543 Z-10.525 F1200.000 
G1 X44.600 Y540.493 Z-10.525 F1200.000 
G1 X44.600 Y548.979 Z-10.525 F1200.000 
G1 X58.650 Y563.029 Z-10.525 F1200.000 
G1 X58.650 Y571.514 Z-10.525 F1200.000 
G1 X44.600 Y557.464 Z-10.525 F1200.000 
G1 X44.600 Y565.949 Z-10.525 F1200.000 
G1 X58.650 Y579.999 Z-10.525 F1200.000 
G1 X58.650 Y588.484 Z-10.525 F1200.000 
G1 X44.600 Y574.434 Z-10.525 F1200.000 
G1 X44.600 Y582.920 Z-10.525 F1200.000 
G1 X58.650 Y596.970 Z-10.525 F1200.000 
G1 X58.650 Y605.455 Z-10.525 F1200.000 
G1 X44.600 Y591.405 Z-10.525 F1200.000 
G1 X44.600 Y599.890 Z-10.525 F1200.000 
G1 X58.650 Y613.940 Z-10.525 F1200.000 
G1 X58.650 Y622.426 Z-10.525 F1200.000 
G1 X44.600 Y608.376 Z-10.525 F1200.000 
G1 X44.600 Y616.861 Z-10.525 F1200.000 
G1 X58.650 Y630.911 Z-10.525 F1200.000 
G1 X58.650 Y639.396 Z-10.525 F1200.000 
G1 X44.600 Y625.346 Z-10.525 F1200.000 
G1 X44.600 Y633.831 Z-10.525 F1200.000 
G1 X58.650 Y647.881 Z-10.525 F1200.000 
G1 X58.650 Y656.367 Z-10.525 F1200.000 
G1 X44.600 Y642.317 Z-10.525 F1200.000 
G1 X44.600 Y650.802 Z-10.525 F1200.000 
G1 X58.650 Y664.852 Z-10.525 F1200.000 
G1 X58.650 Y673.337 Z-10.525 F1200.000 
G1 X44.600 Y659.287 Z-10.525 F1200.000 
G1 X44.600 Y667.773 Z-10.525 F1200.000 
G1 X58.650 Y681.823 Z-10.525 F1200.000 
G1 X58.650 Y690.308 Z-10.525 F1200.000 
G1 X44.600 Y676.258 Z-10.525 F1200.000 
G1 X44.600 Y684.743 Z-10.525 F1200.000 
G1 X58.650 Y698.793 Z-10.525 F1200.000 
G1 X58.650 Y707.278 Z-10.525 F1200.000 
G1 X44.600 Y693.228 Z-10.525 F1200.000 
G1 X44.600 Y701.714 Z-10.525 F1200.000 
G1 X58.650 Y715.764 Z-10.525 F1200.000 
G1 X58.650 Y724.249 Z-10.525 F1200.000 
G1 X44.600 Y710.199 Z-10.525 F1200.000 
G1 X44.600 Y718.684 Z-10.525 F1200.000 
G1 X58.650 Y732.734 Z-10.525 F1200.000 
G1 X58.650 Y741.219 Z-10.525 F1200.000 
G1 X44.600 Y727.169 Z-10.525 F1200.000 
G1 X44.600 Y735.655 Z-10.525 F1200.000 
G1 X58.650 Y749.705 Z-10.525 F1200.000 
G1 X58.650 Y758.190 Z-10.525 F1200.000 
G1 X44.600 Y744.140 Z-10.525 F1200.000 
G1 X44.600 Y752.625 Z-10.525 F1200.000 
G1 X58.650 Y766.675 Z-10.525 F1200.000 
G1 X58.650 Y775.161 Z-10.525 F1200.000 
G1 X44.600 Y761.111 Z-10.525 F1200.000 
G1 X44.600 Y769.596 Z-10.525 F1200.000 
G1 X58.650 Y783.646 Z-10.525 F1200.000 
G1 X58.650 Y792.131 Z-10.525 F1200.000 
G1 X44.600 Y778.081 Z-10.525 F1200.000 
G1 X44.600 Y786.566 Z-10.525 F1200.000 
G1 X58.650 Y800.616 Z-10.525 F1200.000 
G1 X58.650 Y809.102 Z-10.525 F1200.000 
G1 X44.600 Y795.052 Z-10.525 F1200.000 
G1 X44.600 Y803.537 Z-10.525 F1200.000 
G1 X58.650 Y817.587 Z-10.525 F1200.000 
G1 X58.650 Y826.072 Z-10.525 F1200.000 
G1 X44.600 Y812.022 Z-10.525 F1200.000 
G1 X44.600 Y820.508 Z-10.525 F1200.000 
G1 X58.650 Y834.558 Z-10.525 F1200.000 
G1 X58.650 Y843.043 Z-10.525 F1200.000 
G1 X44.600 Y828.993 Z-10.525 F1200.000 
G1 X44.600 Y837.478 Z-10.525 F1200.000 
G1 X58.650 Y851.528 Z-10.525 F1200.000 
G1 X58.650 Y860.013 Z-10.525 F1200.000 
G1 X44.600 Y845.963 Z-10.525 F1200.000 
G1 X44.600 Y854.449 Z-10.525 F1200.000 
G1 X58.650 Y868.499 Z-10.525 F1200.000 
G1 X58.650 Y876.984 Z-10.525 F1200.000 
G1 X44.600 Y862.934 Z-10.525 F1200.000 
G1 X44.600 Y871.419 Z-10.525 F1200.000 
G1 X58.650 Y885.469 Z-10.525 F1200.000 
G1 X58.650 Y893.955 Z-10.525 F1200.000 
G1 X44.600 Y879.905 Z-10.525 F1200.000 
G1 X44.600 Y888.390 Z-10.525 F1200.000 
G1 X53.210 Y897.000 Z-10.525 F1200.000 
G1 X44.725 Y897.000 Z-10.525 F1200.000 
G1 X44.600 Y896.875 Z-10.525 F1200.000 
G1 X44.600 Y897.000 Z-10.525 F1200.000 
G1 X44.725 Y897.000 Z-10.525 F1200.000 
G0 Z6.000 
G0 Z6.000 
G0 X44.725 Y897.000 
G0 X324.125 
G0 X324.125 Z4.000 
G1 X324.125 Y897.000 Z-10.525 F1200.000 
G1 X324.000 Y897.000 Z-10.525 F1200.000 
G1 X324.000 Y896.875 Z-10.525 F1200.000 
G1 X324.125 Y897.000 Z-10.525 F1200.000 
G1 X332.610 Y897.000 Z-10.525 F1200.000 
G1 X324.000 Y888.390 Z-10.525 F1200.000 
G1 X324.000 Y879.905 Z-10.525 F1200.000 
G1 X338.050 Y893.955 Z-10.525 F1200.000 
G1 X338.050 Y885.469 Z-10.525 F1200.000 
G1 X324.000 Y871.419 Z-10.525 F1200.000 
G1 X324.000 Y862.934 Z-10.525 F1200.000 
G1 X338.050 Y876.984 Z-10.525 F1200.000 
G1 X338.050 Y868.499 Z-10.525 F1200.000 
G1 X324.000 Y854.449 Z-10.525 F1200.000 
G1 X324.000 Y845.963 Z-10.525 F1200.000 
G1 X338.050 Y860.013 Z-10.525 F1200.000 
G1 X338.050 Y851.528 Z-10.525 F1200.000 
G1 X324.000 Y837.478 Z-10.525 F1200.000 
G1 X324.000 Y828.993 Z-10.525 F1200.000 
G1 X338.050 Y843.043 Z-10.525 F1200.000 
G1 X338.050 Y834.558 Z-10.525 F1200.000 
G1 X324.000 Y820.508 Z-10.525 F1200.000 
G1 X324.000 Y812.022 Z-10.525 F1200.000 
G1 X338.050 Y826.072 Z-10.525 F1200.000 
G1 X338.050 Y817.587 Z-10.525 F1200.000 
G1 X324.000 Y803.537 Z-10.525 F1200.000 
G1 X324.000 Y795.052 Z-10.525 F1200.000 
G1 X338.050 Y809.102 Z-10.525 F1200.000 
G1 X338.050 Y800.616 Z-10.525 F1200.000 
G1 X324.000 Y786.566 Z-10.525 F1200.000 
G1 X324.000 Y778.081 Z-10.525 F1200.000 
G1 X338.050 Y792.131 Z-10.525 F1200.000 
G1 X338.050 Y783.646 Z-10.525 F1200.000 
G1 X324.000 Y769.596 Z-10.525 F1200.000 
G1 X324.000 Y761.111 Z-10.525 F1200.000 
G1 X338.050 Y775.161 Z-10.525 F1200.000 
G1 X338.050 Y766.675 Z-10.525 F1200.000 
G1 X324.000 Y752.625 Z-10.525 F1200.000 
G1 X324.000 Y744.140 Z-10.525 F1200.000 
G1 X338.050 Y758.190 Z-10.525 F1200.000 
G1 X338.050 Y749.705 Z-10.525 F1200.000 
G1 X324.000 Y735.655 Z-10.525 F1200.000 
G1 X324.000 Y727.169 Z-10.525 F1200.000 
G1 X338.050 Y741.219 Z-10.525 F1200.000 
G1 X338.050 Y732.734 Z-10.525 F1200.000 
G1 X324.000 Y718.684 Z-10.525 F1200.000 
G1 X324.000 Y710.199 Z-10.525 F1200.000 
G1 X338.050 Y724.249 Z-10.525 F1200.000 
G1 X338.050 Y715.764 Z-10.525 F1200.000 
G1 X324.000 Y701.714 Z-10.525 F1200.000 
G1 X324.000 Y693.228 Z-10.525 F1200.000 
G1 X338.050 Y707.278 Z-10.525 F1200.000 
G1 X338.050 Y698.793 Z-10.525 F1200.000 
G1 X324.000 Y684.743 Z-10.525 F1200.000 
G1 X324.000 Y676.258 Z-10.525 F1200.000 
G1 X338.050 Y690.308 Z-10.525 F1200.000 
G1 X338.050 Y681.823 Z-10.525 F1200.000 
G1 X324.000 Y667.773 Z-10.525 F1200.000 
G1 X324.000 Y659.287 Z-10.525 F1200.000 
G1 X338.050 Y673.337 Z-10.525 F1200.000 
G1 X338.050 Y664.852 Z-10.525 F1200.000 
G1 X324.000 Y650.802 Z-10.525 F1200.000 
G1 X324.000 Y642.317 Z-10.525 F1200.000 
G1 X338.050 Y656.367 Z-10.525 F1200.000 
G1 X338.050 Y647.881 Z-10.525 F1200.000 
G1 X324.000 Y633.831 Z-10.525 F1200.000 
G1 X324.000 Y625.346 Z-10.525 F1200.000 
G1 X338.050 Y639.396 Z-10.525 F1200.000 
G1 X338.050 Y630.911 Z-10.525 F1200.000 
G1 X324.000 Y616.861 Z-10.525 F1200.000 
G1 X324.000 Y608.376 Z-10.525 F1200.000 
G1 X338.050 Y622.426 Z-10.525 F1200.000 
G1 X338.050 Y613.940 Z-10.525 F1200.000 
G1 X324.000 Y599.890 Z-10.525 F1200.000 
G1 X324.000 Y591.405 Z-10.525 F1200.000 
G1 X338.050 Y605.455 Z-10.525 F1200.000 
G1 X338.050 Y596.970 Z-10.525 F1200.000 
G1 X324.000 Y582.920 Z-10.525 F1200.000 
G1 X324.000 Y574.434 Z-10.525 F1200.000 
G1 X338.050 Y588.484 Z-10.525 F1200.000 
G1 X338.050 Y579.999 Z-10.525 F1200.000 
G1 X324.000 Y565.949 Z-10.525 F1200.000 
G1 X324.000 Y557.464 Z-10.525 F1200.000 
G1 X338.050 Y571.514 Z-10.525 F1200.000 
G1 X338.050 Y563.029 Z-10.525 F1200.000 
G1 X324.000 Y548.979 Z-10.525 F1200.000 
G1 X324.000 Y540.493 Z-10.525 F1200.000 
G1 X338.050 Y554.543 Z-10.525 F1200.000 
G1 X338.050 Y546.058 Z-10.525 F1200.000 
G1 X324.000 Y532.008 Z-10.525 F1200.000 
G1 X324.000 Y523.523 Z-10.525 F1200.000 
G1 X338.050 Y537.573 Z-10.525 F1200.000 
G1 X338.050 Y529.087 Z-10.525 F1200.000 
G1 X324.000 Y515.037 Z-10.525 F1200.000 
G1 X324.000 Y506.552 Z-10.525 F1200.000 
G1 X338.050 Y520.602 Z-10.525 F1200.000 
G1 X338.050 Y512.117 Z-10.525 F1200.000 
G1 X324.000 Y498.067 Z-10.525 F1200.000 
G1 X324.000 Y489.582 Z-10.525 F1200.000 
G1 X338.050 Y503.632 Z-10.525 F1200.000 
G1 X338.050 Y495.146 Z-10.525 F1200.000 
G1 X324.000 Y481.096 Z-10.525 F1200.000 
G1 X324.000 Y472.611 Z-10.525 F1200.000 
G1 X338.050 Y486.661 Z-10.525 F1200.000 
G1 X338.050 Y478.176 Z-10.525 F1200.000 
G1 X324.000 Y464.126 Z-10.525 F1200.000 
G1 X324.000 Y455.640 Z-10.525 F1200.000 
G1 X338.050 Y469.690 Z-10.525 F1200.000 
G1 X338.050 Y461.205 Z-10.525 F1200.000 
G1 X324.000 Y447.155 Z-10.525 F1200.000 
G1 X324.000 Y438.670 Z-10.525 F1200.000 
G1 X338.050 Y452.720 Z-10.525 F1200.000 
G1 X338.050 Y444.235 Z-10.525 F1200.000 
G1 X324.000 Y430.185 Z-10.525 F1200.000 
G1 X324.000 Y421.699 Z-10.525 F1200.000 
G1 X338.050 Y435.749 Z-10.525 F1200.000 
G1 X338.050 Y427.264 Z-10.525 F1200.000 
G1 X324.000 Y413.214 Z-10.525 F1200.000 
G1 X324.000 Y404.729 Z-10.525 F1200.000 
G1 X338.050 Y418.779 Z-10.525 F1200.000 
G1 X338.050 Y410.294 Z-10.525 F1200.000 
G1 X324.000 Y396.244 Z-10.525 F1200.000 
G1 X324.000 Y387.758 Z-10.525 F1200.000 
G1 X338.050 Y401.808 Z-10.525 F1200.000 
G1 X338.050 Y393.323 Z-10.525 F1200.000 
G1 X324.000 Y379.273 Z-10.525 F1200.000 
G1 X324.000 Y370.788 Z-10.525 F1200.000 
G1 X338.050 Y384.838 Z-10.525 F1200.000 
G1 X338.050 Y376.352 Z-10.525 F1200.000 
G1 X324.000 Y362.302 Z-10.525 F1200.000 
G1 X324.000 Y353.817 Z-10.525 F1200.000 
G1 X338.050 Y367.867 Z-10.525 F1200.000 
G1 X338.050 Y359.382 Z-10.525 F1200.000 
G1 X324.000 Y345.332 Z-10.525 F1200.000 
G1 X324.000 Y336.847 Z-10.525 F1200.000 
G1 X338.050 Y350.897 Z-10.525 F1200.000 
G1 X338.050 Y342.411 Z-10.525 F1200.000 
G1 X324.000 Y328.361 Z-10.525 F1200.000 
G1 X324.000 Y319.876 Z-10.525 F1200.000 
G1 X338.050 Y333.926 Z-10.525 F1200.000 
G1 X338.050 Y325.441 Z-10.525 F1200.000 
G1 X324.000 Y311.391 Z-10.525 F1200.000 
G1 X324.000 Y302.905 Z-10.525 F1200.000 
G1 X338.050 Y316.955 Z-10.525 F1200.000 
G1 X338.050 Y308.470 Z-10.525 F1200.000 
G1 X324.000 Y294.420 Z-10.525 F1200.000 
G1 X324.000 Y285.935 Z-10.525 F1200.000 
G1 X338.050 Y299.985 Z-10.525 F1200.000 
G1 X338.050 Y291.500 Z-10.525 F1200.000 
G1 X324.000 Y277.450 Z-10.525 F1200.000 
G1 X324.000 Y268.964 Z-10.525 F1200.000 
G1 X338.050 Y283.014 Z-10.525 F1200.000 
G1 X338.050 Y274.529 Z-10.525 F1200.000 
G1 X324.000 Y260.479 Z-10.525 F1200.000 
G1 X324.000 Y251.994 Z-10.525 F1200.000 
G1 X338.050 Y266.044 Z-10.525 F1200.000 
G1 X338.050 Y257.558 Z-10.525 F1200.000 
G1 X324.000 Y243.508 Z-10.525 F1200.000 
G1 X324.000 Y235.023 Z-10.525 F1200.000 
G1 X338.050 Y249.073 Z-10.525 F1200.000 
G1 X338.050 Y240.588 Z-10.525 F1200.000 
G1 X324.000 Y226.538 Z-10.525 F1200.000 
G1 X324.000 Y218.053 Z-10.525 F1200.000 
G1 X338.050 Y232.103 Z-10.525 F1200.000 
G1 X338.050 Y223.617 Z-10.525 F1200.000 
G1 X324.000 Y209.567 Z-10.525 F1200.000 
G1 X324.000 Y201.082 Z-10.525 F1200.000 
G1 X338.050 Y215.132 Z-10.525 F1200.000 
G1 X338.050 Y206.647 Z-10.525 F1200.000 
G1 X324.000 Y192.597 Z-10.525 F1200.000 
G1 X324.000 Y184.111 Z-10.525 F1200.000 
G1 X338.050 Y198.161 Z-10.525 F1200.000 
G1 X338.050 Y189.676 Z-10.525 F1200.000 
G1 X324.000 Y175.626 Z-10.525 F1200.000 
G1 X324.000 Y167.141 Z-10.525 F1200.000 
G1 X338.050 Y181.191 Z-10.525 F1200.000 
G1 X338.050 Y172.706 Z-10.525 F1200.000 
G1 X324.000 Y158.656 Z-10.525 F1200.000 
G1 X324.000 Y150.170 Z-10.525 F1200.000 
G1 X338.050 Y164.220 Z-10.525 F1200.000 
G1 X338.050 Y155.735 Z-10.525 F1200.000 
G1 X324.000 Y141.685 Z-10.525 F1200.000 
G1 X324.000 Y133.200 Z-10.525 F1200.000 
G1 X338.050 Y147.250 Z-10.525 F1200.000 
G1 X338.050 Y138.765 Z-10.525 F1200.000 
G1 X324.000 Y124.715 Z-10.525 F1200.000 
G1 X324.000 Y116.229 Z-10.525 F1200.000 
G1 X338.050 Y130.279 Z-10.525 F1200.000 
G1 X338.050 Y121.794 Z-10.525 F1200.000 
G1 X324.000 Y107.744 Z-10.525 F1200.000 
G1 X324.000 Y99.259 Z-10.525 F1200.000 
G1 X338.050 Y113.309 Z-10.525 F1200.000 
G1 X338.050 Y104.823 Z-10.525 F1200.000 
G1 X324.000 Y90.773 Z-10.525 F1200.000 
G1 X324.000 Y82.288 Z-10.525 F1200.000 
G1 X338.050 Y96.338 Z-10.525 F1200.000 
G1 X338.050 Y87.853 Z-10.525 F1200.000 
G1 X324.000 Y73.803 Z-10.525 F1200.000 
G1 X324.000 Y65.318 Z-10.525 F1200.000 
G1 X338.050 Y79.368 Z-10.525 F1200.000 
G1 X338.050 Y70.882 Z-10.525 F1200.000 
G1 X324.000 Y56.832 Z-10.525 F1200.000 
G1 X324.000 Y48.347 Z-10.525 F1200.000 
G1 X338.050 Y62.397 Z-10.525 F1200.000 
G1 X338.050 Y53.912 Z-10.525 F1200.000 
G1 X324.000 Y39.862 Z-10.525 F1200.000 
G1 X324.000 Y31.376 Z-10.525 F1200.000 
G1 X338.050 Y45.426 Z-10.525 F1200.000 
G1 X338.050 Y36.941 Z-10.525 F1200.000 
G1 X324.000 Y22.891 Z-10.525 F1200.000 
G1 X324.000 Y14.406 Z-10.525 F1200.000 
G1 X338.050 Y28.456 Z-10.525 F1200.000 
G1 X338.050 Y19.971 Z-10.525 F1200.000 
G1 X324.000 Y5.921 Z-10.525 F1200.000 
G1 X324.000 Y3.000 Z-10.525 F1200.000 
G1 X329.565 Y3.000 Z-10.525 F1200.000 
G1 X338.050 Y11.485 Z-10.525 F1200.000 
G1 X338.050 Y3.000 Z-10.525 F1200.000 
G0 Z6.000 
G0 Z6.000 
G0 X338.050 Y3.000 
G0 X617.450 
G0 X617.450 Z4.000 
G1 X617.450 Y3.000 Z-10.525 F1200.000 
G1 X617.450 Y11.485 Z-10.525 F1200.000 
G1 X608.965 Y3.000 Z-10.525 F1200.000 
G1 X603.400 Y3.000 Z-10.525 F1200.000 
G1 X603.400 Y5.921 Z-10.525 F1200.000 
G1 X617.450 Y19.971 Z-10.525 F1200.000 
G1 X617.450 Y28.456 Z-10.525 F1200.000 
G1 X603.400 Y14.406 Z-10.525 F1200.000 
G1 X603.400 Y22.891 Z-10.525 F1200.000 
G1 X617.450 Y36.941 Z-10.525 F1200.000 
G1 X617.450 Y45.426 Z-10.525 F1200.000 
G1 X603.400 Y31.376 Z-10.525 F1200.000 
G1 X603.400 Y39.862 Z-10.525 F1200.000 
G1 X617.450 Y53.912 Z-10.525 F1200.000 
G1 X617.450 Y62.397 Z-10.525 F1200.000 
G1 X603.400 Y48.347 Z-10.525 F1200.000 
G1 X603.400 Y56.832 Z-10.525 F1200.000 
G1 X617.450 Y70.882 Z-10.525 F1200.000 
G1 X617.450 Y79.368 Z-10.525 F1200.000 
G1 X603.400 Y65.318 Z-10.525 F1200.000 
G1 X603.400 Y73.803 Z-10.525 F1200.000 
G1 X617.450 Y87.853 Z-10.525 F1200.000 
G1 X617.450 Y96.338 Z-10.525 F1200.000 
G1 X603.400 Y82.288 Z-10.525 F1200.000 
G1 X603.400 Y90.773 Z-10.525 F1200.000 
G1 X617.450 Y104.823 Z-10.525 F1200.000 
G1 X617.450 Y113.309 Z-10.525 F1200.000 
G1 X603.400 Y99.259 Z-10.525 F1200.000 
G1 X603.400 Y107.744 Z-10.525 F1200.000 
G1 X617.450 Y121.794 Z-10.525 F1200.000 
G1 X617.450 Y130.279 Z-10.525 F1200.000 
G1 X603.400 Y116.229 Z-10.525 F1200.000 
G1 X603.400 Y124.715 Z-10.525 F1200.000 
G1 X617.450 Y138.765 Z-10.525 F1200.000 
G1 X617.450 Y147.250 Z-10.525 F1200.000 
G1 X603.400 Y133.200 Z-10.525 F1200.000 
G1 X603.400 Y141.685 Z-10.525 F1200.000 
G1 X617.450 Y155.735 Z-10.525 F1200.000 
G1 X617.450 Y164.220 Z-10.525 F1200.000 
G1 X603.400 Y150.170 Z-10.525 F1200.000 
G1 X603.400 Y158.656 Z-10.525 F1200.000 
G1 X617.450 Y172.706 Z-10.525 F1200.000 
G1 X617.450 Y181.191 Z-10.525 F1200.000 
G1 X603.400 Y167.141 Z-10.525 F1200.000 
G1 X603.400 Y175.626 Z-10.525 F1200.000 
G1 X617.450 Y189.676 Z-10.525 F1200.000 
G1 X617.450 Y198.161 Z-10.525 F1200.000 
G1 X603.400 Y184.111 Z-10.525 F1200.000 
G1 X603.400 Y192.597 Z-10.525 F1200.000 
G1 X617.450 Y206.647 Z-10.525 F1200.000 
G1 X617.450 Y215.132 Z-10.525 F1200.000 
G1 X603.400 Y201.082 Z-10.525 F1200.000 
G1 X603.400 Y209.567 Z-10.525 F1200.000 
G1 X617.450 Y223.617 Z-10.525 F1200.000 
G1 X617.450 Y232.103 Z-10.525 F1200.000 
G1 X603.400 Y218.053 Z-10.525 F1200.000 
G1 X603.400 Y226.538 Z-10.525 F1200.000 
G1 X617.450 Y240.588 Z-10.525 F1200.000 
G1 X617.450 Y249.073 Z-10.525 F1200.000 
G1 X603.400 Y235.023 Z-10.525 F1200.000 
G1 X603.400 Y243.508 Z-10.525 F1200.000 
G1 X617.450 Y257.558 Z-10.525 F1200.000 
G1 X617.450 Y266.044 Z-10.525 F1200.000 
G1 X603.400 Y251.994 Z-10.525 F1200.000 
G1 X603.400 Y260.479 Z-10.525 F1200.000 
G1 X617.450 Y274.529 Z-10.525 F1200.000 
G1 X617.450 Y283.014 Z-10.525 F1200.000 
G1 X603.400 Y268.964 Z-10.525 F1200.000 
G1 X603.400 Y277.450 Z-10.525 F1200.000 
G1 X617.450 Y291.500 Z-10.525 F1200.000 
G1 X617.450 Y299.985 Z-10.525 F1200.000 
G1 X603.400 Y285.935 Z-10.525 F1200.000 
G1 X603.400 Y294.420 Z-10.525 F1200.000 
G1 X617.450 Y308.470 Z-10.525 F1200.000 
G1 X617.450 Y316.955 Z-10.525 F1200.000 
G1 X603.400 Y302.905 Z-10.525 F1200.000 
G1 X603.400 Y311.391 Z-10.525 F1200.000 
G1 X617.450 Y325.441 Z-10.525 F1200.000 
G1 X617.450 Y333.926 Z-10.525 F1200.000 
G1 X603.400 Y319.876 Z-10.525 F1200.000 
G1 X603.400 Y328.361 Z-10.525 F1200.000 
G1 X617.450 Y342.411 Z-10.525 F1200.000 
G1 X617.450 Y350.897 Z-10.525 F1200.000 
G1 X603.400 Y336.847 Z-10.525 F1200.000 
G1 X603.400 Y345.332 Z-10.525 F1200.000 
G1 X617.450 Y359.382 Z-10.525 F1200.000 
G1 X617.450 Y367.867 Z-10.525 F1200.000 
G1 X603.400 Y353.817 Z-10.525 F1200.000 
G1 X603.400 Y362.302 Z-10.525 F1200.000 
G1 X617.450 Y376.352 Z-10.525 F1200.000 
G1 X617.450 Y384.838 Z-10.525 F1200.000 
G1 X603.400 Y370.788 Z-10.525 F1200.000 
G1 X603.400 Y379.273 Z-10.525 F1200.000 
G1 X617.450 Y393.323 Z-10.525 F1200.000 
G1 X617.450 Y401.808 Z-10.525 F1200.000 
G1 X603.400 Y387.758 Z-10.525 F1200.000 
G1 X603.400 Y396.244 Z-10.525 F1200.000 
G1 X617.450 Y410.294 Z-10.525 F1200.000 
G1 X617.450 Y418.779 Z-10.525 F1200.000 
G1 X603.400 Y404.729 Z-10.525 F1200.000 
G1 X603.400 Y413.214 Z-10.525 F1200.000 
G1 X617.450 Y427.264 Z-10.525 F1200.000 
G1 X617.450 Y435.749 Z-10.525 F1200.000 
G1 X603.400 Y421.699 Z-10.525 F1200.000 
G1 X603.400 Y430.185 Z-10.525 F1200.000 
G1 X617.450 Y444.235 Z-10.525 F1200.000 
G1 X617.450 Y452.720 Z-10.525 F1200.000 
G1 X603.400 Y438.670 Z-10.525 F1200.000 
G1 X603.400 Y447.155 Z-10.525 F1200.000 
G1 X617.450 Y461.205 Z-10.525 F1200.000 
G1 X617.450 Y469.690 Z-10.525 F1200.000 
G1 X603.400 Y455.640 Z-10.525 F1200.000 
G1 X603.400 Y464.126 Z-10.525 F1200.000 
G1 X617.450 Y478.176 Z-10.525 F1200.000 
G1 X617.450 Y486.661 Z-10.525 F1200.000 
G1 X603.400 Y472.611 Z-10.525 F1200.000 
G1 X603.400 Y481.096 Z-10.525 F1200.000 
G1 X617.450 Y495.146 Z-10.525 F1200.000 
G1 X617.450 Y503.632 Z-10.525 F1200.000 
G1 X603.400 Y489.582 Z-10.525 F1200.000 
G1 X603.400 Y498.067 Z-10.525 F1200.000 
G1 X617.450 Y512.117 Z-10.525 F1200.000 
G1 X617.450 Y520.602 Z-10.525 F1200.000 
G1 X603.400 Y506.552 Z-10.525 F1200.000 
G1 X603.400 Y515.037 Z-10.525 F1200.000 
G1 X617.450 Y529.087 Z-10.525 F1200.000 
G1 X617.450 Y537.573 Z-10.525 F1200.000 
G1 X603.400 Y523.523 Z-10.525 F1200.000 
G1 X603.400 Y532.008 Z-10.525 F1200.000 
G1 X617.450 Y546.058 Z-10.525 F1200.000 
G1 X617.450 Y554.543 Z-10.525 F1200.000 
G1 X603.400 Y540.493 Z-10.525 F1200.000 
G1 X603.400 Y548.979 Z-10.525 F1200.000 
G1 X617.450 Y563.029 Z-10.525 F1200.000 
G1 X617.450 Y571.514 Z-10.525 F1200.000 
G1 X603.400 Y557.464 Z-10.525 F1200.000 
G1 X603.400 Y565.949 Z-10.525 F1200.000 
G1 X617.450 Y579.999 Z-10.525 F1200.000 
G1 X617.450 Y588.484 Z-10.525 F1200.000 
G1 X603.400 Y574.434 Z-10.525 F1200.000 
G1 X603.400 Y582.920 Z-10.525 F1200.000 
G1 X617.450 Y596.970 Z-10.525 F1200.000 
G1 X617.450 Y605.455 Z-10.525 F1200.000 
G1 X603.400 Y591.405 Z-10.525 F1200.000 
G1 X603.400 Y599.890 Z-10.525 F1200.000 
G1 X617.450 Y613.940 Z-10.525 F1200.000 
G1 X617.450 Y622.426 Z-10.525 F1200.000 
G1 X603.400 Y608.376 Z-10.525 F1200.000 
G1 X603.400 Y616.861 Z-10.525 F1200.000 
G1 X617.450 Y630.911 Z-10.525 F1200.000 
G1 X617.450 Y639.396 Z-10.525 F1200.000 
G1 X603.400 Y625.346 Z-10.525 F1200.000 
G1 X603.400 Y633.831 Z-10.525 F1200.000 
G1 X617.450 Y647.881 Z-10.525 F1200.000 
G1 X617.450 Y656.367 Z-10.525 F1200.000 
G1 X603.400 Y642.317 Z-10.525 F1200.000 
G1 X603.400 Y650.802 Z-10.525 F1200.000 
G1 X617.450 Y664.852 Z-10.525 F1200.000 
G1 X617.450 Y673.337 Z-10.525 F1200.000 
G1 X603.400 Y659.287 Z-10.525 F1200.000 
G1 X603.400 Y667.773 Z-10.525 F1200.000 
G1 X617.450 Y681.823 Z-10.525 F1200.000 
G1 X617.450 Y690.308 Z-10.525 F1200.000 
G1 X603.400 Y676.258 Z-10.525 F1200.000 
G1 X603.400 Y684.743 Z-10.525 F1200.000 
G1 X617.450 Y698.793 Z-10.525 F1200.000 
G1 X617.450 Y707.278 Z-10.525 F1200.000 
G1 X603.400 Y693.228 Z-10.525 F1200.000 
G1 X603.400 Y701.714 Z-10.525 F1200.000 
G1 X617.450 Y715.764 Z-10.525 F1200.000 
G1 X617.450 Y724.249 Z-10.525 F1200.000 
G1 X603.400 Y710.199 Z-10.525 F1200.000 
G1 X603.400 Y718.684 Z-10.525 F1200.000 
G1 X617.450 Y732.734 Z-10.525 F1200.000 
G1 X617.450 Y741.219 Z-10.525 F1200.000 
G1 X603.400 Y727.169 Z-10.525 F1200.000 
G1 X603.400 Y735.655 Z-10.525 F1200.000 
G1 X617.450 Y749.705 Z-10.525 F1200.000 
G1 X617.450 Y758.190 Z-10.525 F1200.000 
G1 X603.400 Y744.140 Z-10.525 F1200.000 
G1 X603.400 Y752.625 Z-10.525 F1200.000 
G1 X617.450 Y766.675 Z-10.525 F1200.000 
G1 X617.450 Y775.161 Z-10.525 F1200.000 
G1 X603.400 Y761.111 Z-10.525 F1200.000 
G1 X603.400 Y769.596 Z-10.525 F1200.000 
G1 X617.450 Y783.646 Z-10.525 F1200.000 
G1 X617.450 Y792.131 Z-10.525 F1200.000 
G1 X603.400 Y778.081 Z-10.525 F1200.000 
G1 X603.400 Y786.566 Z-10.525 F1200.000 
G1 X617.450 Y800.616 Z-10.525 F1200.000 
G1 X617.450 Y809.102 Z-10.525 F1200.000 
G1 X603.400 Y795.052 Z-10.525 F1200.000 
G1 X603.400 Y803.537 Z-10.525 F1200.000 
G1 X617.450 Y817.587 Z-10.525 F1200.000 
G1 X617.450 Y826.072 Z-10.525 F1200.000 
G1 X603.400 Y812.022 Z-10.525 F1200.000 
G1 X603.400 Y820.508 Z-10.525 F1200.000 
G1 X617.450 Y834.558 Z-10.525 F1200.000 
G1 X617.450 Y843.043 Z-10.525 F1200.000 
G1 X603.400 Y828.993 Z-10.525 F1200.000 
G1 X603.400 Y837.478 Z-10.525 F1200.000 
G1 X617.450 Y851.528 Z-10.525 F1200.000 
G1 X617.450 Y860.013 Z-10.525 F1200.000 
G1 X603.400 Y845.963 Z-10.525 F1200.000 
G1 X603.400 Y854.449 Z-10.525 F1200.000 
G1 X617.450 Y868.499 Z-10.525 F1200.000 
G1 X617.450 Y876.984 Z-10.525 F1200.000 
G1 X603.400 Y862.934 Z-10.525 F1200.000 
G1 X603.400 Y871.419 Z-10.525 F1200.000 
G1 X617.450 Y885.469 Z-10.525 F1200.000 
G1 X617.450 Y893.955 Z-10.525 F1200.000 
G1 X603.400 Y879.905 Z-10.525 F1200.000 
G1 X603.400 Y888.390 Z-10.525 F1200.000 
G1 X612.010 Y897.000 Z-10.525 F1200.000 
G1 X603.525 Y897.000 Z-10.525 F1200.000 
G1 X603.400 Y896.875 Z-10.525 F1200.000 
G1 X603.400 Y897.000 Z-10.525 F1200.000 
G1 X603.525 Y897.000 Z-10.525 F1200.000 
G0 Z6.000 
G0 Z6.000 
G0 X603.525 Y897.000 
G0 X882.925 
G0 X882.925 Z4.000 
G1 X882.925 Y897.000 Z-10.525 F1200.000 
G1 X882.800 Y897.000 Z-10.525 F1200.000 
G1 X882.800 Y896.875 Z-10.525 F1200.000 
G1 X882.925 Y897.000 Z-10.525 F1200.000 
G1 X891.410 Y897.000 Z-10.525 F1200.000 
G1 X882.800 Y888.390 Z-10.525 F1200.000 
G1 X882.800 Y879.905 Z-10.525 F1200.000 
G1 X896.850 Y893.955 Z-10.525 F1200.000 
G1 X896.850 Y885.469 Z-10.525 F1200.000 
G1 X882.800 Y871.419 Z-10.525 F1200.000 
G1 X882.800 Y862.934 Z-10.525 F1200.000 
G1 X896.850 Y876.984 Z-10.525 F1200.000 
G1 X896.850 Y868.499 Z-10.525 F1200.000 
G1 X882.800 Y854.449 Z-10.525 F1200.000 
G1 X882.800 Y845.963 Z-10.525 F1200.000 
G1 X896.850 Y860.013 Z-10.525 F1200.000 
G1 X896.850 Y851.528 Z-10.525 F1200.000 
G1 X882.800 Y837.478 Z-10.525 F1200.000 
G1 X882.800 Y828.993 Z-10.525 F1200.000 
G1 X896.850 Y843.043 Z-10.525 F1200.000 
G1 X896.850 Y834.558 Z-10.525 F1200.000 
G1 X882.800 Y820.508 Z-10.525 F1200.000 
G1 X882.800 Y812.022 Z-10.525 F1200.000 
G1 X896.850 Y826.072 Z-10.525 F1200.000 
G1 X896.850 Y817.587 Z-10.525 F1200.000 
G1 X882.800 Y803.537 Z-10.525 F1200.000 
G1 X882.800 Y795.052 Z-10.525 F1200.000 
G1 X896.850 Y809.102 Z-10.525 F1200.000 
G1 X896.850 Y800.616 Z-10.525 F1200.000 
G1 X882.800 Y786.566 Z-10.525 F1200.000 
G1 X882.800 Y778.081 Z-10.525 F1200.000 
G1 X896.850 Y792.131 Z-10.525 F1200.000 
G1 X896.850 Y783.646 Z-10.525 F1200.000 
G1 X882.800 Y769.596 Z-10.525 F1200.000 
G1 X882.800 Y761.111 Z-10.525 F1200.000 
G1 X896.850 Y775.161 Z-10.525 F1200.000 
G1 X896.850 Y766.675 Z-10.525 F1200.000 
G1 X882.800 Y752.625 Z-10.525 F1200.000 
G1 X882.800 Y744.140 Z-10.525 F1200.000 
G1 X896.850 Y758.190 Z-10.525 F1200.000 
G1 X896.850 Y749.705 Z-10.525 F1200.000 
G1 X882.800 Y735.655 Z-10.525 F1200.000 
G1 X882.800 Y727.169 Z-10.525 F1200.000 
G1 X896.850 Y741.219 Z-10.525 F1200.000 
G1 X896.850 Y732.734 Z-10.525 F1200.000 
G1 X882.800 Y718.684 Z-10.525 F1200.000 
G1 X882.800 Y710.199 Z-10.525 F1200.000 
G1 X896.850 Y724.249 Z-10.525 F1200.000 
G1 X896.850 Y715.764 Z-10.525 F1200.000 
G1 X882.800 Y701.714 Z-10.525 F1200.000 
G1 X882.800 Y693.228 Z-10.525 F1200.000 
G1 X896.850 Y707.278 Z-10.525 F1200.000 
G1 X896.850 Y698.793 Z-10.525 F1200.000 
G1 X882.800 Y684.743 Z-10.525 F1200.000 
G1 X882.800 Y676.258 Z-10.525 F1200.000 
G1 X896.850 Y690.308 Z-10.525 F1200.000 
G1 X896.850 Y681.823 Z-10.525 F1200.000 
G1 X882.800 Y667.773 Z-10.525 F1200.000 
G1 X882.800 Y659.287 Z-10.525 F1200.000 
G1 X896.850 Y673.337 Z-10.525 F1200.000 
G1 X896.850 Y664.852 Z-10.525 F1200.000 
G1 X882.800 Y650.802 Z-10.525 F1200.000 
G1 X882.800 Y642.317 Z-10.525 F1200.000 
G1 X896.850 Y656.367 Z-10.525 F1200.000 
G1 X896.850 Y647.881 Z-10.525 F1200.000 
G1 X882.800 Y633.831 Z-10.525 F1200.000 
G1 X882.800 Y625.346 Z-10.525 F1200.000 
G1 X896.850 Y639.396 Z-10.525 F1200.000 
G1 X896.850 Y630.911 Z-10.525 F1200.000 
G1 X882.800 Y616.861 Z-10.525 F1200.000 
G1 X882.800 Y608.376 Z-10.525 F1200.000 
G1 X896.850 Y622.426 Z-10.525 F1200.000 
G1 X896.850 Y613.940 Z-10.525 F1200.000 
G1 X882.800 Y599.890 Z-10.525 F1200.000 
G1 X882.800 Y591.405 Z-10.525 F1200.000 
G1 X896.850 Y605.455 Z-10.525 F1200.000 
G1 X896.850 Y596.970 Z-10.525 F1200.000 
G1 X882.800 Y582.920 Z-10.525 F1200.000 
G1 X882.800 Y574.434 Z-10.525 F1200.000 
G1 X896.850 Y588.484 Z-10.525 F1200.000 
G1 X896.850 Y579.999 Z-10.525 F1200.000 
G1 X882.800 Y565.949 Z-10.525 F1200.000 
G1 X882.800 Y557.464 Z-10.525 F1200.000 
G1 X896.850 Y571.514 Z-10.525 F1200.000 
G1 X896.850 Y563.029 Z-10.525 F1200.000 
G1 X882.800 Y548.979 Z-10.525 F1200.000 
G1 X882.800 Y540.493 Z-10.525 F1200.000 
G1 X896.850 Y554.543 Z-10.525 F1200.000 
G1 X896.850 Y546.058 Z-10.525 F1200.000 
G1 X882.800 Y532.008 Z-10.525 F1200.000 
G1 X882.800 Y523.523 Z-10.525 F1200.000 
G1 X896.850 Y537.573 Z-10.525 F1200.000 
G1 X896.850 Y529.087 Z-10.525 F1200.000 
G1 X882.800 Y515.037 Z-10.525 F1200.000 
G1 X882.800 Y506.552 Z-10.525 F1200.000 
G1 X896.850 Y520.602 Z-10.525 F1200.000 
G1 X896.850 Y512.117 Z-10.525 F1200.000 
G1 X882.800 Y498.067 Z-10.525 F1200.000 
G1 X882.800 Y489.582 Z-10.525 F1200.000 
G1 X896.850 Y503.632 Z-10.525 F1200.000 
G1 X896.850 Y495.146 Z-10.525 F1200.000 
G1 X882.800 Y481.096 Z-10.525 F1200.000 
G1 X882.800 Y472.611 Z-10.525 F1200.000 
G1 X896.850 Y486.661 Z-10.525 F1200.000 
G1 X896.850 Y478.176 Z-10.525 F1200.000 
G1 X882.800 Y464.126 Z-10.525 F1200.000 
G1 X882.800 Y455.640 Z-10.525 F1200.000 
G1 X896.850 Y469.690 Z-10.525 F1200.000 
G1 X896.850 Y461.205 Z-10.525 F1200.000 
G1 X882.800 Y447.155 Z-10.525 F1200.000 
G1 X882.800 Y438.670 Z-10.525 F1200.000 
G1 X896.850 Y452.720 Z-10.525 F1200.000 
G1 X896.850 Y444.235 Z-10.525 F1200.000 
G1 X882.800 Y430.185 Z-10.525 F1200.000 
G1 X882.800 Y421.699 Z-10.525 F1200.000 
G1 X896.850 Y435.749 Z-10.525 F1200.000 
G1 X896.850 Y427.264 Z-10.525 F1200.000 
G1 X882.800 Y413.214 Z-10.525 F1200.000 
G1 X882.800 Y404.729 Z-10.525 F1200.000 
G1 X896.850 Y418.779 Z-10.525 F1200.000 
G1 X896.850 Y410.294 Z-10.525 F1200.000 
G1 X882.800 Y396.244 Z-10.525 F1200.000 
G1 X882.800 Y387.758 Z-10.525 F1200.000 
G1 X896.850 Y401.808 Z-10.525 F1200.000 
G1 X896.850 Y393.323 Z-10.525 F1200.000 
G1 X882.800 Y379.273 Z-10.525 F1200.000 
G1 X882.800 Y370.788 Z-10.525 F1200.000 
G1 X896.850 Y384.838 Z-10.525 F1200.000 
G1 X896.850 Y376.352 Z-10.525 F1200.000 
G1 X882.800 Y362.302 Z-10.525 F1200.000 
G1 X882.800 Y353.817 Z-10.525 F1200.000 
G1 X896.850 Y367.867 Z-10.525 F1200.000 
G1 X896.850 Y359.382 Z-10.525 F1200.000 
G1 X882.800 Y345.332 Z-10.525 F1200.000 
G1 X882.800 Y336.847 Z-10.525 F1200.000 
G1 X896.850 Y350.897 Z-10.525 F1200.000 
G1 X896.850 Y342.411 Z-10.525 F1200.000 
G1 X882.800 Y328.361 Z-10.525 F1200.000 
G1 X882.800 Y319.876 Z-10.525 F1200.000 
G1 X896.850 Y333.926 Z-10.525 F1200.000 
G1 X896.850 Y325.441 Z-10.525 F1200.000 
G1 X882.800 Y311.391 Z-10.525 F1200.000 
G1 X882.800 Y302.905 Z-10.525 F1200.000 
G1 X896.850 Y316.955 Z-10.525 F1200.000 
G1 X896.850 Y308.470 Z-10.525 F1200.000 
G1 X882.800 Y294.420 Z-10.525 F1200.000 
G1 X882.800 Y285.935 Z-10.525 F1200.000 
G1 X896.850 Y299.985 Z-10.525 F1200.000 
G1 X896.850 Y291.500 Z-10.525 F1200.000 
G1 X882.800 Y277.450 Z-10.525 F1200.000 
G1 X882.800 Y268.964 Z-10.525 F1200.000 
G1 X896.850 Y283.014 Z-10.525 F1200.000 
G1 X896.850 Y274.529 Z-10.525 F1200.000 
G1 X882.800 Y260.479 Z-10.525 F1200.000 
G1 X882.800 Y251.994 Z-10.525 F1200.000 
G1 X896.850 Y266.044 Z-10.525 F1200.000 
G1 X896.850 Y257.558 Z-10.525 F1200.000 
G1 X882.800 Y243.508 Z-10.525 F1200.000 
G1 X882.800 Y235.023 Z-10.525 F1200.000 
G1 X896.850 Y249.073 Z-10.525 F1200.000 
G1 X896.850 Y240.588 Z-10.525 F1200.000 
G1 X882.800 Y226.538 Z-10.525 F1200.000 
G1 X882.800 Y218.053 Z-10.525 F1200.000 
G1 X896.850 Y232.103 Z-10.525 F1200.000 
G1 X896.850 Y223.617 Z-10.525 F1200.000 
G1 X882.800 Y209.567 Z-10.525 F1200.000 
G1 X882.800 Y201.082 Z-10.525 F1200.000 
G1 X896.850 Y215.132 Z-10.525 F1200.000 
G1 X896.850 Y206.647 Z-10.525 F1200.000 
G1 X882.800 Y192.597 Z-10.525 F1200.000 
G1 X882.800 Y184.111 Z-10.525 F1200.000 
G1 X896.850 Y198.161 Z-10.525 F1200.000 
G1 X896.850 Y189.676 Z-10.525 F1200.000 
G1 X882.800 Y175.626 Z-10.525 F1200.000 
G1 X882.800 Y167.141 Z-10.525 F1200.000 
G1 X896.850 Y181.191 Z-10.525 F1200.000 
G1 X896.850 Y172.706 Z-10.525 F1200.000 
G1 X882.800 Y158.656 Z-10.525 F1200.000 
G1 X882.800 Y150.170 Z-10.525 F1200.000 
G1 X896.850 Y164.220 Z-10.525 F1200.000 
G1 X896.850 Y155.735 Z-10.525 F1200.000 
G1 X882.800 Y141.685 Z-10.525 F1200.000 
G1 X882.800 Y133.200 Z-10.525 F1200.000 
G1 X896.850 Y147.250 Z-10.525 F1200.000 
G1 X896.850 Y138.765 Z-10.525 F1200.000 
G1 X882.800 Y124.715 Z-10.525 F1200.000 
G1 X882.800 Y116.229 Z-10.525 F1200.000 
G1 X896.850 Y130.279 Z-10.525 F1200.000 
G1 X896.850 Y121.794 Z-10.525 F1200.000 
G1 X882.800 Y107.744 Z-10.525 F1200.000 
G1 X882.800 Y99.259 Z-10.525 F1200.000 
G1 X896.850 Y113.309 Z-10.525 F1200.000 
G1 X896.850 Y104.823 Z-10.525 F1200.000 
G1 X882.800 Y90.773 Z-10.525 F1200.000 
G1 X882.800 Y82.288 Z-10.525 F1200.000 
G1 X896.850 Y96.338 Z-10.525 F1200.000 
G1 X896.850 Y87.853 Z-10.525 F1200.000 
G1 X882.800 Y73.803 Z-10.525 F1200.000 
G1 X882.800 Y65.318 Z-10.525 F1200.000 
G1 X896.850 Y79.368 Z-10.525 F1200.000 
G1 X896.850 Y70.882 Z-10.525 F1200.000 
G1 X882.800 Y56.832 Z-10.525 F1200.000 
G1 X882.800 Y48.347 Z-10.525 F1200.000 
G1 X896.850 Y62.397 Z-10.525 F1200.000 
G1 X896.850 Y53.912 Z-10.525 F1200.000 
G1 X882.800 Y39.862 Z-10.525 F1200.000 
G1 X882.800 Y31.376 Z-10.525 F1200.000 
G1 X896.850 Y45.426 Z-10.525 F1200.000 
G1 X896.850 Y36.941 Z-10.525 F1200.000 
G1 X882.800 Y22.891 Z-10.525 F1200.000 
G1 X882.800 Y14.406 Z-10.525 F1200.000 
G1 X896.850 Y28.456 Z-10.525 F1200.000 
G1 X896.850 Y19.971 Z-10.525 F1200.000 
G1 X882.800 Y5.921 Z-10.525 F1200.000 
G1 X882.800 Y3.000 Z-10.525 F1200.000 
G1 X888.365 Y3.000 Z-10.525 F1200.000 
G1 X896.850 Y11.485 Z-10.525 F1200.000 
G1 X896.850 Y3.000 Z-10.525 F1200.000 
G0 Z6.000 
G0 Z6.000 
(finish operation: Pocket_Shape)
(begin operation: Profile)
(machine units: mm/min)
(Profile) 
(Compensated Tool Path. Diameter: 6.0) 
G0 Z6.000 
G0 X896.850 Y897.000 
G0 Z4.000 
G1 X896.850 Y897.000 Z-5.000 F1200.000 
G1 X896.850 Y3.000 Z-5.000 F1200.000 
G1 X882.800 Y3.000 Z-5.000 F1200.000 
G1 X882.800 Y897.000 Z-5.000 F1200.000 
G1 X896.850 Y897.000 Z-5.000 F1200.000 
G0 Z6.000 
G0 X617.450 Z6.000 
G0 X617.450 Z4.000 
G1 X617.450 Y897.000 Z-5.000 F1200.000 
G1 X617.450 Y3.000 Z-5.000 F1200.000 
G1 X603.400 Y3.000 Z-5.000 F1200.000 
G1 X603.400 Y897.000 Z-5.000 F1200.000 
G1 X617.450 Y897.000 Z-5.000 F1200.000 
G0 Z6.000 
G0 X338.050 Y897.000 Z6.000 
G0 X338.050 Y897.000 Z4.000 
G1 X338.050 Y897.000 Z-5.000 F1200.000 
G1 X338.050 Y3.000 Z-5.000 F1200.000 
G1 X324.000 Y3.000 Z-5.000 F1200.000 
G1 X324.000 Y897.000 Z-5.000 F1200.000 
G1 X338.050 Y897.000 Z-5.000 F1200.000 
G0 Z6.000 
G0 X58.650 Y897.000 Z6.000 
G0 X58.650 Y897.000 Z4.000 
G1 X58.650 Y897.000 Z-5.000 F1200.000 
G1 X58.650 Y3.000 Z-5.000 F1200.000 
G1 X44.600 Y3.000 Z-5.000 F1200.000 
G1 X44.600 Y897.000 Z-5.000 F1200.000 
G1 X58.650 Y897.000 Z-5.000 F1200.000 
G1 X58.650 Y897.000 Z-10.525 F1200.000 
G1 X58.650 Y3.000 Z-10.525 F1200.000 
G1 X44.600 Y3.000 Z-10.525 F1200.000 
G1 X44.600 Y897.000 Z-10.525 F1200.000 
G1 X58.650 Y897.000 Z-10.525 F1200.000 
G0 Z6.000 
G0 X324.000 Z6.000 
G0 X324.000 Z4.000 
G1 X324.000 Y897.000 Z-10.525 F1200.000 
G1 X338.050 Y897.000 Z-10.525 F1200.000 
G1 X338.050 Y3.000 Z-10.525 F1200.000 
G1 X324.000 Y3.000 Z-10.525 F1200.000 
G1 X324.000 Y897.000 Z-10.525 F1200.000 
G0 Z6.000 
G0 X603.400 Z6.000 
G0 X603.400 Z4.000 
G1 X603.400 Y897.000 Z-10.525 F1200.000 
G1 X617.450 Y897.000 Z-10.525 F1200.000 
G1 X617.450 Y3.000 Z-10.525 F1200.000 
G1 X603.400 Y3.000 Z-10.525 F1200.000 
G1 X603.400 Y897.000 Z-10.525 F1200.000 
G0 Z6.000 
G0 X882.800 Z6.000 
G0 X882.800 Z4.000 
G1 X882.800 Y897.000 Z-10.525 F1200.000 
G1 X896.850 Y897.000 Z-10.525 F1200.000 
G1 X896.850 Y3.000 Z-10.525 F1200.000 
G1 X882.800 Y3.000 Z-10.525 F1200.000 
G1 X882.800 Y897.000 Z-10.525 F1200.000 
G0 Z6.000 
G0 Z6.000 
(finish operation: Profile)
(begin postamble)
M05
G17 G54 G90 G80 G40
M2
