(Exported by FreeCAD)
(Post Processor: linuxcnc_post)
(Output Time:2024-05-05 20:30:10.117578)
(begin preamble)
G17 G54 G40 G49 G80 G90
G21
(begin operation: Fixture)
(machine units: mm/min)
G54 
(finish operation: Fixture)
(begin operation: TC: 6mm_Endmill)
(machine units: mm/min)
(TC: 6mm_Endmill) 
M5
M6 T1 
G43 H1 
(finish operation: TC: 6mm_Endmill)
(begin operation: Pocket_Shape)
(machine units: mm/min)
(Pocket_Shape) 
G0 Z6.000 
G0 X0.000 Y0.000 
G0 X57.650 Y3.000 
G0 X57.650 Y3.000 Z4.000 
G1 X57.650 Y3.000 Z-2.000 F1200.000 
G1 X57.650 Y11.485 Z-2.000 F1200.000 
G1 X49.165 Y3.000 Z-2.000 F1200.000 
G1 X44.600 Y3.000 Z-2.000 F1200.000 
G1 X44.600 Y6.921 Z-2.000 F1200.000 
G1 X57.650 Y19.971 Z-2.000 F1200.000 
G1 X57.650 Y28.456 Z-2.000 F1200.000 
G1 X44.600 Y15.406 Z-2.000 F1200.000 
G1 X44.600 Y23.891 Z-2.000 F1200.000 
G1 X57.650 Y36.941 Z-2.000 F1200.000 
G1 X57.650 Y45.426 Z-2.000 F1200.000 
G1 X44.600 Y32.376 Z-2.000 F1200.000 
G1 X44.600 Y40.862 Z-2.000 F1200.000 
G1 X57.650 Y53.912 Z-2.000 F1200.000 
G1 X57.650 Y62.397 Z-2.000 F1200.000 
G1 X44.600 Y49.347 Z-2.000 F1200.000 
G1 X44.600 Y57.832 Z-2.000 F1200.000 
G1 X57.650 Y70.882 Z-2.000 F1200.000 
G1 X57.650 Y79.368 Z-2.000 F1200.000 
G1 X44.600 Y66.318 Z-2.000 F1200.000 
G1 X44.600 Y74.803 Z-2.000 F1200.000 
G1 X57.650 Y87.853 Z-2.000 F1200.000 
G1 X57.650 Y96.338 Z-2.000 F1200.000 
G1 X44.600 Y83.288 Z-2.000 F1200.000 
G1 X44.600 Y91.773 Z-2.000 F1200.000 
G1 X57.650 Y104.823 Z-2.000 F1200.000 
G1 X57.650 Y113.309 Z-2.000 F1200.000 
G1 X44.600 Y100.259 Z-2.000 F1200.000 
G1 X44.600 Y108.744 Z-2.000 F1200.000 
G1 X57.650 Y121.794 Z-2.000 F1200.000 
G1 X57.650 Y130.279 Z-2.000 F1200.000 
G1 X44.600 Y117.229 Z-2.000 F1200.000 
G1 X44.600 Y125.715 Z-2.000 F1200.000 
G1 X57.650 Y138.765 Z-2.000 F1200.000 
G1 X57.650 Y147.250 Z-2.000 F1200.000 
G1 X44.600 Y134.200 Z-2.000 F1200.000 
G1 X44.600 Y142.685 Z-2.000 F1200.000 
G1 X57.650 Y155.735 Z-2.000 F1200.000 
G1 X57.650 Y164.220 Z-2.000 F1200.000 
G1 X44.600 Y151.170 Z-2.000 F1200.000 
G1 X44.600 Y159.656 Z-2.000 F1200.000 
G1 X57.650 Y172.706 Z-2.000 F1200.000 
G1 X57.650 Y181.191 Z-2.000 F1200.000 
G1 X44.600 Y168.141 Z-2.000 F1200.000 
G1 X44.600 Y176.626 Z-2.000 F1200.000 
G1 X57.650 Y189.676 Z-2.000 F1200.000 
G1 X57.650 Y198.161 Z-2.000 F1200.000 
G1 X44.600 Y185.111 Z-2.000 F1200.000 
G1 X44.600 Y193.597 Z-2.000 F1200.000 
G1 X57.650 Y206.647 Z-2.000 F1200.000 
G1 X57.650 Y215.132 Z-2.000 F1200.000 
G1 X44.600 Y202.082 Z-2.000 F1200.000 
G1 X44.600 Y210.567 Z-2.000 F1200.000 
G1 X57.650 Y223.617 Z-2.000 F1200.000 
G1 X57.650 Y232.103 Z-2.000 F1200.000 
G1 X44.600 Y219.053 Z-2.000 F1200.000 
G1 X44.600 Y227.538 Z-2.000 F1200.000 
G1 X57.650 Y240.588 Z-2.000 F1200.000 
G1 X57.650 Y249.073 Z-2.000 F1200.000 
G1 X44.600 Y236.023 Z-2.000 F1200.000 
G1 X44.600 Y244.508 Z-2.000 F1200.000 
G1 X57.650 Y257.558 Z-2.000 F1200.000 
G1 X57.650 Y266.044 Z-2.000 F1200.000 
G1 X44.600 Y252.994 Z-2.000 F1200.000 
G1 X44.600 Y261.479 Z-2.000 F1200.000 
G1 X57.650 Y274.529 Z-2.000 F1200.000 
G1 X57.650 Y283.014 Z-2.000 F1200.000 
G1 X44.600 Y269.964 Z-2.000 F1200.000 
G1 X44.600 Y278.450 Z-2.000 F1200.000 
G1 X57.650 Y291.500 Z-2.000 F1200.000 
G1 X57.650 Y297.000 Z-2.000 F1200.000 
G1 X54.665 Y297.000 Z-2.000 F1200.000 
G1 X44.600 Y286.935 Z-2.000 F1200.000 
G1 X44.600 Y295.420 Z-2.000 F1200.000 
G1 X44.600 Y297.000 Z-2.000 F1200.000 
G1 X46.180 Y297.000 Z-2.000 F1200.000 
G1 X44.600 Y295.420 Z-2.000 F1200.000 
G1 X44.600 Y295.420 Z-5.000 F1200.000 
G1 X46.180 Y297.000 Z-5.000 F1200.000 
G1 X44.600 Y297.000 Z-5.000 F1200.000 
G1 X44.600 Y295.420 Z-5.000 F1200.000 
G1 X44.600 Y286.935 Z-5.000 F1200.000 
G1 X54.665 Y297.000 Z-5.000 F1200.000 
G1 X57.650 Y297.000 Z-5.000 F1200.000 
G1 X57.650 Y291.500 Z-5.000 F1200.000 
G1 X44.600 Y278.450 Z-5.000 F1200.000 
G1 X44.600 Y269.964 Z-5.000 F1200.000 
G1 X57.650 Y283.014 Z-5.000 F1200.000 
G1 X57.650 Y274.529 Z-5.000 F1200.000 
G1 X44.600 Y261.479 Z-5.000 F1200.000 
G1 X44.600 Y252.994 Z-5.000 F1200.000 
G1 X57.650 Y266.044 Z-5.000 F1200.000 
G1 X57.650 Y257.558 Z-5.000 F1200.000 
G1 X44.600 Y244.508 Z-5.000 F1200.000 
G1 X44.600 Y236.023 Z-5.000 F1200.000 
G1 X57.650 Y249.073 Z-5.000 F1200.000 
G1 X57.650 Y240.588 Z-5.000 F1200.000 
G1 X44.600 Y227.538 Z-5.000 F1200.000 
G1 X44.600 Y219.053 Z-5.000 F1200.000 
G1 X57.650 Y232.103 Z-5.000 F1200.000 
G1 X57.650 Y223.617 Z-5.000 F1200.000 
G1 X44.600 Y210.567 Z-5.000 F1200.000 
G1 X44.600 Y202.082 Z-5.000 F1200.000 
G1 X57.650 Y215.132 Z-5.000 F1200.000 
G1 X57.650 Y206.647 Z-5.000 F1200.000 
G1 X44.600 Y193.597 Z-5.000 F1200.000 
G1 X44.600 Y185.111 Z-5.000 F1200.000 
G1 X57.650 Y198.161 Z-5.000 F1200.000 
G1 X57.650 Y189.676 Z-5.000 F1200.000 
G1 X44.600 Y176.626 Z-5.000 F1200.000 
G1 X44.600 Y168.141 Z-5.000 F1200.000 
G1 X57.650 Y181.191 Z-5.000 F1200.000 
G1 X57.650 Y172.706 Z-5.000 F1200.000 
G1 X44.600 Y159.656 Z-5.000 F1200.000 
G1 X44.600 Y151.170 Z-5.000 F1200.000 
G1 X57.650 Y164.220 Z-5.000 F1200.000 
G1 X57.650 Y155.735 Z-5.000 F1200.000 
G1 X44.600 Y142.685 Z-5.000 F1200.000 
G1 X44.600 Y134.200 Z-5.000 F1200.000 
G1 X57.650 Y147.250 Z-5.000 F1200.000 
G1 X57.650 Y138.765 Z-5.000 F1200.000 
G1 X44.600 Y125.715 Z-5.000 F1200.000 
G1 X44.600 Y117.229 Z-5.000 F1200.000 
G1 X57.650 Y130.279 Z-5.000 F1200.000 
G1 X57.650 Y121.794 Z-5.000 F1200.000 
G1 X44.600 Y108.744 Z-5.000 F1200.000 
G1 X44.600 Y100.259 Z-5.000 F1200.000 
G1 X57.650 Y113.309 Z-5.000 F1200.000 
G1 X57.650 Y104.823 Z-5.000 F1200.000 
G1 X44.600 Y91.773 Z-5.000 F1200.000 
G1 X44.600 Y83.288 Z-5.000 F1200.000 
G1 X57.650 Y96.338 Z-5.000 F1200.000 
G1 X57.650 Y87.853 Z-5.000 F1200.000 
G1 X44.600 Y74.803 Z-5.000 F1200.000 
G1 X44.600 Y66.318 Z-5.000 F1200.000 
G1 X57.650 Y79.368 Z-5.000 F1200.000 
G1 X57.650 Y70.882 Z-5.000 F1200.000 
G1 X44.600 Y57.832 Z-5.000 F1200.000 
G1 X44.600 Y49.347 Z-5.000 F1200.000 
G1 X57.650 Y62.397 Z-5.000 F1200.000 
G1 X57.650 Y53.912 Z-5.000 F1200.000 
G1 X44.600 Y40.862 Z-5.000 F1200.000 
G1 X44.600 Y32.376 Z-5.000 F1200.000 
G1 X57.650 Y45.426 Z-5.000 F1200.000 
G1 X57.650 Y36.941 Z-5.000 F1200.000 
G1 X44.600 Y23.891 Z-5.000 F1200.000 
G1 X44.600 Y15.406 Z-5.000 F1200.000 
G1 X57.650 Y28.456 Z-5.000 F1200.000 
G1 X57.650 Y19.971 Z-5.000 F1200.000 
G1 X44.600 Y6.921 Z-5.000 F1200.000 
G1 X44.600 Y3.000 Z-5.000 F1200.000 
G1 X49.165 Y3.000 Z-5.000 F1200.000 
G1 X57.650 Y11.485 Z-5.000 F1200.000 
G1 X57.650 Y3.000 Z-5.000 F1200.000 
G1 X57.650 Y3.000 Z-8.000 F1200.000 
G1 X57.650 Y11.485 Z-8.000 F1200.000 
G1 X49.165 Y3.000 Z-8.000 F1200.000 
G1 X44.600 Y3.000 Z-8.000 F1200.000 
G1 X44.600 Y6.921 Z-8.000 F1200.000 
G1 X57.650 Y19.971 Z-8.000 F1200.000 
G1 X57.650 Y28.456 Z-8.000 F1200.000 
G1 X44.600 Y15.406 Z-8.000 F1200.000 
G1 X44.600 Y23.891 Z-8.000 F1200.000 
G1 X57.650 Y36.941 Z-8.000 F1200.000 
G1 X57.650 Y45.426 Z-8.000 F1200.000 
G1 X44.600 Y32.376 Z-8.000 F1200.000 
G1 X44.600 Y40.862 Z-8.000 F1200.000 
G1 X57.650 Y53.912 Z-8.000 F1200.000 
G1 X57.650 Y62.397 Z-8.000 F1200.000 
G1 X44.600 Y49.347 Z-8.000 F1200.000 
G1 X44.600 Y57.832 Z-8.000 F1200.000 
G1 X57.650 Y70.882 Z-8.000 F1200.000 
G1 X57.650 Y79.368 Z-8.000 F1200.000 
G1 X44.600 Y66.318 Z-8.000 F1200.000 
G1 X44.600 Y74.803 Z-8.000 F1200.000 
G1 X57.650 Y87.853 Z-8.000 F1200.000 
G1 X57.650 Y96.338 Z-8.000 F1200.000 
G1 X44.600 Y83.288 Z-8.000 F1200.000 
G1 X44.600 Y91.773 Z-8.000 F1200.000 
G1 X57.650 Y104.823 Z-8.000 F1200.000 
G1 X57.650 Y113.309 Z-8.000 F1200.000 
G1 X44.600 Y100.259 Z-8.000 F1200.000 
G1 X44.600 Y108.744 Z-8.000 F1200.000 
G1 X57.650 Y121.794 Z-8.000 F1200.000 
G1 X57.650 Y130.279 Z-8.000 F1200.000 
G1 X44.600 Y117.229 Z-8.000 F1200.000 
G1 X44.600 Y125.715 Z-8.000 F1200.000 
G1 X57.650 Y138.765 Z-8.000 F1200.000 
G1 X57.650 Y147.250 Z-8.000 F1200.000 
G1 X44.600 Y134.200 Z-8.000 F1200.000 
G1 X44.600 Y142.685 Z-8.000 F1200.000 
G1 X57.650 Y155.735 Z-8.000 F1200.000 
G1 X57.650 Y164.220 Z-8.000 F1200.000 
G1 X44.600 Y151.170 Z-8.000 F1200.000 
G1 X44.600 Y159.656 Z-8.000 F1200.000 
G1 X57.650 Y172.706 Z-8.000 F1200.000 
G1 X57.650 Y181.191 Z-8.000 F1200.000 
G1 X44.600 Y168.141 Z-8.000 F1200.000 
G1 X44.600 Y176.626 Z-8.000 F1200.000 
G1 X57.650 Y189.676 Z-8.000 F1200.000 
G1 X57.650 Y198.161 Z-8.000 F1200.000 
G1 X44.600 Y185.111 Z-8.000 F1200.000 
G1 X44.600 Y193.597 Z-8.000 F1200.000 
G1 X57.650 Y206.647 Z-8.000 F1200.000 
G1 X57.650 Y215.132 Z-8.000 F1200.000 
G1 X44.600 Y202.082 Z-8.000 F1200.000 
G1 X44.600 Y210.567 Z-8.000 F1200.000 
G1 X57.650 Y223.617 Z-8.000 F1200.000 
G1 X57.650 Y232.103 Z-8.000 F1200.000 
G1 X44.600 Y219.053 Z-8.000 F1200.000 
G1 X44.600 Y227.538 Z-8.000 F1200.000 
G1 X57.650 Y240.588 Z-8.000 F1200.000 
G1 X57.650 Y249.073 Z-8.000 F1200.000 
G1 X44.600 Y236.023 Z-8.000 F1200.000 
G1 X44.600 Y244.508 Z-8.000 F1200.000 
G1 X57.650 Y257.558 Z-8.000 F1200.000 
G1 X57.650 Y266.044 Z-8.000 F1200.000 
G1 X44.600 Y252.994 Z-8.000 F1200.000 
G1 X44.600 Y261.479 Z-8.000 F1200.000 
G1 X57.650 Y274.529 Z-8.000 F1200.000 
G1 X57.650 Y283.014 Z-8.000 F1200.000 
G1 X44.600 Y269.964 Z-8.000 F1200.000 
G1 X44.600 Y278.450 Z-8.000 F1200.000 
G1 X57.650 Y291.500 Z-8.000 F1200.000 
G1 X57.650 Y297.000 Z-8.000 F1200.000 
G1 X54.665 Y297.000 Z-8.000 F1200.000 
G1 X44.600 Y286.935 Z-8.000 F1200.000 
G1 X44.600 Y295.420 Z-8.000 F1200.000 
G1 X44.600 Y297.000 Z-8.000 F1200.000 
G1 X46.180 Y297.000 Z-8.000 F1200.000 
G1 X44.600 Y295.420 Z-8.000 F1200.000 
G1 X44.600 Y295.420 Z-10.525 F1200.000 
G1 X46.180 Y297.000 Z-10.525 F1200.000 
G1 X44.600 Y297.000 Z-10.525 F1200.000 
G1 X44.600 Y295.420 Z-10.525 F1200.000 
G1 X44.600 Y286.935 Z-10.525 F1200.000 
G1 X54.665 Y297.000 Z-10.525 F1200.000 
G1 X57.650 Y297.000 Z-10.525 F1200.000 
G1 X57.650 Y291.500 Z-10.525 F1200.000 
G1 X44.600 Y278.450 Z-10.525 F1200.000 
G1 X44.600 Y269.964 Z-10.525 F1200.000 
G1 X57.650 Y283.014 Z-10.525 F1200.000 
G1 X57.650 Y274.529 Z-10.525 F1200.000 
G1 X44.600 Y261.479 Z-10.525 F1200.000 
G1 X44.600 Y252.994 Z-10.525 F1200.000 
G1 X57.650 Y266.044 Z-10.525 F1200.000 
G1 X57.650 Y257.558 Z-10.525 F1200.000 
G1 X44.600 Y244.508 Z-10.525 F1200.000 
G1 X44.600 Y236.023 Z-10.525 F1200.000 
G1 X57.650 Y249.073 Z-10.525 F1200.000 
G1 X57.650 Y240.588 Z-10.525 F1200.000 
G1 X44.600 Y227.538 Z-10.525 F1200.000 
G1 X44.600 Y219.053 Z-10.525 F1200.000 
G1 X57.650 Y232.103 Z-10.525 F1200.000 
G1 X57.650 Y223.617 Z-10.525 F1200.000 
G1 X44.600 Y210.567 Z-10.525 F1200.000 
G1 X44.600 Y202.082 Z-10.525 F1200.000 
G1 X57.650 Y215.132 Z-10.525 F1200.000 
G1 X57.650 Y206.647 Z-10.525 F1200.000 
G1 X44.600 Y193.597 Z-10.525 F1200.000 
G1 X44.600 Y185.111 Z-10.525 F1200.000 
G1 X57.650 Y198.161 Z-10.525 F1200.000 
G1 X57.650 Y189.676 Z-10.525 F1200.000 
G1 X44.600 Y176.626 Z-10.525 F1200.000 
G1 X44.600 Y168.141 Z-10.525 F1200.000 
G1 X57.650 Y181.191 Z-10.525 F1200.000 
G1 X57.650 Y172.706 Z-10.525 F1200.000 
G1 X44.600 Y159.656 Z-10.525 F1200.000 
G1 X44.600 Y151.170 Z-10.525 F1200.000 
G1 X57.650 Y164.220 Z-10.525 F1200.000 
G1 X57.650 Y155.735 Z-10.525 F1200.000 
G1 X44.600 Y142.685 Z-10.525 F1200.000 
G1 X44.600 Y134.200 Z-10.525 F1200.000 
G1 X57.650 Y147.250 Z-10.525 F1200.000 
G1 X57.650 Y138.765 Z-10.525 F1200.000 
G1 X44.600 Y125.715 Z-10.525 F1200.000 
G1 X44.600 Y117.229 Z-10.525 F1200.000 
G1 X57.650 Y130.279 Z-10.525 F1200.000 
G1 X57.650 Y121.794 Z-10.525 F1200.000 
G1 X44.600 Y108.744 Z-10.525 F1200.000 
G1 X44.600 Y100.259 Z-10.525 F1200.000 
G1 X57.650 Y113.309 Z-10.525 F1200.000 
G1 X57.650 Y104.823 Z-10.525 F1200.000 
G1 X44.600 Y91.773 Z-10.525 F1200.000 
G1 X44.600 Y83.288 Z-10.525 F1200.000 
G1 X57.650 Y96.338 Z-10.525 F1200.000 
G1 X57.650 Y87.853 Z-10.525 F1200.000 
G1 X44.600 Y74.803 Z-10.525 F1200.000 
G1 X44.600 Y66.318 Z-10.525 F1200.000 
G1 X57.650 Y79.368 Z-10.525 F1200.000 
G1 X57.650 Y70.882 Z-10.525 F1200.000 
G1 X44.600 Y57.832 Z-10.525 F1200.000 
G1 X44.600 Y49.347 Z-10.525 F1200.000 
G1 X57.650 Y62.397 Z-10.525 F1200.000 
G1 X57.650 Y53.912 Z-10.525 F1200.000 
G1 X44.600 Y40.862 Z-10.525 F1200.000 
G1 X44.600 Y32.376 Z-10.525 F1200.000 
G1 X57.650 Y45.426 Z-10.525 F1200.000 
G1 X57.650 Y36.941 Z-10.525 F1200.000 
G1 X44.600 Y23.891 Z-10.525 F1200.000 
G1 X44.600 Y15.406 Z-10.525 F1200.000 
G1 X57.650 Y28.456 Z-10.525 F1200.000 
G1 X57.650 Y19.971 Z-10.525 F1200.000 
G1 X44.600 Y6.921 Z-10.525 F1200.000 
G1 X44.600 Y3.000 Z-10.525 F1200.000 
G1 X49.165 Y3.000 Z-10.525 F1200.000 
G1 X57.650 Y11.485 Z-10.525 F1200.000 
G1 X57.650 Y3.000 Z-10.525 F1200.000 
G0 Z6.000 
G0 Z6.000 
G0 X57.650 Y3.000 
G0 X337.050 
G0 X337.050 Z4.000 
G1 X337.050 Y3.000 Z-2.000 F1200.000 
G1 X337.050 Y11.485 Z-2.000 F1200.000 
G1 X328.565 Y3.000 Z-2.000 F1200.000 
G1 X324.000 Y3.000 Z-2.000 F1200.000 
G1 X324.000 Y6.921 Z-2.000 F1200.000 
G1 X337.050 Y19.971 Z-2.000 F1200.000 
G1 X337.050 Y28.456 Z-2.000 F1200.000 
G1 X324.000 Y15.406 Z-2.000 F1200.000 
G1 X324.000 Y23.891 Z-2.000 F1200.000 
G1 X337.050 Y36.941 Z-2.000 F1200.000 
G1 X337.050 Y45.426 Z-2.000 F1200.000 
G1 X324.000 Y32.376 Z-2.000 F1200.000 
G1 X324.000 Y40.862 Z-2.000 F1200.000 
G1 X337.050 Y53.912 Z-2.000 F1200.000 
G1 X337.050 Y62.397 Z-2.000 F1200.000 
G1 X324.000 Y49.347 Z-2.000 F1200.000 
G1 X324.000 Y57.832 Z-2.000 F1200.000 
G1 X337.050 Y70.882 Z-2.000 F1200.000 
G1 X337.050 Y79.368 Z-2.000 F1200.000 
G1 X324.000 Y66.318 Z-2.000 F1200.000 
G1 X324.000 Y74.803 Z-2.000 F1200.000 
G1 X337.050 Y87.853 Z-2.000 F1200.000 
G1 X337.050 Y96.338 Z-2.000 F1200.000 
G1 X324.000 Y83.288 Z-2.000 F1200.000 
G1 X324.000 Y91.773 Z-2.000 F1200.000 
G1 X337.050 Y104.823 Z-2.000 F1200.000 
G1 X337.050 Y113.309 Z-2.000 F1200.000 
G1 X324.000 Y100.259 Z-2.000 F1200.000 
G1 X324.000 Y108.744 Z-2.000 F1200.000 
G1 X337.050 Y121.794 Z-2.000 F1200.000 
G1 X337.050 Y130.279 Z-2.000 F1200.000 
G1 X324.000 Y117.229 Z-2.000 F1200.000 
G1 X324.000 Y125.715 Z-2.000 F1200.000 
G1 X337.050 Y138.765 Z-2.000 F1200.000 
G1 X337.050 Y147.250 Z-2.000 F1200.000 
G1 X324.000 Y134.200 Z-2.000 F1200.000 
G1 X324.000 Y142.685 Z-2.000 F1200.000 
G1 X337.050 Y155.735 Z-2.000 F1200.000 
G1 X337.050 Y164.220 Z-2.000 F1200.000 
G1 X324.000 Y151.170 Z-2.000 F1200.000 
G1 X324.000 Y159.656 Z-2.000 F1200.000 
G1 X337.050 Y172.706 Z-2.000 F1200.000 
G1 X337.050 Y181.191 Z-2.000 F1200.000 
G1 X324.000 Y168.141 Z-2.000 F1200.000 
G1 X324.000 Y176.626 Z-2.000 F1200.000 
G1 X337.050 Y189.676 Z-2.000 F1200.000 
G1 X337.050 Y198.161 Z-2.000 F1200.000 
G1 X324.000 Y185.111 Z-2.000 F1200.000 
G1 X324.000 Y193.597 Z-2.000 F1200.000 
G1 X337.050 Y206.647 Z-2.000 F1200.000 
G1 X337.050 Y215.132 Z-2.000 F1200.000 
G1 X324.000 Y202.082 Z-2.000 F1200.000 
G1 X324.000 Y210.567 Z-2.000 F1200.000 
G1 X337.050 Y223.617 Z-2.000 F1200.000 
G1 X337.050 Y232.103 Z-2.000 F1200.000 
G1 X324.000 Y219.053 Z-2.000 F1200.000 
G1 X324.000 Y227.538 Z-2.000 F1200.000 
G1 X337.050 Y240.588 Z-2.000 F1200.000 
G1 X337.050 Y249.073 Z-2.000 F1200.000 
G1 X324.000 Y236.023 Z-2.000 F1200.000 
G1 X324.000 Y244.508 Z-2.000 F1200.000 
G1 X337.050 Y257.558 Z-2.000 F1200.000 
G1 X337.050 Y266.044 Z-2.000 F1200.000 
G1 X324.000 Y252.994 Z-2.000 F1200.000 
G1 X324.000 Y261.479 Z-2.000 F1200.000 
G1 X337.050 Y274.529 Z-2.000 F1200.000 
G1 X337.050 Y283.014 Z-2.000 F1200.000 
G1 X324.000 Y269.964 Z-2.000 F1200.000 
G1 X324.000 Y278.450 Z-2.000 F1200.000 
G1 X337.050 Y291.500 Z-2.000 F1200.000 
G1 X337.050 Y297.000 Z-2.000 F1200.000 
G1 X334.065 Y297.000 Z-2.000 F1200.000 
G1 X324.000 Y286.935 Z-2.000 F1200.000 
G1 X324.000 Y295.420 Z-2.000 F1200.000 
G1 X324.000 Y297.000 Z-2.000 F1200.000 
G1 X325.580 Y297.000 Z-2.000 F1200.000 
G1 X324.000 Y295.420 Z-2.000 F1200.000 
G1 X324.000 Y295.420 Z-5.000 F1200.000 
G1 X325.580 Y297.000 Z-5.000 F1200.000 
G1 X324.000 Y297.000 Z-5.000 F1200.000 
G1 X324.000 Y295.420 Z-5.000 F1200.000 
G1 X324.000 Y286.935 Z-5.000 F1200.000 
G1 X334.065 Y297.000 Z-5.000 F1200.000 
G1 X337.050 Y297.000 Z-5.000 F1200.000 
G1 X337.050 Y291.500 Z-5.000 F1200.000 
G1 X324.000 Y278.450 Z-5.000 F1200.000 
G1 X324.000 Y269.964 Z-5.000 F1200.000 
G1 X337.050 Y283.014 Z-5.000 F1200.000 
G1 X337.050 Y274.529 Z-5.000 F1200.000 
G1 X324.000 Y261.479 Z-5.000 F1200.000 
G1 X324.000 Y252.994 Z-5.000 F1200.000 
G1 X337.050 Y266.044 Z-5.000 F1200.000 
G1 X337.050 Y257.558 Z-5.000 F1200.000 
G1 X324.000 Y244.508 Z-5.000 F1200.000 
G1 X324.000 Y236.023 Z-5.000 F1200.000 
G1 X337.050 Y249.073 Z-5.000 F1200.000 
G1 X337.050 Y240.588 Z-5.000 F1200.000 
G1 X324.000 Y227.538 Z-5.000 F1200.000 
G1 X324.000 Y219.053 Z-5.000 F1200.000 
G1 X337.050 Y232.103 Z-5.000 F1200.000 
G1 X337.050 Y223.617 Z-5.000 F1200.000 
G1 X324.000 Y210.567 Z-5.000 F1200.000 
G1 X324.000 Y202.082 Z-5.000 F1200.000 
G1 X337.050 Y215.132 Z-5.000 F1200.000 
G1 X337.050 Y206.647 Z-5.000 F1200.000 
G1 X324.000 Y193.597 Z-5.000 F1200.000 
G1 X324.000 Y185.111 Z-5.000 F1200.000 
G1 X337.050 Y198.161 Z-5.000 F1200.000 
G1 X337.050 Y189.676 Z-5.000 F1200.000 
G1 X324.000 Y176.626 Z-5.000 F1200.000 
G1 X324.000 Y168.141 Z-5.000 F1200.000 
G1 X337.050 Y181.191 Z-5.000 F1200.000 
G1 X337.050 Y172.706 Z-5.000 F1200.000 
G1 X324.000 Y159.656 Z-5.000 F1200.000 
G1 X324.000 Y151.170 Z-5.000 F1200.000 
G1 X337.050 Y164.220 Z-5.000 F1200.000 
G1 X337.050 Y155.735 Z-5.000 F1200.000 
G1 X324.000 Y142.685 Z-5.000 F1200.000 
G1 X324.000 Y134.200 Z-5.000 F1200.000 
G1 X337.050 Y147.250 Z-5.000 F1200.000 
G1 X337.050 Y138.765 Z-5.000 F1200.000 
G1 X324.000 Y125.715 Z-5.000 F1200.000 
G1 X324.000 Y117.229 Z-5.000 F1200.000 
G1 X337.050 Y130.279 Z-5.000 F1200.000 
G1 X337.050 Y121.794 Z-5.000 F1200.000 
G1 X324.000 Y108.744 Z-5.000 F1200.000 
G1 X324.000 Y100.259 Z-5.000 F1200.000 
G1 X337.050 Y113.309 Z-5.000 F1200.000 
G1 X337.050 Y104.823 Z-5.000 F1200.000 
G1 X324.000 Y91.773 Z-5.000 F1200.000 
G1 X324.000 Y83.288 Z-5.000 F1200.000 
G1 X337.050 Y96.338 Z-5.000 F1200.000 
G1 X337.050 Y87.853 Z-5.000 F1200.000 
G1 X324.000 Y74.803 Z-5.000 F1200.000 
G1 X324.000 Y66.318 Z-5.000 F1200.000 
G1 X337.050 Y79.368 Z-5.000 F1200.000 
G1 X337.050 Y70.882 Z-5.000 F1200.000 
G1 X324.000 Y57.832 Z-5.000 F1200.000 
G1 X324.000 Y49.347 Z-5.000 F1200.000 
G1 X337.050 Y62.397 Z-5.000 F1200.000 
G1 X337.050 Y53.912 Z-5.000 F1200.000 
G1 X324.000 Y40.862 Z-5.000 F1200.000 
G1 X324.000 Y32.376 Z-5.000 F1200.000 
G1 X337.050 Y45.426 Z-5.000 F1200.000 
G1 X337.050 Y36.941 Z-5.000 F1200.000 
G1 X324.000 Y23.891 Z-5.000 F1200.000 
G1 X324.000 Y15.406 Z-5.000 F1200.000 
G1 X337.050 Y28.456 Z-5.000 F1200.000 
G1 X337.050 Y19.971 Z-5.000 F1200.000 
G1 X324.000 Y6.921 Z-5.000 F1200.000 
G1 X324.000 Y3.000 Z-5.000 F1200.000 
G1 X328.565 Y3.000 Z-5.000 F1200.000 
G1 X337.050 Y11.485 Z-5.000 F1200.000 
G1 X337.050 Y3.000 Z-5.000 F1200.000 
G1 X337.050 Y3.000 Z-8.000 F1200.000 
G1 X337.050 Y11.485 Z-8.000 F1200.000 
G1 X328.565 Y3.000 Z-8.000 F1200.000 
G1 X324.000 Y3.000 Z-8.000 F1200.000 
G1 X324.000 Y6.921 Z-8.000 F1200.000 
G1 X337.050 Y19.971 Z-8.000 F1200.000 
G1 X337.050 Y28.456 Z-8.000 F1200.000 
G1 X324.000 Y15.406 Z-8.000 F1200.000 
G1 X324.000 Y23.891 Z-8.000 F1200.000 
G1 X337.050 Y36.941 Z-8.000 F1200.000 
G1 X337.050 Y45.426 Z-8.000 F1200.000 
G1 X324.000 Y32.376 Z-8.000 F1200.000 
G1 X324.000 Y40.862 Z-8.000 F1200.000 
G1 X337.050 Y53.912 Z-8.000 F1200.000 
G1 X337.050 Y62.397 Z-8.000 F1200.000 
G1 X324.000 Y49.347 Z-8.000 F1200.000 
G1 X324.000 Y57.832 Z-8.000 F1200.000 
G1 X337.050 Y70.882 Z-8.000 F1200.000 
G1 X337.050 Y79.368 Z-8.000 F1200.000 
G1 X324.000 Y66.318 Z-8.000 F1200.000 
G1 X324.000 Y74.803 Z-8.000 F1200.000 
G1 X337.050 Y87.853 Z-8.000 F1200.000 
G1 X337.050 Y96.338 Z-8.000 F1200.000 
G1 X324.000 Y83.288 Z-8.000 F1200.000 
G1 X324.000 Y91.773 Z-8.000 F1200.000 
G1 X337.050 Y104.823 Z-8.000 F1200.000 
G1 X337.050 Y113.309 Z-8.000 F1200.000 
G1 X324.000 Y100.259 Z-8.000 F1200.000 
G1 X324.000 Y108.744 Z-8.000 F1200.000 
G1 X337.050 Y121.794 Z-8.000 F1200.000 
G1 X337.050 Y130.279 Z-8.000 F1200.000 
G1 X324.000 Y117.229 Z-8.000 F1200.000 
G1 X324.000 Y125.715 Z-8.000 F1200.000 
G1 X337.050 Y138.765 Z-8.000 F1200.000 
G1 X337.050 Y147.250 Z-8.000 F1200.000 
G1 X324.000 Y134.200 Z-8.000 F1200.000 
G1 X324.000 Y142.685 Z-8.000 F1200.000 
G1 X337.050 Y155.735 Z-8.000 F1200.000 
G1 X337.050 Y164.220 Z-8.000 F1200.000 
G1 X324.000 Y151.170 Z-8.000 F1200.000 
G1 X324.000 Y159.656 Z-8.000 F1200.000 
G1 X337.050 Y172.706 Z-8.000 F1200.000 
G1 X337.050 Y181.191 Z-8.000 F1200.000 
G1 X324.000 Y168.141 Z-8.000 F1200.000 
G1 X324.000 Y176.626 Z-8.000 F1200.000 
G1 X337.050 Y189.676 Z-8.000 F1200.000 
G1 X337.050 Y198.161 Z-8.000 F1200.000 
G1 X324.000 Y185.111 Z-8.000 F1200.000 
G1 X324.000 Y193.597 Z-8.000 F1200.000 
G1 X337.050 Y206.647 Z-8.000 F1200.000 
G1 X337.050 Y215.132 Z-8.000 F1200.000 
G1 X324.000 Y202.082 Z-8.000 F1200.000 
G1 X324.000 Y210.567 Z-8.000 F1200.000 
G1 X337.050 Y223.617 Z-8.000 F1200.000 
G1 X337.050 Y232.103 Z-8.000 F1200.000 
G1 X324.000 Y219.053 Z-8.000 F1200.000 
G1 X324.000 Y227.538 Z-8.000 F1200.000 
G1 X337.050 Y240.588 Z-8.000 F1200.000 
G1 X337.050 Y249.073 Z-8.000 F1200.000 
G1 X324.000 Y236.023 Z-8.000 F1200.000 
G1 X324.000 Y244.508 Z-8.000 F1200.000 
G1 X337.050 Y257.558 Z-8.000 F1200.000 
G1 X337.050 Y266.044 Z-8.000 F1200.000 
G1 X324.000 Y252.994 Z-8.000 F1200.000 
G1 X324.000 Y261.479 Z-8.000 F1200.000 
G1 X337.050 Y274.529 Z-8.000 F1200.000 
G1 X337.050 Y283.014 Z-8.000 F1200.000 
G1 X324.000 Y269.964 Z-8.000 F1200.000 
G1 X324.000 Y278.450 Z-8.000 F1200.000 
G1 X337.050 Y291.500 Z-8.000 F1200.000 
G1 X337.050 Y297.000 Z-8.000 F1200.000 
G1 X334.065 Y297.000 Z-8.000 F1200.000 
G1 X324.000 Y286.935 Z-8.000 F1200.000 
G1 X324.000 Y295.420 Z-8.000 F1200.000 
G1 X324.000 Y297.000 Z-8.000 F1200.000 
G1 X325.580 Y297.000 Z-8.000 F1200.000 
G1 X324.000 Y295.420 Z-8.000 F1200.000 
G1 X324.000 Y295.420 Z-10.525 F1200.000 
G1 X325.580 Y297.000 Z-10.525 F1200.000 
G1 X324.000 Y297.000 Z-10.525 F1200.000 
G1 X324.000 Y295.420 Z-10.525 F1200.000 
G1 X324.000 Y286.935 Z-10.525 F1200.000 
G1 X334.065 Y297.000 Z-10.525 F1200.000 
G1 X337.050 Y297.000 Z-10.525 F1200.000 
G1 X337.050 Y291.500 Z-10.525 F1200.000 
G1 X324.000 Y278.450 Z-10.525 F1200.000 
G1 X324.000 Y269.964 Z-10.525 F1200.000 
G1 X337.050 Y283.014 Z-10.525 F1200.000 
G1 X337.050 Y274.529 Z-10.525 F1200.000 
G1 X324.000 Y261.479 Z-10.525 F1200.000 
G1 X324.000 Y252.994 Z-10.525 F1200.000 
G1 X337.050 Y266.044 Z-10.525 F1200.000 
G1 X337.050 Y257.558 Z-10.525 F1200.000 
G1 X324.000 Y244.508 Z-10.525 F1200.000 
G1 X324.000 Y236.023 Z-10.525 F1200.000 
G1 X337.050 Y249.073 Z-10.525 F1200.000 
G1 X337.050 Y240.588 Z-10.525 F1200.000 
G1 X324.000 Y227.538 Z-10.525 F1200.000 
G1 X324.000 Y219.053 Z-10.525 F1200.000 
G1 X337.050 Y232.103 Z-10.525 F1200.000 
G1 X337.050 Y223.617 Z-10.525 F1200.000 
G1 X324.000 Y210.567 Z-10.525 F1200.000 
G1 X324.000 Y202.082 Z-10.525 F1200.000 
G1 X337.050 Y215.132 Z-10.525 F1200.000 
G1 X337.050 Y206.647 Z-10.525 F1200.000 
G1 X324.000 Y193.597 Z-10.525 F1200.000 
G1 X324.000 Y185.111 Z-10.525 F1200.000 
G1 X337.050 Y198.161 Z-10.525 F1200.000 
G1 X337.050 Y189.676 Z-10.525 F1200.000 
G1 X324.000 Y176.626 Z-10.525 F1200.000 
G1 X324.000 Y168.141 Z-10.525 F1200.000 
G1 X337.050 Y181.191 Z-10.525 F1200.000 
G1 X337.050 Y172.706 Z-10.525 F1200.000 
G1 X324.000 Y159.656 Z-10.525 F1200.000 
G1 X324.000 Y151.170 Z-10.525 F1200.000 
G1 X337.050 Y164.220 Z-10.525 F1200.000 
G1 X337.050 Y155.735 Z-10.525 F1200.000 
G1 X324.000 Y142.685 Z-10.525 F1200.000 
G1 X324.000 Y134.200 Z-10.525 F1200.000 
G1 X337.050 Y147.250 Z-10.525 F1200.000 
G1 X337.050 Y138.765 Z-10.525 F1200.000 
G1 X324.000 Y125.715 Z-10.525 F1200.000 
G1 X324.000 Y117.229 Z-10.525 F1200.000 
G1 X337.050 Y130.279 Z-10.525 F1200.000 
G1 X337.050 Y121.794 Z-10.525 F1200.000 
G1 X324.000 Y108.744 Z-10.525 F1200.000 
G1 X324.000 Y100.259 Z-10.525 F1200.000 
G1 X337.050 Y113.309 Z-10.525 F1200.000 
G1 X337.050 Y104.823 Z-10.525 F1200.000 
G1 X324.000 Y91.773 Z-10.525 F1200.000 
G1 X324.000 Y83.288 Z-10.525 F1200.000 
G1 X337.050 Y96.338 Z-10.525 F1200.000 
G1 X337.050 Y87.853 Z-10.525 F1200.000 
G1 X324.000 Y74.803 Z-10.525 F1200.000 
G1 X324.000 Y66.318 Z-10.525 F1200.000 
G1 X337.050 Y79.368 Z-10.525 F1200.000 
G1 X337.050 Y70.882 Z-10.525 F1200.000 
G1 X324.000 Y57.832 Z-10.525 F1200.000 
G1 X324.000 Y49.347 Z-10.525 F1200.000 
G1 X337.050 Y62.397 Z-10.525 F1200.000 
G1 X337.050 Y53.912 Z-10.525 F1200.000 
G1 X324.000 Y40.862 Z-10.525 F1200.000 
G1 X324.000 Y32.376 Z-10.525 F1200.000 
G1 X337.050 Y45.426 Z-10.525 F1200.000 
G1 X337.050 Y36.941 Z-10.525 F1200.000 
G1 X324.000 Y23.891 Z-10.525 F1200.000 
G1 X324.000 Y15.406 Z-10.525 F1200.000 
G1 X337.050 Y28.456 Z-10.525 F1200.000 
G1 X337.050 Y19.971 Z-10.525 F1200.000 
G1 X324.000 Y6.921 Z-10.525 F1200.000 
G1 X324.000 Y3.000 Z-10.525 F1200.000 
G1 X328.565 Y3.000 Z-10.525 F1200.000 
G1 X337.050 Y11.485 Z-10.525 F1200.000 
G1 X337.050 Y3.000 Z-10.525 F1200.000 
G0 Z6.000 
G0 Z6.000 
G0 X337.050 Y3.000 
G0 X616.450 
G0 X616.450 Z4.000 
G1 X616.450 Y3.000 Z-2.000 F1200.000 
G1 X616.450 Y11.485 Z-2.000 F1200.000 
G1 X607.965 Y3.000 Z-2.000 F1200.000 
G1 X603.400 Y3.000 Z-2.000 F1200.000 
G1 X603.400 Y6.921 Z-2.000 F1200.000 
G1 X616.450 Y19.971 Z-2.000 F1200.000 
G1 X616.450 Y28.456 Z-2.000 F1200.000 
G1 X603.400 Y15.406 Z-2.000 F1200.000 
G1 X603.400 Y23.891 Z-2.000 F1200.000 
G1 X616.450 Y36.941 Z-2.000 F1200.000 
G1 X616.450 Y45.426 Z-2.000 F1200.000 
G1 X603.400 Y32.376 Z-2.000 F1200.000 
G1 X603.400 Y40.862 Z-2.000 F1200.000 
G1 X616.450 Y53.912 Z-2.000 F1200.000 
G1 X616.450 Y62.397 Z-2.000 F1200.000 
G1 X603.400 Y49.347 Z-2.000 F1200.000 
G1 X603.400 Y57.832 Z-2.000 F1200.000 
G1 X616.450 Y70.882 Z-2.000 F1200.000 
G1 X616.450 Y79.368 Z-2.000 F1200.000 
G1 X603.400 Y66.318 Z-2.000 F1200.000 
G1 X603.400 Y74.803 Z-2.000 F1200.000 
G1 X616.450 Y87.853 Z-2.000 F1200.000 
G1 X616.450 Y96.338 Z-2.000 F1200.000 
G1 X603.400 Y83.288 Z-2.000 F1200.000 
G1 X603.400 Y91.773 Z-2.000 F1200.000 
G1 X616.450 Y104.823 Z-2.000 F1200.000 
G1 X616.450 Y113.309 Z-2.000 F1200.000 
G1 X603.400 Y100.259 Z-2.000 F1200.000 
G1 X603.400 Y108.744 Z-2.000 F1200.000 
G1 X616.450 Y121.794 Z-2.000 F1200.000 
G1 X616.450 Y130.279 Z-2.000 F1200.000 
G1 X603.400 Y117.229 Z-2.000 F1200.000 
G1 X603.400 Y125.715 Z-2.000 F1200.000 
G1 X616.450 Y138.765 Z-2.000 F1200.000 
G1 X616.450 Y147.250 Z-2.000 F1200.000 
G1 X603.400 Y134.200 Z-2.000 F1200.000 
G1 X603.400 Y142.685 Z-2.000 F1200.000 
G1 X616.450 Y155.735 Z-2.000 F1200.000 
G1 X616.450 Y164.220 Z-2.000 F1200.000 
G1 X603.400 Y151.170 Z-2.000 F1200.000 
G1 X603.400 Y159.656 Z-2.000 F1200.000 
G1 X616.450 Y172.706 Z-2.000 F1200.000 
G1 X616.450 Y181.191 Z-2.000 F1200.000 
G1 X603.400 Y168.141 Z-2.000 F1200.000 
G1 X603.400 Y176.626 Z-2.000 F1200.000 
G1 X616.450 Y189.676 Z-2.000 F1200.000 
G1 X616.450 Y198.161 Z-2.000 F1200.000 
G1 X603.400 Y185.111 Z-2.000 F1200.000 
G1 X603.400 Y193.597 Z-2.000 F1200.000 
G1 X616.450 Y206.647 Z-2.000 F1200.000 
G1 X616.450 Y215.132 Z-2.000 F1200.000 
G1 X603.400 Y202.082 Z-2.000 F1200.000 
G1 X603.400 Y210.567 Z-2.000 F1200.000 
G1 X616.450 Y223.617 Z-2.000 F1200.000 
G1 X616.450 Y232.103 Z-2.000 F1200.000 
G1 X603.400 Y219.053 Z-2.000 F1200.000 
G1 X603.400 Y227.538 Z-2.000 F1200.000 
G1 X616.450 Y240.588 Z-2.000 F1200.000 
G1 X616.450 Y249.073 Z-2.000 F1200.000 
G1 X603.400 Y236.023 Z-2.000 F1200.000 
G1 X603.400 Y244.508 Z-2.000 F1200.000 
G1 X616.450 Y257.558 Z-2.000 F1200.000 
G1 X616.450 Y266.044 Z-2.000 F1200.000 
G1 X603.400 Y252.994 Z-2.000 F1200.000 
G1 X603.400 Y261.479 Z-2.000 F1200.000 
G1 X616.450 Y274.529 Z-2.000 F1200.000 
G1 X616.450 Y283.014 Z-2.000 F1200.000 
G1 X603.400 Y269.964 Z-2.000 F1200.000 
G1 X603.400 Y278.450 Z-2.000 F1200.000 
G1 X616.450 Y291.500 Z-2.000 F1200.000 
G1 X616.450 Y297.000 Z-2.000 F1200.000 
G1 X613.465 Y297.000 Z-2.000 F1200.000 
G1 X603.400 Y286.935 Z-2.000 F1200.000 
G1 X603.400 Y295.420 Z-2.000 F1200.000 
G1 X603.400 Y297.000 Z-2.000 F1200.000 
G1 X604.980 Y297.000 Z-2.000 F1200.000 
G1 X603.400 Y295.420 Z-2.000 F1200.000 
G1 X603.400 Y295.420 Z-5.000 F1200.000 
G1 X604.980 Y297.000 Z-5.000 F1200.000 
G1 X603.400 Y297.000 Z-5.000 F1200.000 
G1 X603.400 Y295.420 Z-5.000 F1200.000 
G1 X603.400 Y286.935 Z-5.000 F1200.000 
G1 X613.465 Y297.000 Z-5.000 F1200.000 
G1 X616.450 Y297.000 Z-5.000 F1200.000 
G1 X616.450 Y291.500 Z-5.000 F1200.000 
G1 X603.400 Y278.450 Z-5.000 F1200.000 
G1 X603.400 Y269.964 Z-5.000 F1200.000 
G1 X616.450 Y283.014 Z-5.000 F1200.000 
G1 X616.450 Y274.529 Z-5.000 F1200.000 
G1 X603.400 Y261.479 Z-5.000 F1200.000 
G1 X603.400 Y252.994 Z-5.000 F1200.000 
G1 X616.450 Y266.044 Z-5.000 F1200.000 
G1 X616.450 Y257.558 Z-5.000 F1200.000 
G1 X603.400 Y244.508 Z-5.000 F1200.000 
G1 X603.400 Y236.023 Z-5.000 F1200.000 
G1 X616.450 Y249.073 Z-5.000 F1200.000 
G1 X616.450 Y240.588 Z-5.000 F1200.000 
G1 X603.400 Y227.538 Z-5.000 F1200.000 
G1 X603.400 Y219.053 Z-5.000 F1200.000 
G1 X616.450 Y232.103 Z-5.000 F1200.000 
G1 X616.450 Y223.617 Z-5.000 F1200.000 
G1 X603.400 Y210.567 Z-5.000 F1200.000 
G1 X603.400 Y202.082 Z-5.000 F1200.000 
G1 X616.450 Y215.132 Z-5.000 F1200.000 
G1 X616.450 Y206.647 Z-5.000 F1200.000 
G1 X603.400 Y193.597 Z-5.000 F1200.000 
G1 X603.400 Y185.111 Z-5.000 F1200.000 
G1 X616.450 Y198.161 Z-5.000 F1200.000 
G1 X616.450 Y189.676 Z-5.000 F1200.000 
G1 X603.400 Y176.626 Z-5.000 F1200.000 
G1 X603.400 Y168.141 Z-5.000 F1200.000 
G1 X616.450 Y181.191 Z-5.000 F1200.000 
G1 X616.450 Y172.706 Z-5.000 F1200.000 
G1 X603.400 Y159.656 Z-5.000 F1200.000 
G1 X603.400 Y151.170 Z-5.000 F1200.000 
G1 X616.450 Y164.220 Z-5.000 F1200.000 
G1 X616.450 Y155.735 Z-5.000 F1200.000 
G1 X603.400 Y142.685 Z-5.000 F1200.000 
G1 X603.400 Y134.200 Z-5.000 F1200.000 
G1 X616.450 Y147.250 Z-5.000 F1200.000 
G1 X616.450 Y138.765 Z-5.000 F1200.000 
G1 X603.400 Y125.715 Z-5.000 F1200.000 
G1 X603.400 Y117.229 Z-5.000 F1200.000 
G1 X616.450 Y130.279 Z-5.000 F1200.000 
G1 X616.450 Y121.794 Z-5.000 F1200.000 
G1 X603.400 Y108.744 Z-5.000 F1200.000 
G1 X603.400 Y100.259 Z-5.000 F1200.000 
G1 X616.450 Y113.309 Z-5.000 F1200.000 
G1 X616.450 Y104.823 Z-5.000 F1200.000 
G1 X603.400 Y91.773 Z-5.000 F1200.000 
G1 X603.400 Y83.288 Z-5.000 F1200.000 
G1 X616.450 Y96.338 Z-5.000 F1200.000 
G1 X616.450 Y87.853 Z-5.000 F1200.000 
G1 X603.400 Y74.803 Z-5.000 F1200.000 
G1 X603.400 Y66.318 Z-5.000 F1200.000 
G1 X616.450 Y79.368 Z-5.000 F1200.000 
G1 X616.450 Y70.882 Z-5.000 F1200.000 
G1 X603.400 Y57.832 Z-5.000 F1200.000 
G1 X603.400 Y49.347 Z-5.000 F1200.000 
G1 X616.450 Y62.397 Z-5.000 F1200.000 
G1 X616.450 Y53.912 Z-5.000 F1200.000 
G1 X603.400 Y40.862 Z-5.000 F1200.000 
G1 X603.400 Y32.376 Z-5.000 F1200.000 
G1 X616.450 Y45.426 Z-5.000 F1200.000 
G1 X616.450 Y36.941 Z-5.000 F1200.000 
G1 X603.400 Y23.891 Z-5.000 F1200.000 
G1 X603.400 Y15.406 Z-5.000 F1200.000 
G1 X616.450 Y28.456 Z-5.000 F1200.000 
G1 X616.450 Y19.971 Z-5.000 F1200.000 
G1 X603.400 Y6.921 Z-5.000 F1200.000 
G1 X603.400 Y3.000 Z-5.000 F1200.000 
G1 X607.965 Y3.000 Z-5.000 F1200.000 
G1 X616.450 Y11.485 Z-5.000 F1200.000 
G1 X616.450 Y3.000 Z-5.000 F1200.000 
G1 X616.450 Y3.000 Z-8.000 F1200.000 
G1 X616.450 Y11.485 Z-8.000 F1200.000 
G1 X607.965 Y3.000 Z-8.000 F1200.000 
G1 X603.400 Y3.000 Z-8.000 F1200.000 
G1 X603.400 Y6.921 Z-8.000 F1200.000 
G1 X616.450 Y19.971 Z-8.000 F1200.000 
G1 X616.450 Y28.456 Z-8.000 F1200.000 
G1 X603.400 Y15.406 Z-8.000 F1200.000 
G1 X603.400 Y23.891 Z-8.000 F1200.000 
G1 X616.450 Y36.941 Z-8.000 F1200.000 
G1 X616.450 Y45.426 Z-8.000 F1200.000 
G1 X603.400 Y32.376 Z-8.000 F1200.000 
G1 X603.400 Y40.862 Z-8.000 F1200.000 
G1 X616.450 Y53.912 Z-8.000 F1200.000 
G1 X616.450 Y62.397 Z-8.000 F1200.000 
G1 X603.400 Y49.347 Z-8.000 F1200.000 
G1 X603.400 Y57.832 Z-8.000 F1200.000 
G1 X616.450 Y70.882 Z-8.000 F1200.000 
G1 X616.450 Y79.368 Z-8.000 F1200.000 
G1 X603.400 Y66.318 Z-8.000 F1200.000 
G1 X603.400 Y74.803 Z-8.000 F1200.000 
G1 X616.450 Y87.853 Z-8.000 F1200.000 
G1 X616.450 Y96.338 Z-8.000 F1200.000 
G1 X603.400 Y83.288 Z-8.000 F1200.000 
G1 X603.400 Y91.773 Z-8.000 F1200.000 
G1 X616.450 Y104.823 Z-8.000 F1200.000 
G1 X616.450 Y113.309 Z-8.000 F1200.000 
G1 X603.400 Y100.259 Z-8.000 F1200.000 
G1 X603.400 Y108.744 Z-8.000 F1200.000 
G1 X616.450 Y121.794 Z-8.000 F1200.000 
G1 X616.450 Y130.279 Z-8.000 F1200.000 
G1 X603.400 Y117.229 Z-8.000 F1200.000 
G1 X603.400 Y125.715 Z-8.000 F1200.000 
G1 X616.450 Y138.765 Z-8.000 F1200.000 
G1 X616.450 Y147.250 Z-8.000 F1200.000 
G1 X603.400 Y134.200 Z-8.000 F1200.000 
G1 X603.400 Y142.685 Z-8.000 F1200.000 
G1 X616.450 Y155.735 Z-8.000 F1200.000 
G1 X616.450 Y164.220 Z-8.000 F1200.000 
G1 X603.400 Y151.170 Z-8.000 F1200.000 
G1 X603.400 Y159.656 Z-8.000 F1200.000 
G1 X616.450 Y172.706 Z-8.000 F1200.000 
G1 X616.450 Y181.191 Z-8.000 F1200.000 
G1 X603.400 Y168.141 Z-8.000 F1200.000 
G1 X603.400 Y176.626 Z-8.000 F1200.000 
G1 X616.450 Y189.676 Z-8.000 F1200.000 
G1 X616.450 Y198.161 Z-8.000 F1200.000 
G1 X603.400 Y185.111 Z-8.000 F1200.000 
G1 X603.400 Y193.597 Z-8.000 F1200.000 
G1 X616.450 Y206.647 Z-8.000 F1200.000 
G1 X616.450 Y215.132 Z-8.000 F1200.000 
G1 X603.400 Y202.082 Z-8.000 F1200.000 
G1 X603.400 Y210.567 Z-8.000 F1200.000 
G1 X616.450 Y223.617 Z-8.000 F1200.000 
G1 X616.450 Y232.103 Z-8.000 F1200.000 
G1 X603.400 Y219.053 Z-8.000 F1200.000 
G1 X603.400 Y227.538 Z-8.000 F1200.000 
G1 X616.450 Y240.588 Z-8.000 F1200.000 
G1 X616.450 Y249.073 Z-8.000 F1200.000 
G1 X603.400 Y236.023 Z-8.000 F1200.000 
G1 X603.400 Y244.508 Z-8.000 F1200.000 
G1 X616.450 Y257.558 Z-8.000 F1200.000 
G1 X616.450 Y266.044 Z-8.000 F1200.000 
G1 X603.400 Y252.994 Z-8.000 F1200.000 
G1 X603.400 Y261.479 Z-8.000 F1200.000 
G1 X616.450 Y274.529 Z-8.000 F1200.000 
G1 X616.450 Y283.014 Z-8.000 F1200.000 
G1 X603.400 Y269.964 Z-8.000 F1200.000 
G1 X603.400 Y278.450 Z-8.000 F1200.000 
G1 X616.450 Y291.500 Z-8.000 F1200.000 
G1 X616.450 Y297.000 Z-8.000 F1200.000 
G1 X613.465 Y297.000 Z-8.000 F1200.000 
G1 X603.400 Y286.935 Z-8.000 F1200.000 
G1 X603.400 Y295.420 Z-8.000 F1200.000 
G1 X603.400 Y297.000 Z-8.000 F1200.000 
G1 X604.980 Y297.000 Z-8.000 F1200.000 
G1 X603.400 Y295.420 Z-8.000 F1200.000 
G1 X603.400 Y295.420 Z-10.525 F1200.000 
G1 X604.980 Y297.000 Z-10.525 F1200.000 
G1 X603.400 Y297.000 Z-10.525 F1200.000 
G1 X603.400 Y295.420 Z-10.525 F1200.000 
G1 X603.400 Y286.935 Z-10.525 F1200.000 
G1 X613.465 Y297.000 Z-10.525 F1200.000 
G1 X616.450 Y297.000 Z-10.525 F1200.000 
G1 X616.450 Y291.500 Z-10.525 F1200.000 
G1 X603.400 Y278.450 Z-10.525 F1200.000 
G1 X603.400 Y269.964 Z-10.525 F1200.000 
G1 X616.450 Y283.014 Z-10.525 F1200.000 
G1 X616.450 Y274.529 Z-10.525 F1200.000 
G1 X603.400 Y261.479 Z-10.525 F1200.000 
G1 X603.400 Y252.994 Z-10.525 F1200.000 
G1 X616.450 Y266.044 Z-10.525 F1200.000 
G1 X616.450 Y257.558 Z-10.525 F1200.000 
G1 X603.400 Y244.508 Z-10.525 F1200.000 
G1 X603.400 Y236.023 Z-10.525 F1200.000 
G1 X616.450 Y249.073 Z-10.525 F1200.000 
G1 X616.450 Y240.588 Z-10.525 F1200.000 
G1 X603.400 Y227.538 Z-10.525 F1200.000 
G1 X603.400 Y219.053 Z-10.525 F1200.000 
G1 X616.450 Y232.103 Z-10.525 F1200.000 
G1 X616.450 Y223.617 Z-10.525 F1200.000 
G1 X603.400 Y210.567 Z-10.525 F1200.000 
G1 X603.400 Y202.082 Z-10.525 F1200.000 
G1 X616.450 Y215.132 Z-10.525 F1200.000 
G1 X616.450 Y206.647 Z-10.525 F1200.000 
G1 X603.400 Y193.597 Z-10.525 F1200.000 
G1 X603.400 Y185.111 Z-10.525 F1200.000 
G1 X616.450 Y198.161 Z-10.525 F1200.000 
G1 X616.450 Y189.676 Z-10.525 F1200.000 
G1 X603.400 Y176.626 Z-10.525 F1200.000 
G1 X603.400 Y168.141 Z-10.525 F1200.000 
G1 X616.450 Y181.191 Z-10.525 F1200.000 
G1 X616.450 Y172.706 Z-10.525 F1200.000 
G1 X603.400 Y159.656 Z-10.525 F1200.000 
G1 X603.400 Y151.170 Z-10.525 F1200.000 
G1 X616.450 Y164.220 Z-10.525 F1200.000 
G1 X616.450 Y155.735 Z-10.525 F1200.000 
G1 X603.400 Y142.685 Z-10.525 F1200.000 
G1 X603.400 Y134.200 Z-10.525 F1200.000 
G1 X616.450 Y147.250 Z-10.525 F1200.000 
G1 X616.450 Y138.765 Z-10.525 F1200.000 
G1 X603.400 Y125.715 Z-10.525 F1200.000 
G1 X603.400 Y117.229 Z-10.525 F1200.000 
G1 X616.450 Y130.279 Z-10.525 F1200.000 
G1 X616.450 Y121.794 Z-10.525 F1200.000 
G1 X603.400 Y108.744 Z-10.525 F1200.000 
G1 X603.400 Y100.259 Z-10.525 F1200.000 
G1 X616.450 Y113.309 Z-10.525 F1200.000 
G1 X616.450 Y104.823 Z-10.525 F1200.000 
G1 X603.400 Y91.773 Z-10.525 F1200.000 
G1 X603.400 Y83.288 Z-10.525 F1200.000 
G1 X616.450 Y96.338 Z-10.525 F1200.000 
G1 X616.450 Y87.853 Z-10.525 F1200.000 
G1 X603.400 Y74.803 Z-10.525 F1200.000 
G1 X603.400 Y66.318 Z-10.525 F1200.000 
G1 X616.450 Y79.368 Z-10.525 F1200.000 
G1 X616.450 Y70.882 Z-10.525 F1200.000 
G1 X603.400 Y57.832 Z-10.525 F1200.000 
G1 X603.400 Y49.347 Z-10.525 F1200.000 
G1 X616.450 Y62.397 Z-10.525 F1200.000 
G1 X616.450 Y53.912 Z-10.525 F1200.000 
G1 X603.400 Y40.862 Z-10.525 F1200.000 
G1 X603.400 Y32.376 Z-10.525 F1200.000 
G1 X616.450 Y45.426 Z-10.525 F1200.000 
G1 X616.450 Y36.941 Z-10.525 F1200.000 
G1 X603.400 Y23.891 Z-10.525 F1200.000 
G1 X603.400 Y15.406 Z-10.525 F1200.000 
G1 X616.450 Y28.456 Z-10.525 F1200.000 
G1 X616.450 Y19.971 Z-10.525 F1200.000 
G1 X603.400 Y6.921 Z-10.525 F1200.000 
G1 X603.400 Y3.000 Z-10.525 F1200.000 
G1 X607.965 Y3.000 Z-10.525 F1200.000 
G1 X616.450 Y11.485 Z-10.525 F1200.000 
G1 X616.450 Y3.000 Z-10.525 F1200.000 
G0 Z6.000 
G0 Z6.000 
G0 X616.450 Y3.000 
G0 X895.850 
G0 X895.850 Z4.000 
G1 X895.850 Y3.000 Z-2.000 F1200.000 
G1 X895.850 Y11.485 Z-2.000 F1200.000 
G1 X887.365 Y3.000 Z-2.000 F1200.000 
G1 X882.800 Y3.000 Z-2.000 F1200.000 
G1 X882.800 Y6.921 Z-2.000 F1200.000 
G1 X895.850 Y19.971 Z-2.000 F1200.000 
G1 X895.850 Y28.456 Z-2.000 F1200.000 
G1 X882.800 Y15.406 Z-2.000 F1200.000 
G1 X882.800 Y23.891 Z-2.000 F1200.000 
G1 X895.850 Y36.941 Z-2.000 F1200.000 
G1 X895.850 Y45.426 Z-2.000 F1200.000 
G1 X882.800 Y32.376 Z-2.000 F1200.000 
G1 X882.800 Y40.862 Z-2.000 F1200.000 
G1 X895.850 Y53.912 Z-2.000 F1200.000 
G1 X895.850 Y62.397 Z-2.000 F1200.000 
G1 X882.800 Y49.347 Z-2.000 F1200.000 
G1 X882.800 Y57.832 Z-2.000 F1200.000 
G1 X895.850 Y70.882 Z-2.000 F1200.000 
G1 X895.850 Y79.368 Z-2.000 F1200.000 
G1 X882.800 Y66.318 Z-2.000 F1200.000 
G1 X882.800 Y74.803 Z-2.000 F1200.000 
G1 X895.850 Y87.853 Z-2.000 F1200.000 
G1 X895.850 Y96.338 Z-2.000 F1200.000 
G1 X882.800 Y83.288 Z-2.000 F1200.000 
G1 X882.800 Y91.773 Z-2.000 F1200.000 
G1 X895.850 Y104.823 Z-2.000 F1200.000 
G1 X895.850 Y113.309 Z-2.000 F1200.000 
G1 X882.800 Y100.259 Z-2.000 F1200.000 
G1 X882.800 Y108.744 Z-2.000 F1200.000 
G1 X895.850 Y121.794 Z-2.000 F1200.000 
G1 X895.850 Y130.279 Z-2.000 F1200.000 
G1 X882.800 Y117.229 Z-2.000 F1200.000 
G1 X882.800 Y125.715 Z-2.000 F1200.000 
G1 X895.850 Y138.765 Z-2.000 F1200.000 
G1 X895.850 Y147.250 Z-2.000 F1200.000 
G1 X882.800 Y134.200 Z-2.000 F1200.000 
G1 X882.800 Y142.685 Z-2.000 F1200.000 
G1 X895.850 Y155.735 Z-2.000 F1200.000 
G1 X895.850 Y164.220 Z-2.000 F1200.000 
G1 X882.800 Y151.170 Z-2.000 F1200.000 
G1 X882.800 Y159.656 Z-2.000 F1200.000 
G1 X895.850 Y172.706 Z-2.000 F1200.000 
G1 X895.850 Y181.191 Z-2.000 F1200.000 
G1 X882.800 Y168.141 Z-2.000 F1200.000 
G1 X882.800 Y176.626 Z-2.000 F1200.000 
G1 X895.850 Y189.676 Z-2.000 F1200.000 
G1 X895.850 Y198.161 Z-2.000 F1200.000 
G1 X882.800 Y185.111 Z-2.000 F1200.000 
G1 X882.800 Y193.597 Z-2.000 F1200.000 
G1 X895.850 Y206.647 Z-2.000 F1200.000 
G1 X895.850 Y215.132 Z-2.000 F1200.000 
G1 X882.800 Y202.082 Z-2.000 F1200.000 
G1 X882.800 Y210.567 Z-2.000 F1200.000 
G1 X895.850 Y223.617 Z-2.000 F1200.000 
G1 X895.850 Y232.103 Z-2.000 F1200.000 
G1 X882.800 Y219.053 Z-2.000 F1200.000 
G1 X882.800 Y227.538 Z-2.000 F1200.000 
G1 X895.850 Y240.588 Z-2.000 F1200.000 
G1 X895.850 Y249.073 Z-2.000 F1200.000 
G1 X882.800 Y236.023 Z-2.000 F1200.000 
G1 X882.800 Y244.508 Z-2.000 F1200.000 
G1 X895.850 Y257.558 Z-2.000 F1200.000 
G1 X895.850 Y266.044 Z-2.000 F1200.000 
G1 X882.800 Y252.994 Z-2.000 F1200.000 
G1 X882.800 Y261.479 Z-2.000 F1200.000 
G1 X895.850 Y274.529 Z-2.000 F1200.000 
G1 X895.850 Y283.014 Z-2.000 F1200.000 
G1 X882.800 Y269.964 Z-2.000 F1200.000 
G1 X882.800 Y278.450 Z-2.000 F1200.000 
G1 X895.850 Y291.500 Z-2.000 F1200.000 
G1 X895.850 Y297.000 Z-2.000 F1200.000 
G1 X892.865 Y297.000 Z-2.000 F1200.000 
G1 X882.800 Y286.935 Z-2.000 F1200.000 
G1 X882.800 Y295.420 Z-2.000 F1200.000 
G1 X882.800 Y297.000 Z-2.000 F1200.000 
G1 X884.380 Y297.000 Z-2.000 F1200.000 
G1 X882.800 Y295.420 Z-2.000 F1200.000 
G1 X882.800 Y295.420 Z-5.000 F1200.000 
G1 X884.380 Y297.000 Z-5.000 F1200.000 
G1 X882.800 Y297.000 Z-5.000 F1200.000 
G1 X882.800 Y295.420 Z-5.000 F1200.000 
G1 X882.800 Y286.935 Z-5.000 F1200.000 
G1 X892.865 Y297.000 Z-5.000 F1200.000 
G1 X895.850 Y297.000 Z-5.000 F1200.000 
G1 X895.850 Y291.500 Z-5.000 F1200.000 
G1 X882.800 Y278.450 Z-5.000 F1200.000 
G1 X882.800 Y269.964 Z-5.000 F1200.000 
G1 X895.850 Y283.014 Z-5.000 F1200.000 
G1 X895.850 Y274.529 Z-5.000 F1200.000 
G1 X882.800 Y261.479 Z-5.000 F1200.000 
G1 X882.800 Y252.994 Z-5.000 F1200.000 
G1 X895.850 Y266.044 Z-5.000 F1200.000 
G1 X895.850 Y257.558 Z-5.000 F1200.000 
G1 X882.800 Y244.508 Z-5.000 F1200.000 
G1 X882.800 Y236.023 Z-5.000 F1200.000 
G1 X895.850 Y249.073 Z-5.000 F1200.000 
G1 X895.850 Y240.588 Z-5.000 F1200.000 
G1 X882.800 Y227.538 Z-5.000 F1200.000 
G1 X882.800 Y219.053 Z-5.000 F1200.000 
G1 X895.850 Y232.103 Z-5.000 F1200.000 
G1 X895.850 Y223.617 Z-5.000 F1200.000 
G1 X882.800 Y210.567 Z-5.000 F1200.000 
G1 X882.800 Y202.082 Z-5.000 F1200.000 
G1 X895.850 Y215.132 Z-5.000 F1200.000 
G1 X895.850 Y206.647 Z-5.000 F1200.000 
G1 X882.800 Y193.597 Z-5.000 F1200.000 
G1 X882.800 Y185.111 Z-5.000 F1200.000 
G1 X895.850 Y198.161 Z-5.000 F1200.000 
G1 X895.850 Y189.676 Z-5.000 F1200.000 
G1 X882.800 Y176.626 Z-5.000 F1200.000 
G1 X882.800 Y168.141 Z-5.000 F1200.000 
G1 X895.850 Y181.191 Z-5.000 F1200.000 
G1 X895.850 Y172.706 Z-5.000 F1200.000 
G1 X882.800 Y159.656 Z-5.000 F1200.000 
G1 X882.800 Y151.170 Z-5.000 F1200.000 
G1 X895.850 Y164.220 Z-5.000 F1200.000 
G1 X895.850 Y155.735 Z-5.000 F1200.000 
G1 X882.800 Y142.685 Z-5.000 F1200.000 
G1 X882.800 Y134.200 Z-5.000 F1200.000 
G1 X895.850 Y147.250 Z-5.000 F1200.000 
G1 X895.850 Y138.765 Z-5.000 F1200.000 
G1 X882.800 Y125.715 Z-5.000 F1200.000 
G1 X882.800 Y117.229 Z-5.000 F1200.000 
G1 X895.850 Y130.279 Z-5.000 F1200.000 
G1 X895.850 Y121.794 Z-5.000 F1200.000 
G1 X882.800 Y108.744 Z-5.000 F1200.000 
G1 X882.800 Y100.259 Z-5.000 F1200.000 
G1 X895.850 Y113.309 Z-5.000 F1200.000 
G1 X895.850 Y104.823 Z-5.000 F1200.000 
G1 X882.800 Y91.773 Z-5.000 F1200.000 
G1 X882.800 Y83.288 Z-5.000 F1200.000 
G1 X895.850 Y96.338 Z-5.000 F1200.000 
G1 X895.850 Y87.853 Z-5.000 F1200.000 
G1 X882.800 Y74.803 Z-5.000 F1200.000 
G1 X882.800 Y66.318 Z-5.000 F1200.000 
G1 X895.850 Y79.368 Z-5.000 F1200.000 
G1 X895.850 Y70.882 Z-5.000 F1200.000 
G1 X882.800 Y57.832 Z-5.000 F1200.000 
G1 X882.800 Y49.347 Z-5.000 F1200.000 
G1 X895.850 Y62.397 Z-5.000 F1200.000 
G1 X895.850 Y53.912 Z-5.000 F1200.000 
G1 X882.800 Y40.862 Z-5.000 F1200.000 
G1 X882.800 Y32.376 Z-5.000 F1200.000 
G1 X895.850 Y45.426 Z-5.000 F1200.000 
G1 X895.850 Y36.941 Z-5.000 F1200.000 
G1 X882.800 Y23.891 Z-5.000 F1200.000 
G1 X882.800 Y15.406 Z-5.000 F1200.000 
G1 X895.850 Y28.456 Z-5.000 F1200.000 
G1 X895.850 Y19.971 Z-5.000 F1200.000 
G1 X882.800 Y6.921 Z-5.000 F1200.000 
G1 X882.800 Y3.000 Z-5.000 F1200.000 
G1 X887.365 Y3.000 Z-5.000 F1200.000 
G1 X895.850 Y11.485 Z-5.000 F1200.000 
G1 X895.850 Y3.000 Z-5.000 F1200.000 
G1 X895.850 Y3.000 Z-8.000 F1200.000 
G1 X895.850 Y11.485 Z-8.000 F1200.000 
G1 X887.365 Y3.000 Z-8.000 F1200.000 
G1 X882.800 Y3.000 Z-8.000 F1200.000 
G1 X882.800 Y6.921 Z-8.000 F1200.000 
G1 X895.850 Y19.971 Z-8.000 F1200.000 
G1 X895.850 Y28.456 Z-8.000 F1200.000 
G1 X882.800 Y15.406 Z-8.000 F1200.000 
G1 X882.800 Y23.891 Z-8.000 F1200.000 
G1 X895.850 Y36.941 Z-8.000 F1200.000 
G1 X895.850 Y45.426 Z-8.000 F1200.000 
G1 X882.800 Y32.376 Z-8.000 F1200.000 
G1 X882.800 Y40.862 Z-8.000 F1200.000 
G1 X895.850 Y53.912 Z-8.000 F1200.000 
G1 X895.850 Y62.397 Z-8.000 F1200.000 
G1 X882.800 Y49.347 Z-8.000 F1200.000 
G1 X882.800 Y57.832 Z-8.000 F1200.000 
G1 X895.850 Y70.882 Z-8.000 F1200.000 
G1 X895.850 Y79.368 Z-8.000 F1200.000 
G1 X882.800 Y66.318 Z-8.000 F1200.000 
G1 X882.800 Y74.803 Z-8.000 F1200.000 
G1 X895.850 Y87.853 Z-8.000 F1200.000 
G1 X895.850 Y96.338 Z-8.000 F1200.000 
G1 X882.800 Y83.288 Z-8.000 F1200.000 
G1 X882.800 Y91.773 Z-8.000 F1200.000 
G1 X895.850 Y104.823 Z-8.000 F1200.000 
G1 X895.850 Y113.309 Z-8.000 F1200.000 
G1 X882.800 Y100.259 Z-8.000 F1200.000 
G1 X882.800 Y108.744 Z-8.000 F1200.000 
G1 X895.850 Y121.794 Z-8.000 F1200.000 
G1 X895.850 Y130.279 Z-8.000 F1200.000 
G1 X882.800 Y117.229 Z-8.000 F1200.000 
G1 X882.800 Y125.715 Z-8.000 F1200.000 
G1 X895.850 Y138.765 Z-8.000 F1200.000 
G1 X895.850 Y147.250 Z-8.000 F1200.000 
G1 X882.800 Y134.200 Z-8.000 F1200.000 
G1 X882.800 Y142.685 Z-8.000 F1200.000 
G1 X895.850 Y155.735 Z-8.000 F1200.000 
G1 X895.850 Y164.220 Z-8.000 F1200.000 
G1 X882.800 Y151.170 Z-8.000 F1200.000 
G1 X882.800 Y159.656 Z-8.000 F1200.000 
G1 X895.850 Y172.706 Z-8.000 F1200.000 
G1 X895.850 Y181.191 Z-8.000 F1200.000 
G1 X882.800 Y168.141 Z-8.000 F1200.000 
G1 X882.800 Y176.626 Z-8.000 F1200.000 
G1 X895.850 Y189.676 Z-8.000 F1200.000 
G1 X895.850 Y198.161 Z-8.000 F1200.000 
G1 X882.800 Y185.111 Z-8.000 F1200.000 
G1 X882.800 Y193.597 Z-8.000 F1200.000 
G1 X895.850 Y206.647 Z-8.000 F1200.000 
G1 X895.850 Y215.132 Z-8.000 F1200.000 
G1 X882.800 Y202.082 Z-8.000 F1200.000 
G1 X882.800 Y210.567 Z-8.000 F1200.000 
G1 X895.850 Y223.617 Z-8.000 F1200.000 
G1 X895.850 Y232.103 Z-8.000 F1200.000 
G1 X882.800 Y219.053 Z-8.000 F1200.000 
G1 X882.800 Y227.538 Z-8.000 F1200.000 
G1 X895.850 Y240.588 Z-8.000 F1200.000 
G1 X895.850 Y249.073 Z-8.000 F1200.000 
G1 X882.800 Y236.023 Z-8.000 F1200.000 
G1 X882.800 Y244.508 Z-8.000 F1200.000 
G1 X895.850 Y257.558 Z-8.000 F1200.000 
G1 X895.850 Y266.044 Z-8.000 F1200.000 
G1 X882.800 Y252.994 Z-8.000 F1200.000 
G1 X882.800 Y261.479 Z-8.000 F1200.000 
G1 X895.850 Y274.529 Z-8.000 F1200.000 
G1 X895.850 Y283.014 Z-8.000 F1200.000 
G1 X882.800 Y269.964 Z-8.000 F1200.000 
G1 X882.800 Y278.450 Z-8.000 F1200.000 
G1 X895.850 Y291.500 Z-8.000 F1200.000 
G1 X895.850 Y297.000 Z-8.000 F1200.000 
G1 X892.865 Y297.000 Z-8.000 F1200.000 
G1 X882.800 Y286.935 Z-8.000 F1200.000 
G1 X882.800 Y295.420 Z-8.000 F1200.000 
G1 X882.800 Y297.000 Z-8.000 F1200.000 
G1 X884.380 Y297.000 Z-8.000 F1200.000 
G1 X882.800 Y295.420 Z-8.000 F1200.000 
G1 X882.800 Y295.420 Z-10.525 F1200.000 
G1 X884.380 Y297.000 Z-10.525 F1200.000 
G1 X882.800 Y297.000 Z-10.525 F1200.000 
G1 X882.800 Y295.420 Z-10.525 F1200.000 
G1 X882.800 Y286.935 Z-10.525 F1200.000 
G1 X892.865 Y297.000 Z-10.525 F1200.000 
G1 X895.850 Y297.000 Z-10.525 F1200.000 
G1 X895.850 Y291.500 Z-10.525 F1200.000 
G1 X882.800 Y278.450 Z-10.525 F1200.000 
G1 X882.800 Y269.964 Z-10.525 F1200.000 
G1 X895.850 Y283.014 Z-10.525 F1200.000 
G1 X895.850 Y274.529 Z-10.525 F1200.000 
G1 X882.800 Y261.479 Z-10.525 F1200.000 
G1 X882.800 Y252.994 Z-10.525 F1200.000 
G1 X895.850 Y266.044 Z-10.525 F1200.000 
G1 X895.850 Y257.558 Z-10.525 F1200.000 
G1 X882.800 Y244.508 Z-10.525 F1200.000 
G1 X882.800 Y236.023 Z-10.525 F1200.000 
G1 X895.850 Y249.073 Z-10.525 F1200.000 
G1 X895.850 Y240.588 Z-10.525 F1200.000 
G1 X882.800 Y227.538 Z-10.525 F1200.000 
G1 X882.800 Y219.053 Z-10.525 F1200.000 
G1 X895.850 Y232.103 Z-10.525 F1200.000 
G1 X895.850 Y223.617 Z-10.525 F1200.000 
G1 X882.800 Y210.567 Z-10.525 F1200.000 
G1 X882.800 Y202.082 Z-10.525 F1200.000 
G1 X895.850 Y215.132 Z-10.525 F1200.000 
G1 X895.850 Y206.647 Z-10.525 F1200.000 
G1 X882.800 Y193.597 Z-10.525 F1200.000 
G1 X882.800 Y185.111 Z-10.525 F1200.000 
G1 X895.850 Y198.161 Z-10.525 F1200.000 
G1 X895.850 Y189.676 Z-10.525 F1200.000 
G1 X882.800 Y176.626 Z-10.525 F1200.000 
G1 X882.800 Y168.141 Z-10.525 F1200.000 
G1 X895.850 Y181.191 Z-10.525 F1200.000 
G1 X895.850 Y172.706 Z-10.525 F1200.000 
G1 X882.800 Y159.656 Z-10.525 F1200.000 
G1 X882.800 Y151.170 Z-10.525 F1200.000 
G1 X895.850 Y164.220 Z-10.525 F1200.000 
G1 X895.850 Y155.735 Z-10.525 F1200.000 
G1 X882.800 Y142.685 Z-10.525 F1200.000 
G1 X882.800 Y134.200 Z-10.525 F1200.000 
G1 X895.850 Y147.250 Z-10.525 F1200.000 
G1 X895.850 Y138.765 Z-10.525 F1200.000 
G1 X882.800 Y125.715 Z-10.525 F1200.000 
G1 X882.800 Y117.229 Z-10.525 F1200.000 
G1 X895.850 Y130.279 Z-10.525 F1200.000 
G1 X895.850 Y121.794 Z-10.525 F1200.000 
G1 X882.800 Y108.744 Z-10.525 F1200.000 
G1 X882.800 Y100.259 Z-10.525 F1200.000 
G1 X895.850 Y113.309 Z-10.525 F1200.000 
G1 X895.850 Y104.823 Z-10.525 F1200.000 
G1 X882.800 Y91.773 Z-10.525 F1200.000 
G1 X882.800 Y83.288 Z-10.525 F1200.000 
G1 X895.850 Y96.338 Z-10.525 F1200.000 
G1 X895.850 Y87.853 Z-10.525 F1200.000 
G1 X882.800 Y74.803 Z-10.525 F1200.000 
G1 X882.800 Y66.318 Z-10.525 F1200.000 
G1 X895.850 Y79.368 Z-10.525 F1200.000 
G1 X895.850 Y70.882 Z-10.525 F1200.000 
G1 X882.800 Y57.832 Z-10.525 F1200.000 
G1 X882.800 Y49.347 Z-10.525 F1200.000 
G1 X895.850 Y62.397 Z-10.525 F1200.000 
G1 X895.850 Y53.912 Z-10.525 F1200.000 
G1 X882.800 Y40.862 Z-10.525 F1200.000 
G1 X882.800 Y32.376 Z-10.525 F1200.000 
G1 X895.850 Y45.426 Z-10.525 F1200.000 
G1 X895.850 Y36.941 Z-10.525 F1200.000 
G1 X882.800 Y23.891 Z-10.525 F1200.000 
G1 X882.800 Y15.406 Z-10.525 F1200.000 
G1 X895.850 Y28.456 Z-10.525 F1200.000 
G1 X895.850 Y19.971 Z-10.525 F1200.000 
G1 X882.800 Y6.921 Z-10.525 F1200.000 
G1 X882.800 Y3.000 Z-10.525 F1200.000 
G1 X887.365 Y3.000 Z-10.525 F1200.000 
G1 X895.850 Y11.485 Z-10.525 F1200.000 
G1 X895.850 Y3.000 Z-10.525 F1200.000 
G0 Z6.000 
G0 Z6.000 
(finish operation: Pocket_Shape)
(begin operation: Pocket_Shape001)
(machine units: mm/min)
(Pocket_Shape001) 
G0 Z6.000 
G0 X57.427 Y297.000 
G0 Z4.000 
G1 X57.427 Y297.000 Z-5.000 F1200.000 
G1 X57.427 Y3.000 Z-5.000 F1200.000 
G0 Z6.000 
G0 X51.427 Z6.000 
G0 X51.427 Z4.000 
G1 X51.427 Y3.000 Z-5.000 F1200.000 
G1 X51.427 Y297.000 Z-5.000 F1200.000 
G0 Z6.000 
G0 X45.427 Z6.000 
G0 X45.427 Z4.000 
G1 X45.427 Y297.000 Z-5.000 F1200.000 
G1 X45.427 Y3.000 Z-5.000 F1200.000 
G1 X45.427 Y3.000 Z-10.525 F1200.000 
G1 X45.427 Y297.000 Z-10.525 F1200.000 
G0 Z6.000 
G0 X51.427 Z6.000 
G0 X51.427 Z4.000 
G1 X51.427 Y297.000 Z-10.525 F1200.000 
G1 X51.427 Y3.000 Z-10.525 F1200.000 
G0 Z6.000 
G0 X57.427 Z6.000 
G0 X57.427 Z4.000 
G1 X57.427 Y3.000 Z-10.525 F1200.000 
G1 X57.427 Y297.000 Z-10.525 F1200.000 
G0 Z6.000 
G0 Z6.000 
G0 X57.427 Y297.000 
G0 X324.827 
G0 X324.827 Z4.000 
G1 X324.827 Y297.000 Z-5.000 F1200.000 
G1 X324.827 Y3.000 Z-5.000 F1200.000 
G0 Z6.000 
G0 X330.827 Z6.000 
G0 X330.827 Z4.000 
G1 X330.827 Y3.000 Z-5.000 F1200.000 
G1 X330.827 Y297.000 Z-5.000 F1200.000 
G0 Z6.000 
G0 X336.827 Z6.000 
G0 X336.827 Z4.000 
G1 X336.827 Y297.000 Z-5.000 F1200.000 
G1 X336.827 Y3.000 Z-5.000 F1200.000 
G1 X336.827 Y3.000 Z-10.525 F1200.000 
G1 X336.827 Y297.000 Z-10.525 F1200.000 
G0 Z6.000 
G0 X330.827 Z6.000 
G0 X330.827 Z4.000 
G1 X330.827 Y297.000 Z-10.525 F1200.000 
G1 X330.827 Y3.000 Z-10.525 F1200.000 
G0 Z6.000 
G0 X324.827 Z6.000 
G0 X324.827 Z4.000 
G1 X324.827 Y3.000 Z-10.525 F1200.000 
G1 X324.827 Y297.000 Z-10.525 F1200.000 
G0 Z6.000 
G0 Z6.000 
G0 X324.827 Y297.000 
G0 X604.227 
G0 X604.227 Z4.000 
G1 X604.227 Y297.000 Z-5.000 F1200.000 
G1 X604.227 Y3.000 Z-5.000 F1200.000 
G0 Z6.000 
G0 X610.227 Z6.000 
G0 X610.227 Z4.000 
G1 X610.227 Y3.000 Z-5.000 F1200.000 
G1 X610.227 Y297.000 Z-5.000 F1200.000 
G0 Z6.000 
G0 X616.227 Z6.000 
G0 X616.227 Z4.000 
G1 X616.227 Y297.000 Z-5.000 F1200.000 
G1 X616.227 Y3.000 Z-5.000 F1200.000 
G1 X616.227 Y3.000 Z-10.525 F1200.000 
G1 X616.227 Y297.000 Z-10.525 F1200.000 
G0 Z6.000 
G0 X610.227 Z6.000 
G0 X610.227 Z4.000 
G1 X610.227 Y297.000 Z-10.525 F1200.000 
G1 X610.227 Y3.000 Z-10.525 F1200.000 
G0 Z6.000 
G0 X604.227 Z6.000 
G0 X604.227 Z4.000 
G1 X604.227 Y3.000 Z-10.525 F1200.000 
G1 X604.227 Y297.000 Z-10.525 F1200.000 
G0 Z6.000 
G0 Z6.000 
G0 X604.227 Y297.000 
G0 X883.627 
G0 X883.627 Z4.000 
G1 X883.627 Y297.000 Z-5.000 F1200.000 
G1 X883.627 Y3.000 Z-5.000 F1200.000 
G0 Z6.000 
G0 X889.627 Z6.000 
G0 X889.627 Z4.000 
G1 X889.627 Y3.000 Z-5.000 F1200.000 
G1 X889.627 Y297.000 Z-5.000 F1200.000 
G0 Z6.000 
G0 X895.627 Z6.000 
G0 X895.627 Z4.000 
G1 X895.627 Y297.000 Z-5.000 F1200.000 
G1 X895.627 Y3.000 Z-5.000 F1200.000 
G1 X895.627 Y3.000 Z-10.525 F1200.000 
G1 X895.627 Y297.000 Z-10.525 F1200.000 
G0 Z6.000 
G0 X889.627 Z6.000 
G0 X889.627 Z4.000 
G1 X889.627 Y297.000 Z-10.525 F1200.000 
G1 X889.627 Y3.000 Z-10.525 F1200.000 
G0 Z6.000 
G0 X883.627 Z6.000 
G0 X883.627 Z4.000 
G1 X883.627 Y3.000 Z-10.525 F1200.000 
G1 X883.627 Y297.000 Z-10.525 F1200.000 
G0 Z6.000 
G0 Z6.000 
(finish operation: Pocket_Shape001)
(begin postamble)
M05
G17 G54 G90 G80 G40
M2
