(Exported by FreeCAD)
(Post Processor: linuxcnc_post)
(Output Time:2024-05-05 22:57:58.097159)
(begin preamble)
G17 G54 G40 G49 G80 G90
G21
(begin operation: Fixture)
(machine units: mm/min)
G54 
(finish operation: Fixture)
(begin operation: TC: 6mm_Endmill)
(machine units: mm/min)
(TC: 6mm_Endmill) 
M5
M6 T1 
G43 H1 
(finish operation: TC: 6mm_Endmill)
(begin operation: Profile)
(machine units: mm/min)
(Profile) 
(Compensated Tool Path. Diameter: 6.0) 
G0 Z6.000 
G0 X895.850 Y297.000 
G0 Z4.000 
G1 X895.850 Y297.000 Z-5.000 F1200.000 
G1 X895.850 Y3.000 Z-5.000 F1200.000 
G1 X882.800 Y3.000 Z-5.000 F1200.000 
G1 X882.800 Y297.000 Z-5.000 F1200.000 
G1 X895.850 Y297.000 Z-5.000 F1200.000 
G0 Z6.000 
G0 X616.450 Z6.000 
G0 X616.450 Z4.000 
G1 X616.450 Y297.000 Z-5.000 F1200.000 
G1 X616.450 Y3.000 Z-5.000 F1200.000 
G1 X603.400 Y3.000 Z-5.000 F1200.000 
G1 X603.400 Y297.000 Z-5.000 F1200.000 
G1 X616.450 Y297.000 Z-5.000 F1200.000 
G0 Z6.000 
G0 X337.050 Z6.000 
G0 X337.050 Z4.000 
G1 X337.050 Y297.000 Z-5.000 F1200.000 
G1 X337.050 Y3.000 Z-5.000 F1200.000 
G1 X324.000 Y3.000 Z-5.000 F1200.000 
G1 X324.000 Y297.000 Z-5.000 F1200.000 
G1 X337.050 Y297.000 Z-5.000 F1200.000 
G0 Z6.000 
G0 X57.650 Z6.000 
G0 X57.650 Z4.000 
G1 X57.650 Y297.000 Z-5.000 F1200.000 
G1 X57.650 Y3.000 Z-5.000 F1200.000 
G1 X44.600 Y3.000 Z-5.000 F1200.000 
G1 X44.600 Y297.000 Z-5.000 F1200.000 
G1 X57.650 Y297.000 Z-5.000 F1200.000 
G1 X57.650 Y297.000 Z-10.525 F1200.000 
G1 X57.650 Y3.000 Z-10.525 F1200.000 
G1 X44.600 Y3.000 Z-10.525 F1200.000 
G1 X44.600 Y297.000 Z-10.525 F1200.000 
G1 X57.650 Y297.000 Z-10.525 F1200.000 
G0 Z6.000 
G0 X324.000 Z6.000 
G0 X324.000 Z4.000 
G1 X324.000 Y297.000 Z-10.525 F1200.000 
G1 X337.050 Y297.000 Z-10.525 F1200.000 
G1 X337.050 Y3.000 Z-10.525 F1200.000 
G1 X324.000 Y3.000 Z-10.525 F1200.000 
G1 X324.000 Y297.000 Z-10.525 F1200.000 
G0 Z6.000 
G0 X603.400 Z6.000 
G0 X603.400 Z4.000 
G1 X603.400 Y297.000 Z-10.525 F1200.000 
G1 X616.450 Y297.000 Z-10.525 F1200.000 
G1 X616.450 Y3.000 Z-10.525 F1200.000 
G1 X603.400 Y3.000 Z-10.525 F1200.000 
G1 X603.400 Y297.000 Z-10.525 F1200.000 
G0 Z6.000 
G0 X882.800 Z6.000 
G0 X882.800 Z4.000 
G1 X882.800 Y297.000 Z-10.525 F1200.000 
G1 X895.850 Y297.000 Z-10.525 F1200.000 
G1 X895.850 Y3.000 Z-10.525 F1200.000 
G1 X882.800 Y3.000 Z-10.525 F1200.000 
G1 X882.800 Y297.000 Z-10.525 F1200.000 
G0 Z6.000 
G0 Z6.000 
(finish operation: Profile)
(begin postamble)
M05
G17 G54 G90 G80 G40
M2
