(Exported by FreeCAD)
(Post Processor: linuxcnc_post)
(Output Time:2024-05-06 22:12:20.440792)
(begin preamble)
G17 G54 G40 G49 G80 G90
G21
(begin operation: Fixture)
(machine units: mm/min)
G54 
(finish operation: Fixture)
(begin operation: TC: 12mm_Endmill001)
(machine units: mm/min)
(TC: 12mm_Endmill001) 
M5
M6 T1 
G43 H1 
(finish operation: TC: 12mm_Endmill001)
(begin operation: MillFace001)
(machine units: mm/min)
(MillFace001) 
G0 Z6.000 
G0 X0.000 Y0.000 
G0 X6.723 Y895.000 
G0 X6.723 Y895.000 Z4.000 
G1 X6.723 Y895.000 Z0.000 F500.000 
G1 X5.000 Y895.000 Z0.000 F1000.000 
G1 X5.000 Y893.277 Z0.000 F1000.000 
G1 X6.723 Y895.000 Z0.000 F1000.000 
G1 X15.209 Y895.000 Z0.000 F1000.000 
G1 X5.000 Y884.791 Z0.000 F1000.000 
G1 X5.000 Y876.306 Z0.000 F1000.000 
G1 X23.694 Y895.000 Z0.000 F1000.000 
G1 X32.179 Y895.000 Z0.000 F1000.000 
G1 X5.000 Y867.821 Z0.000 F1000.000 
G1 X5.000 Y859.335 Z0.000 F1000.000 
G1 X40.665 Y895.000 Z0.000 F1000.000 
G1 X49.150 Y895.000 Z0.000 F1000.000 
G1 X5.000 Y850.850 Z0.000 F1000.000 
G1 X5.000 Y842.365 Z0.000 F1000.000 
G1 X57.635 Y895.000 Z0.000 F1000.000 
G1 X66.120 Y895.000 Z0.000 F1000.000 
G1 X5.000 Y833.880 Z0.000 F1000.000 
G1 X5.000 Y825.394 Z0.000 F1000.000 
G1 X74.606 Y895.000 Z0.000 F1000.000 
G1 X83.091 Y895.000 Z0.000 F1000.000 
G1 X5.000 Y816.909 Z0.000 F1000.000 
G1 X5.000 Y808.424 Z0.000 F1000.000 
G1 X91.576 Y895.000 Z0.000 F1000.000 
G1 X100.061 Y895.000 Z0.000 F1000.000 
G1 X5.000 Y799.939 Z0.000 F1000.000 
G1 X5.000 Y791.453 Z0.000 F1000.000 
G1 X108.547 Y895.000 Z0.000 F1000.000 
G1 X117.032 Y895.000 Z0.000 F1000.000 
G1 X5.000 Y782.968 Z0.000 F1000.000 
G1 X5.000 Y774.483 Z0.000 F1000.000 
G1 X125.517 Y895.000 Z0.000 F1000.000 
G1 X134.003 Y895.000 Z0.000 F1000.000 
G1 X5.000 Y765.997 Z0.000 F1000.000 
G1 X5.000 Y757.512 Z0.000 F1000.000 
G1 X142.488 Y895.000 Z0.000 F1000.000 
G1 X150.973 Y895.000 Z0.000 F1000.000 
G1 X5.000 Y749.027 Z0.000 F1000.000 
G1 X5.000 Y740.542 Z0.000 F1000.000 
G1 X159.458 Y895.000 Z0.000 F1000.000 
G1 X167.944 Y895.000 Z0.000 F1000.000 
G1 X5.000 Y732.056 Z0.000 F1000.000 
G1 X5.000 Y723.571 Z0.000 F1000.000 
G1 X176.429 Y895.000 Z0.000 F1000.000 
G1 X184.914 Y895.000 Z0.000 F1000.000 
G1 X5.000 Y715.086 Z0.000 F1000.000 
G1 X5.000 Y706.600 Z0.000 F1000.000 
G1 X193.400 Y895.000 Z0.000 F1000.000 
G1 X201.885 Y895.000 Z0.000 F1000.000 
G1 X5.000 Y698.115 Z0.000 F1000.000 
G1 X5.000 Y689.630 Z0.000 F1000.000 
G1 X210.370 Y895.000 Z0.000 F1000.000 
G1 X218.855 Y895.000 Z0.000 F1000.000 
G1 X5.000 Y681.145 Z0.000 F1000.000 
G1 X5.000 Y672.659 Z0.000 F1000.000 
G1 X227.341 Y895.000 Z0.000 F1000.000 
G1 X235.826 Y895.000 Z0.000 F1000.000 
G1 X5.000 Y664.174 Z0.000 F1000.000 
G1 X5.000 Y655.689 Z0.000 F1000.000 
G1 X244.311 Y895.000 Z0.000 F1000.000 
G1 X252.797 Y895.000 Z0.000 F1000.000 
G1 X5.000 Y647.203 Z0.000 F1000.000 
G1 X5.000 Y638.718 Z0.000 F1000.000 
G1 X261.282 Y895.000 Z0.000 F1000.000 
G1 X269.767 Y895.000 Z0.000 F1000.000 
G1 X5.000 Y630.233 Z0.000 F1000.000 
G1 X5.000 Y621.748 Z0.000 F1000.000 
G1 X278.252 Y895.000 Z0.000 F1000.000 
G1 X286.738 Y895.000 Z0.000 F1000.000 
G1 X5.000 Y613.262 Z0.000 F1000.000 
G1 X5.000 Y604.777 Z0.000 F1000.000 
G1 X295.223 Y895.000 Z0.000 F1000.000 
G1 X303.708 Y895.000 Z0.000 F1000.000 
G1 X5.000 Y596.292 Z0.000 F1000.000 
G1 X5.000 Y587.806 Z0.000 F1000.000 
G1 X312.194 Y895.000 Z0.000 F1000.000 
G1 X320.679 Y895.000 Z0.000 F1000.000 
G1 X5.000 Y579.321 Z0.000 F1000.000 
G1 X5.000 Y570.836 Z0.000 F1000.000 
G1 X329.164 Y895.000 Z0.000 F1000.000 
G1 X337.649 Y895.000 Z0.000 F1000.000 
G1 X5.000 Y562.351 Z0.000 F1000.000 
G1 X5.000 Y553.865 Z0.000 F1000.000 
G1 X346.135 Y895.000 Z0.000 F1000.000 
G1 X354.620 Y895.000 Z0.000 F1000.000 
G1 X5.000 Y545.380 Z0.000 F1000.000 
G1 X5.000 Y536.895 Z0.000 F1000.000 
G1 X363.105 Y895.000 Z0.000 F1000.000 
G1 X371.590 Y895.000 Z0.000 F1000.000 
G1 X5.000 Y528.410 Z0.000 F1000.000 
G1 X5.000 Y519.924 Z0.000 F1000.000 
G1 X380.076 Y895.000 Z0.000 F1000.000 
G1 X388.561 Y895.000 Z0.000 F1000.000 
G1 X5.000 Y511.439 Z0.000 F1000.000 
G1 X5.000 Y502.954 Z0.000 F1000.000 
G1 X397.046 Y895.000 Z0.000 F1000.000 
G1 X405.532 Y895.000 Z0.000 F1000.000 
G1 X5.000 Y494.468 Z0.000 F1000.000 
G1 X5.000 Y485.983 Z0.000 F1000.000 
G1 X414.017 Y895.000 Z0.000 F1000.000 
G1 X422.502 Y895.000 Z0.000 F1000.000 
G1 X5.000 Y477.498 Z0.000 F1000.000 
G1 X5.000 Y469.013 Z0.000 F1000.000 
G1 X430.987 Y895.000 Z0.000 F1000.000 
G1 X439.473 Y895.000 Z0.000 F1000.000 
G1 X5.000 Y460.527 Z0.000 F1000.000 
G1 X5.000 Y452.042 Z0.000 F1000.000 
G1 X447.958 Y895.000 Z0.000 F1000.000 
G1 X456.443 Y895.000 Z0.000 F1000.000 
G1 X5.000 Y443.557 Z0.000 F1000.000 
G1 X5.000 Y435.071 Z0.000 F1000.000 
G1 X464.929 Y895.000 Z0.000 F1000.000 
G1 X473.414 Y895.000 Z0.000 F1000.000 
G1 X5.000 Y426.586 Z0.000 F1000.000 
G1 X5.000 Y418.101 Z0.000 F1000.000 
G1 X481.899 Y895.000 Z0.000 F1000.000 
G1 X490.384 Y895.000 Z0.000 F1000.000 
G1 X5.000 Y409.616 Z0.000 F1000.000 
G1 X5.000 Y401.130 Z0.000 F1000.000 
G1 X498.870 Y895.000 Z0.000 F1000.000 
G1 X507.355 Y895.000 Z0.000 F1000.000 
G1 X5.000 Y392.645 Z0.000 F1000.000 
G1 X5.000 Y384.160 Z0.000 F1000.000 
G1 X515.840 Y895.000 Z0.000 F1000.000 
G1 X524.326 Y895.000 Z0.000 F1000.000 
G1 X5.000 Y375.674 Z0.000 F1000.000 
G1 X5.000 Y367.189 Z0.000 F1000.000 
G1 X532.811 Y895.000 Z0.000 F1000.000 
G1 X541.296 Y895.000 Z0.000 F1000.000 
G1 X5.000 Y358.704 Z0.000 F1000.000 
G1 X5.000 Y350.219 Z0.000 F1000.000 
G1 X549.781 Y895.000 Z0.000 F1000.000 
G1 X558.267 Y895.000 Z0.000 F1000.000 
G1 X5.000 Y341.733 Z0.000 F1000.000 
G1 X5.000 Y333.248 Z0.000 F1000.000 
G1 X566.752 Y895.000 Z0.000 F1000.000 
G1 X575.237 Y895.000 Z0.000 F1000.000 
G1 X5.000 Y324.763 Z0.000 F1000.000 
G1 X5.000 Y316.277 Z0.000 F1000.000 
G1 X583.723 Y895.000 Z0.000 F1000.000 
G1 X592.208 Y895.000 Z0.000 F1000.000 
G1 X5.000 Y307.792 Z0.000 F1000.000 
G1 X5.000 Y299.307 Z0.000 F1000.000 
G1 X600.693 Y895.000 Z0.000 F1000.000 
G1 X609.178 Y895.000 Z0.000 F1000.000 
G1 X5.000 Y290.822 Z0.000 F1000.000 
G1 X5.000 Y282.336 Z0.000 F1000.000 
G1 X617.664 Y895.000 Z0.000 F1000.000 
G1 X626.149 Y895.000 Z0.000 F1000.000 
G1 X5.000 Y273.851 Z0.000 F1000.000 
G1 X5.000 Y265.366 Z0.000 F1000.000 
G1 X634.634 Y895.000 Z0.000 F1000.000 
G1 X643.119 Y895.000 Z0.000 F1000.000 
G1 X5.000 Y256.881 Z0.000 F1000.000 
G1 X5.000 Y248.395 Z0.000 F1000.000 
G1 X651.605 Y895.000 Z0.000 F1000.000 
G1 X660.090 Y895.000 Z0.000 F1000.000 
G1 X5.000 Y239.910 Z0.000 F1000.000 
G1 X5.000 Y231.425 Z0.000 F1000.000 
G1 X668.575 Y895.000 Z0.000 F1000.000 
G1 X677.061 Y895.000 Z0.000 F1000.000 
G1 X5.000 Y222.939 Z0.000 F1000.000 
G1 X5.000 Y214.454 Z0.000 F1000.000 
G1 X685.546 Y895.000 Z0.000 F1000.000 
G1 X694.031 Y895.000 Z0.000 F1000.000 
G1 X5.000 Y205.969 Z0.000 F1000.000 
G1 X5.000 Y197.484 Z0.000 F1000.000 
G1 X702.516 Y895.000 Z0.000 F1000.000 
G1 X711.002 Y895.000 Z0.000 F1000.000 
G1 X5.000 Y188.998 Z0.000 F1000.000 
G1 X5.000 Y180.513 Z0.000 F1000.000 
G1 X719.487 Y895.000 Z0.000 F1000.000 
G1 X727.972 Y895.000 Z0.000 F1000.000 
G1 X5.000 Y172.028 Z0.000 F1000.000 
G1 X5.000 Y163.542 Z0.000 F1000.000 
G1 X736.458 Y895.000 Z0.000 F1000.000 
G1 X744.943 Y895.000 Z0.000 F1000.000 
G1 X5.000 Y155.057 Z0.000 F1000.000 
G1 X5.000 Y146.572 Z0.000 F1000.000 
G1 X753.428 Y895.000 Z0.000 F1000.000 
G1 X761.913 Y895.000 Z0.000 F1000.000 
G1 X5.000 Y138.087 Z0.000 F1000.000 
G1 X5.000 Y129.601 Z0.000 F1000.000 
G1 X770.399 Y895.000 Z0.000 F1000.000 
G1 X778.884 Y895.000 Z0.000 F1000.000 
G1 X5.000 Y121.116 Z0.000 F1000.000 
G1 X5.000 Y112.631 Z0.000 F1000.000 
G1 X787.369 Y895.000 Z0.000 F1000.000 
G1 X795.855 Y895.000 Z0.000 F1000.000 
G1 X5.000 Y104.145 Z0.000 F1000.000 
G1 X5.000 Y95.660 Z0.000 F1000.000 
G1 X804.340 Y895.000 Z0.000 F1000.000 
G1 X812.825 Y895.000 Z0.000 F1000.000 
G1 X5.000 Y87.175 Z0.000 F1000.000 
G1 X5.000 Y78.690 Z0.000 F1000.000 
G1 X821.310 Y895.000 Z0.000 F1000.000 
G1 X829.796 Y895.000 Z0.000 F1000.000 
G1 X5.000 Y70.204 Z0.000 F1000.000 
G1 X5.000 Y61.719 Z0.000 F1000.000 
G1 X838.281 Y895.000 Z0.000 F1000.000 
G1 X846.766 Y895.000 Z0.000 F1000.000 
G1 X5.000 Y53.234 Z0.000 F1000.000 
G1 X5.000 Y44.748 Z0.000 F1000.000 
G1 X855.252 Y895.000 Z0.000 F1000.000 
G1 X863.737 Y895.000 Z0.000 F1000.000 
G1 X5.000 Y36.263 Z0.000 F1000.000 
G1 X5.000 Y27.778 Z0.000 F1000.000 
G1 X872.222 Y895.000 Z0.000 F1000.000 
G1 X880.707 Y895.000 Z0.000 F1000.000 
G1 X5.000 Y19.293 Z0.000 F1000.000 
G1 X5.000 Y10.807 Z0.000 F1000.000 
G1 X889.193 Y895.000 Z0.000 F1000.000 
G1 X897.678 Y895.000 Z0.000 F1000.000 
G1 X7.678 Y5.000 Z0.000 F1000.000 
G1 X16.163 Y5.000 Z0.000 F1000.000 
G1 X906.163 Y895.000 Z0.000 F1000.000 
G1 X914.648 Y895.000 Z0.000 F1000.000 
G1 X24.648 Y5.000 Z0.000 F1000.000 
G1 X33.134 Y5.000 Z0.000 F1000.000 
G1 X923.134 Y895.000 Z0.000 F1000.000 
G1 X931.619 Y895.000 Z0.000 F1000.000 
G1 X41.619 Y5.000 Z0.000 F1000.000 
G1 X50.104 Y5.000 Z0.000 F1000.000 
G1 X940.104 Y895.000 Z0.000 F1000.000 
G1 X948.590 Y895.000 Z0.000 F1000.000 
G1 X58.590 Y5.000 Z0.000 F1000.000 
G1 X67.075 Y5.000 Z0.000 F1000.000 
G1 X957.075 Y895.000 Z0.000 F1000.000 
G1 X965.560 Y895.000 Z0.000 F1000.000 
G1 X75.560 Y5.000 Z0.000 F1000.000 
G1 X84.045 Y5.000 Z0.000 F1000.000 
G1 X974.045 Y895.000 Z0.000 F1000.000 
G1 X975.000 Y895.000 Z0.000 F1000.000 
G1 X975.000 Y887.469 Z0.000 F1000.000 
G1 X92.531 Y5.000 Z0.000 F1000.000 
G1 X101.016 Y5.000 Z0.000 F1000.000 
G1 X975.000 Y878.984 Z0.000 F1000.000 
G1 X975.000 Y870.499 Z0.000 F1000.000 
G1 X109.501 Y5.000 Z0.000 F1000.000 
G1 X117.987 Y5.000 Z0.000 F1000.000 
G1 X975.000 Y862.013 Z0.000 F1000.000 
G1 X975.000 Y853.528 Z0.000 F1000.000 
G1 X126.472 Y5.000 Z0.000 F1000.000 
G1 X134.957 Y5.000 Z0.000 F1000.000 
G1 X975.000 Y845.043 Z0.000 F1000.000 
G1 X975.000 Y836.558 Z0.000 F1000.000 
G1 X143.442 Y5.000 Z0.000 F1000.000 
G1 X151.928 Y5.000 Z0.000 F1000.000 
G1 X975.000 Y828.072 Z0.000 F1000.000 
G1 X975.000 Y819.587 Z0.000 F1000.000 
G1 X160.413 Y5.000 Z0.000 F1000.000 
G1 X168.898 Y5.000 Z0.000 F1000.000 
G1 X975.000 Y811.102 Z0.000 F1000.000 
G1 X975.000 Y802.616 Z0.000 F1000.000 
G1 X177.384 Y5.000 Z0.000 F1000.000 
G1 X185.869 Y5.000 Z0.000 F1000.000 
G1 X975.000 Y794.131 Z0.000 F1000.000 
G1 X975.000 Y785.646 Z0.000 F1000.000 
G1 X194.354 Y5.000 Z0.000 F1000.000 
G1 X202.839 Y5.000 Z0.000 F1000.000 
G1 X975.000 Y777.161 Z0.000 F1000.000 
G1 X975.000 Y768.675 Z0.000 F1000.000 
G1 X211.325 Y5.000 Z0.000 F1000.000 
G1 X219.810 Y5.000 Z0.000 F1000.000 
G1 X975.000 Y760.190 Z0.000 F1000.000 
G1 X975.000 Y751.705 Z0.000 F1000.000 
G1 X228.295 Y5.000 Z0.000 F1000.000 
G1 X236.781 Y5.000 Z0.000 F1000.000 
G1 X975.000 Y743.219 Z0.000 F1000.000 
G1 X975.000 Y734.734 Z0.000 F1000.000 
G1 X245.266 Y5.000 Z0.000 F1000.000 
G1 X253.751 Y5.000 Z0.000 F1000.000 
G1 X975.000 Y726.249 Z0.000 F1000.000 
G1 X975.000 Y717.764 Z0.000 F1000.000 
G1 X262.236 Y5.000 Z0.000 F1000.000 
G1 X270.722 Y5.000 Z0.000 F1000.000 
G1 X975.000 Y709.278 Z0.000 F1000.000 
G1 X975.000 Y700.793 Z0.000 F1000.000 
G1 X279.207 Y5.000 Z0.000 F1000.000 
G1 X287.692 Y5.000 Z0.000 F1000.000 
G1 X975.000 Y692.308 Z0.000 F1000.000 
G1 X975.000 Y683.823 Z0.000 F1000.000 
G1 X296.177 Y5.000 Z0.000 F1000.000 
G1 X304.663 Y5.000 Z0.000 F1000.000 
G1 X975.000 Y675.337 Z0.000 F1000.000 
G1 X975.000 Y666.852 Z0.000 F1000.000 
G1 X313.148 Y5.000 Z0.000 F1000.000 
G1 X321.633 Y5.000 Z0.000 F1000.000 
G1 X975.000 Y658.367 Z0.000 F1000.000 
G1 X975.000 Y649.881 Z0.000 F1000.000 
G1 X330.119 Y5.000 Z0.000 F1000.000 
G1 X338.604 Y5.000 Z0.000 F1000.000 
G1 X975.000 Y641.396 Z0.000 F1000.000 
G1 X975.000 Y632.911 Z0.000 F1000.000 
G1 X347.089 Y5.000 Z0.000 F1000.000 
G1 X355.574 Y5.000 Z0.000 F1000.000 
G1 X975.000 Y624.426 Z0.000 F1000.000 
G1 X975.000 Y615.940 Z0.000 F1000.000 
G1 X364.060 Y5.000 Z0.000 F1000.000 
G1 X372.545 Y5.000 Z0.000 F1000.000 
G1 X975.000 Y607.455 Z0.000 F1000.000 
G1 X975.000 Y598.970 Z0.000 F1000.000 
G1 X381.030 Y5.000 Z0.000 F1000.000 
G1 X389.516 Y5.000 Z0.000 F1000.000 
G1 X975.000 Y590.484 Z0.000 F1000.000 
G1 X975.000 Y581.999 Z0.000 F1000.000 
G1 X398.001 Y5.000 Z0.000 F1000.000 
G1 X406.486 Y5.000 Z0.000 F1000.000 
G1 X975.000 Y573.514 Z0.000 F1000.000 
G1 X975.000 Y565.029 Z0.000 F1000.000 
G1 X414.971 Y5.000 Z0.000 F1000.000 
G1 X423.457 Y5.000 Z0.000 F1000.000 
G1 X975.000 Y556.543 Z0.000 F1000.000 
G1 X975.000 Y548.058 Z0.000 F1000.000 
G1 X431.942 Y5.000 Z0.000 F1000.000 
G1 X440.427 Y5.000 Z0.000 F1000.000 
G1 X975.000 Y539.573 Z0.000 F1000.000 
G1 X975.000 Y531.087 Z0.000 F1000.000 
G1 X448.913 Y5.000 Z0.000 F1000.000 
G1 X457.398 Y5.000 Z0.000 F1000.000 
G1 X975.000 Y522.602 Z0.000 F1000.000 
G1 X975.000 Y514.117 Z0.000 F1000.000 
G1 X465.883 Y5.000 Z0.000 F1000.000 
G1 X474.368 Y5.000 Z0.000 F1000.000 
G1 X975.000 Y505.632 Z0.000 F1000.000 
G1 X975.000 Y497.146 Z0.000 F1000.000 
G1 X482.854 Y5.000 Z0.000 F1000.000 
G1 X491.339 Y5.000 Z0.000 F1000.000 
G1 X975.000 Y488.661 Z0.000 F1000.000 
G1 X975.000 Y480.176 Z0.000 F1000.000 
G1 X499.824 Y5.000 Z0.000 F1000.000 
G1 X508.310 Y5.000 Z0.000 F1000.000 
G1 X975.000 Y471.690 Z0.000 F1000.000 
G1 X975.000 Y463.205 Z0.000 F1000.000 
G1 X516.795 Y5.000 Z0.000 F1000.000 
G1 X525.280 Y5.000 Z0.000 F1000.000 
G1 X975.000 Y454.720 Z0.000 F1000.000 
G1 X975.000 Y446.235 Z0.000 F1000.000 
G1 X533.765 Y5.000 Z0.000 F1000.000 
G1 X542.251 Y5.000 Z0.000 F1000.000 
G1 X975.000 Y437.749 Z0.000 F1000.000 
G1 X975.000 Y429.264 Z0.000 F1000.000 
G1 X550.736 Y5.000 Z0.000 F1000.000 
G1 X559.221 Y5.000 Z0.000 F1000.000 
G1 X975.000 Y420.779 Z0.000 F1000.000 
G1 X975.000 Y412.294 Z0.000 F1000.000 
G1 X567.706 Y5.000 Z0.000 F1000.000 
G1 X576.192 Y5.000 Z0.000 F1000.000 
G1 X975.000 Y403.808 Z0.000 F1000.000 
G1 X975.000 Y395.323 Z0.000 F1000.000 
G1 X584.677 Y5.000 Z0.000 F1000.000 
G1 X593.162 Y5.000 Z0.000 F1000.000 
G1 X975.000 Y386.838 Z0.000 F1000.000 
G1 X975.000 Y378.352 Z0.000 F1000.000 
G1 X601.648 Y5.000 Z0.000 F1000.000 
G1 X610.133 Y5.000 Z0.000 F1000.000 
G1 X975.000 Y369.867 Z0.000 F1000.000 
G1 X975.000 Y361.382 Z0.000 F1000.000 
G1 X618.618 Y5.000 Z0.000 F1000.000 
G1 X627.103 Y5.000 Z0.000 F1000.000 
G1 X975.000 Y352.897 Z0.000 F1000.000 
G1 X975.000 Y344.411 Z0.000 F1000.000 
G1 X635.589 Y5.000 Z0.000 F1000.000 
G1 X644.074 Y5.000 Z0.000 F1000.000 
G1 X975.000 Y335.926 Z0.000 F1000.000 
G1 X975.000 Y327.441 Z0.000 F1000.000 
G1 X652.559 Y5.000 Z0.000 F1000.000 
G1 X661.045 Y5.000 Z0.000 F1000.000 
G1 X975.000 Y318.955 Z0.000 F1000.000 
G1 X975.000 Y310.470 Z0.000 F1000.000 
G1 X669.530 Y5.000 Z0.000 F1000.000 
G1 X678.015 Y5.000 Z0.000 F1000.000 
G1 X975.000 Y301.985 Z0.000 F1000.000 
G1 X975.000 Y293.500 Z0.000 F1000.000 
G1 X686.500 Y5.000 Z0.000 F1000.000 
G1 X694.986 Y5.000 Z0.000 F1000.000 
G1 X975.000 Y285.014 Z0.000 F1000.000 
G1 X975.000 Y276.529 Z0.000 F1000.000 
G1 X703.471 Y5.000 Z0.000 F1000.000 
G1 X711.956 Y5.000 Z0.000 F1000.000 
G1 X975.000 Y268.044 Z0.000 F1000.000 
G1 X975.000 Y259.558 Z0.000 F1000.000 
G1 X720.442 Y5.000 Z0.000 F1000.000 
G1 X728.927 Y5.000 Z0.000 F1000.000 
G1 X975.000 Y251.073 Z0.000 F1000.000 
G1 X975.000 Y242.588 Z0.000 F1000.000 
G1 X737.412 Y5.000 Z0.000 F1000.000 
G1 X745.897 Y5.000 Z0.000 F1000.000 
G1 X975.000 Y234.103 Z0.000 F1000.000 
G1 X975.000 Y225.617 Z0.000 F1000.000 
G1 X754.383 Y5.000 Z0.000 F1000.000 
G1 X762.868 Y5.000 Z0.000 F1000.000 
G1 X975.000 Y217.132 Z0.000 F1000.000 
G1 X975.000 Y208.647 Z0.000 F1000.000 
G1 X771.353 Y5.000 Z0.000 F1000.000 
G1 X779.839 Y5.000 Z0.000 F1000.000 
G1 X975.000 Y200.161 Z0.000 F1000.000 
G1 X975.000 Y191.676 Z0.000 F1000.000 
G1 X788.324 Y5.000 Z0.000 F1000.000 
G1 X796.809 Y5.000 Z0.000 F1000.000 
G1 X975.000 Y183.191 Z0.000 F1000.000 
G1 X975.000 Y174.706 Z0.000 F1000.000 
G1 X805.294 Y5.000 Z0.000 F1000.000 
G1 X813.780 Y5.000 Z0.000 F1000.000 
G1 X975.000 Y166.220 Z0.000 F1000.000 
G1 X975.000 Y157.735 Z0.000 F1000.000 
G1 X822.265 Y5.000 Z0.000 F1000.000 
G1 X830.750 Y5.000 Z0.000 F1000.000 
G1 X975.000 Y149.250 Z0.000 F1000.000 
G1 X975.000 Y140.765 Z0.000 F1000.000 
G1 X839.235 Y5.000 Z0.000 F1000.000 
G1 X847.721 Y5.000 Z0.000 F1000.000 
G1 X975.000 Y132.279 Z0.000 F1000.000 
G1 X975.000 Y123.794 Z0.000 F1000.000 
G1 X856.206 Y5.000 Z0.000 F1000.000 
G1 X864.691 Y5.000 Z0.000 F1000.000 
G1 X975.000 Y115.309 Z0.000 F1000.000 
G1 X975.000 Y106.823 Z0.000 F1000.000 
G1 X873.177 Y5.000 Z0.000 F1000.000 
G1 X881.662 Y5.000 Z0.000 F1000.000 
G1 X975.000 Y98.338 Z0.000 F1000.000 
G1 X975.000 Y89.853 Z0.000 F1000.000 
G1 X890.147 Y5.000 Z0.000 F1000.000 
G1 X898.632 Y5.000 Z0.000 F1000.000 
G1 X975.000 Y81.368 Z0.000 F1000.000 
G1 X975.000 Y72.882 Z0.000 F1000.000 
G1 X907.118 Y5.000 Z0.000 F1000.000 
G1 X915.603 Y5.000 Z0.000 F1000.000 
G1 X975.000 Y64.397 Z0.000 F1000.000 
G1 X975.000 Y55.912 Z0.000 F1000.000 
G1 X924.088 Y5.000 Z0.000 F1000.000 
G1 X932.574 Y5.000 Z0.000 F1000.000 
G1 X975.000 Y47.426 Z0.000 F1000.000 
G1 X975.000 Y38.941 Z0.000 F1000.000 
G1 X941.059 Y5.000 Z0.000 F1000.000 
G1 X949.544 Y5.000 Z0.000 F1000.000 
G1 X975.000 Y30.456 Z0.000 F1000.000 
G1 X975.000 Y21.971 Z0.000 F1000.000 
G1 X958.029 Y5.000 Z0.000 F1000.000 
G1 X966.515 Y5.000 Z0.000 F1000.000 
G1 X975.000 Y13.485 Z0.000 F1000.000 
G1 X975.000 Y5.000 Z0.000 F1000.000 
G0 Z6.000 
G0 Z6.000 
(finish operation: MillFace001)
(begin postamble)
M05
G17 G54 G90 G80 G40
M2
