(Exported by FreeCAD)
(Post Processor: linuxcnc_post)
(Output Time:2024-04-30 16:28:48.531081)
(begin preamble)
G17 G54 G40 G49 G80 G90
G21
(begin operation: Fixture)
(machine units: mm/min)
G54 
(finish operation: Fixture)
(begin operation: TC: 6mm_Endmill)
(machine units: mm/min)
(TC: 6mm_Endmill) 
M5
M6 T10 
G43 H10 
(finish operation: TC: 6mm_Endmill)
(begin operation: MillFace)
(machine units: mm/min)
(MillFace) 
G0 Z6.000 
G0 X0.000 Y0.000 
G0 X3.000 Y895.762 
G0 X3.000 Y895.762 Z4.000 
G1 X3.000 Y895.762 Z0.000 F18.000 
G1 X3.000 Y897.000 Z0.000 F18.000 
G1 X4.238 Y897.000 Z0.000 F18.000 
G1 X3.000 Y895.762 Z0.000 F18.000 
G1 X3.000 Y891.519 Z0.000 F18.000 
G1 X8.481 Y897.000 Z0.000 F18.000 
G1 X12.723 Y897.000 Z0.000 F18.000 
G1 X3.000 Y887.277 Z0.000 F18.000 
G1 X3.000 Y883.034 Z0.000 F18.000 
G1 X16.966 Y897.000 Z0.000 F18.000 
G1 X21.209 Y897.000 Z0.000 F18.000 
G1 X3.000 Y878.791 Z0.000 F18.000 
G1 X3.000 Y874.549 Z0.000 F18.000 
G1 X25.451 Y897.000 Z0.000 F18.000 
G1 X29.694 Y897.000 Z0.000 F18.000 
G1 X3.000 Y870.306 Z0.000 F18.000 
G1 X3.000 Y866.063 Z0.000 F18.000 
G1 X33.937 Y897.000 Z0.000 F18.000 
G1 X38.179 Y897.000 Z0.000 F18.000 
G1 X3.000 Y861.821 Z0.000 F18.000 
G1 X3.000 Y857.578 Z0.000 F18.000 
G1 X42.422 Y897.000 Z0.000 F18.000 
G1 X46.665 Y897.000 Z0.000 F18.000 
G1 X3.000 Y853.335 Z0.000 F18.000 
G1 X3.000 Y849.093 Z0.000 F18.000 
G1 X50.907 Y897.000 Z0.000 F18.000 
G1 X55.150 Y897.000 Z0.000 F18.000 
G1 X3.000 Y844.850 Z0.000 F18.000 
G1 X3.000 Y840.608 Z0.000 F18.000 
G1 X59.392 Y897.000 Z0.000 F18.000 
G1 X63.635 Y897.000 Z0.000 F18.000 
G1 X3.000 Y836.365 Z0.000 F18.000 
G1 X3.000 Y832.122 Z0.000 F18.000 
G1 X67.878 Y897.000 Z0.000 F18.000 
G1 X72.120 Y897.000 Z0.000 F18.000 
G1 X3.000 Y827.880 Z0.000 F18.000 
G1 X3.000 Y823.637 Z0.000 F18.000 
G1 X76.363 Y897.000 Z0.000 F18.000 
G1 X80.606 Y897.000 Z0.000 F18.000 
G1 X3.000 Y819.394 Z0.000 F18.000 
G1 X3.000 Y815.152 Z0.000 F18.000 
G1 X84.848 Y897.000 Z0.000 F18.000 
G1 X89.091 Y897.000 Z0.000 F18.000 
G1 X3.000 Y810.909 Z0.000 F18.000 
G1 X3.000 Y806.666 Z0.000 F18.000 
G1 X93.334 Y897.000 Z0.000 F18.000 
G1 X97.576 Y897.000 Z0.000 F18.000 
G1 X3.000 Y802.424 Z0.000 F18.000 
G1 X3.000 Y798.181 Z0.000 F18.000 
G1 X101.819 Y897.000 Z0.000 F18.000 
G1 X106.061 Y897.000 Z0.000 F18.000 
G1 X3.000 Y793.939 Z0.000 F18.000 
G1 X3.000 Y789.696 Z0.000 F18.000 
G1 X110.304 Y897.000 Z0.000 F18.000 
G1 X114.547 Y897.000 Z0.000 F18.000 
G1 X3.000 Y785.453 Z0.000 F18.000 
G1 X3.000 Y781.211 Z0.000 F18.000 
G1 X118.789 Y897.000 Z0.000 F18.000 
G1 X123.032 Y897.000 Z0.000 F18.000 
G1 X3.000 Y776.968 Z0.000 F18.000 
G1 X3.000 Y772.725 Z0.000 F18.000 
G1 X127.275 Y897.000 Z0.000 F18.000 
G1 X131.517 Y897.000 Z0.000 F18.000 
G1 X3.000 Y768.483 Z0.000 F18.000 
G1 X3.000 Y764.240 Z0.000 F18.000 
G1 X135.760 Y897.000 Z0.000 F18.000 
G1 X140.003 Y897.000 Z0.000 F18.000 
G1 X3.000 Y759.997 Z0.000 F18.000 
G1 X3.000 Y755.755 Z0.000 F18.000 
G1 X144.245 Y897.000 Z0.000 F18.000 
G1 X148.488 Y897.000 Z0.000 F18.000 
G1 X3.000 Y751.512 Z0.000 F18.000 
G1 X3.000 Y747.269 Z0.000 F18.000 
G1 X152.731 Y897.000 Z0.000 F18.000 
G1 X156.973 Y897.000 Z0.000 F18.000 
G1 X3.000 Y743.027 Z0.000 F18.000 
G1 X3.000 Y738.784 Z0.000 F18.000 
G1 X161.216 Y897.000 Z0.000 F18.000 
G1 X165.458 Y897.000 Z0.000 F18.000 
G1 X3.000 Y734.542 Z0.000 F18.000 
G1 X3.000 Y730.299 Z0.000 F18.000 
G1 X169.701 Y897.000 Z0.000 F18.000 
G1 X173.944 Y897.000 Z0.000 F18.000 
G1 X3.000 Y726.056 Z0.000 F18.000 
G1 X3.000 Y721.814 Z0.000 F18.000 
G1 X178.186 Y897.000 Z0.000 F18.000 
G1 X182.429 Y897.000 Z0.000 F18.000 
G1 X3.000 Y717.571 Z0.000 F18.000 
G1 X3.000 Y713.328 Z0.000 F18.000 
G1 X186.672 Y897.000 Z0.000 F18.000 
G1 X190.914 Y897.000 Z0.000 F18.000 
G1 X3.000 Y709.086 Z0.000 F18.000 
G1 X3.000 Y704.843 Z0.000 F18.000 
G1 X195.157 Y897.000 Z0.000 F18.000 
G1 X199.400 Y897.000 Z0.000 F18.000 
G1 X3.000 Y700.600 Z0.000 F18.000 
G1 X3.000 Y696.358 Z0.000 F18.000 
G1 X203.642 Y897.000 Z0.000 F18.000 
G1 X207.885 Y897.000 Z0.000 F18.000 
G1 X3.000 Y692.115 Z0.000 F18.000 
G1 X3.000 Y687.873 Z0.000 F18.000 
G1 X212.127 Y897.000 Z0.000 F18.000 
G1 X216.370 Y897.000 Z0.000 F18.000 
G1 X3.000 Y683.630 Z0.000 F18.000 
G1 X3.000 Y679.387 Z0.000 F18.000 
G1 X220.613 Y897.000 Z0.000 F18.000 
G1 X224.855 Y897.000 Z0.000 F18.000 
G1 X3.000 Y675.145 Z0.000 F18.000 
G1 X3.000 Y670.902 Z0.000 F18.000 
G1 X229.098 Y897.000 Z0.000 F18.000 
G1 X233.341 Y897.000 Z0.000 F18.000 
G1 X3.000 Y666.659 Z0.000 F18.000 
G1 X3.000 Y662.417 Z0.000 F18.000 
G1 X237.583 Y897.000 Z0.000 F18.000 
G1 X241.826 Y897.000 Z0.000 F18.000 
G1 X3.000 Y658.174 Z0.000 F18.000 
G1 X3.000 Y653.931 Z0.000 F18.000 
G1 X246.069 Y897.000 Z0.000 F18.000 
G1 X250.311 Y897.000 Z0.000 F18.000 
G1 X3.000 Y649.689 Z0.000 F18.000 
G1 X3.000 Y645.446 Z0.000 F18.000 
G1 X254.554 Y897.000 Z0.000 F18.000 
G1 X258.797 Y897.000 Z0.000 F18.000 
G1 X3.000 Y641.203 Z0.000 F18.000 
G1 X3.000 Y636.961 Z0.000 F18.000 
G1 X263.039 Y897.000 Z0.000 F18.000 
G1 X267.282 Y897.000 Z0.000 F18.000 
G1 X3.000 Y632.718 Z0.000 F18.000 
G1 X3.000 Y628.476 Z0.000 F18.000 
G1 X271.524 Y897.000 Z0.000 F18.000 
G1 X275.767 Y897.000 Z0.000 F18.000 
G1 X3.000 Y624.233 Z0.000 F18.000 
G1 X3.000 Y619.990 Z0.000 F18.000 
G1 X280.010 Y897.000 Z0.000 F18.000 
G1 X284.252 Y897.000 Z0.000 F18.000 
G1 X3.000 Y615.748 Z0.000 F18.000 
G1 X3.000 Y611.505 Z0.000 F18.000 
G1 X288.495 Y897.000 Z0.000 F18.000 
G1 X292.738 Y897.000 Z0.000 F18.000 
G1 X3.000 Y607.262 Z0.000 F18.000 
G1 X3.000 Y603.020 Z0.000 F18.000 
G1 X296.980 Y897.000 Z0.000 F18.000 
G1 X301.223 Y897.000 Z0.000 F18.000 
G1 X3.000 Y598.777 Z0.000 F18.000 
G1 X3.000 Y594.534 Z0.000 F18.000 
G1 X305.466 Y897.000 Z0.000 F18.000 
G1 X309.708 Y897.000 Z0.000 F18.000 
G1 X3.000 Y590.292 Z0.000 F18.000 
G1 X3.000 Y586.049 Z0.000 F18.000 
G1 X313.951 Y897.000 Z0.000 F18.000 
G1 X318.194 Y897.000 Z0.000 F18.000 
G1 X3.000 Y581.806 Z0.000 F18.000 
G1 X3.000 Y577.564 Z0.000 F18.000 
G1 X322.436 Y897.000 Z0.000 F18.000 
G1 X326.679 Y897.000 Z0.000 F18.000 
G1 X3.000 Y573.321 Z0.000 F18.000 
G1 X3.000 Y569.079 Z0.000 F18.000 
G1 X330.921 Y897.000 Z0.000 F18.000 
G1 X335.164 Y897.000 Z0.000 F18.000 
G1 X3.000 Y564.836 Z0.000 F18.000 
G1 X3.000 Y560.593 Z0.000 F18.000 
G1 X339.407 Y897.000 Z0.000 F18.000 
G1 X343.649 Y897.000 Z0.000 F18.000 
G1 X3.000 Y556.351 Z0.000 F18.000 
G1 X3.000 Y552.108 Z0.000 F18.000 
G1 X347.892 Y897.000 Z0.000 F18.000 
G1 X352.135 Y897.000 Z0.000 F18.000 
G1 X3.000 Y547.865 Z0.000 F18.000 
G1 X3.000 Y543.623 Z0.000 F18.000 
G1 X356.377 Y897.000 Z0.000 F18.000 
G1 X360.620 Y897.000 Z0.000 F18.000 
G1 X3.000 Y539.380 Z0.000 F18.000 
G1 X3.000 Y535.137 Z0.000 F18.000 
G1 X364.863 Y897.000 Z0.000 F18.000 
G1 X369.105 Y897.000 Z0.000 F18.000 
G1 X3.000 Y530.895 Z0.000 F18.000 
G1 X3.000 Y526.652 Z0.000 F18.000 
G1 X373.348 Y897.000 Z0.000 F18.000 
G1 X377.590 Y897.000 Z0.000 F18.000 
G1 X3.000 Y522.410 Z0.000 F18.000 
G1 X3.000 Y518.167 Z0.000 F18.000 
G1 X381.833 Y897.000 Z0.000 F18.000 
G1 X386.076 Y897.000 Z0.000 F18.000 
G1 X3.000 Y513.924 Z0.000 F18.000 
G1 X3.000 Y509.682 Z0.000 F18.000 
G1 X390.318 Y897.000 Z0.000 F18.000 
G1 X394.561 Y897.000 Z0.000 F18.000 
G1 X3.000 Y505.439 Z0.000 F18.000 
G1 X3.000 Y501.196 Z0.000 F18.000 
G1 X398.804 Y897.000 Z0.000 F18.000 
G1 X403.046 Y897.000 Z0.000 F18.000 
G1 X3.000 Y496.954 Z0.000 F18.000 
G1 X3.000 Y492.711 Z0.000 F18.000 
G1 X407.289 Y897.000 Z0.000 F18.000 
G1 X411.532 Y897.000 Z0.000 F18.000 
G1 X3.000 Y488.468 Z0.000 F18.000 
G1 X3.000 Y484.226 Z0.000 F18.000 
G1 X415.774 Y897.000 Z0.000 F18.000 
G1 X420.017 Y897.000 Z0.000 F18.000 
G1 X3.000 Y479.983 Z0.000 F18.000 
G1 X3.000 Y475.740 Z0.000 F18.000 
G1 X424.260 Y897.000 Z0.000 F18.000 
G1 X428.502 Y897.000 Z0.000 F18.000 
G1 X3.000 Y471.498 Z0.000 F18.000 
G1 X3.000 Y467.255 Z0.000 F18.000 
G1 X432.745 Y897.000 Z0.000 F18.000 
G1 X436.987 Y897.000 Z0.000 F18.000 
G1 X3.000 Y463.013 Z0.000 F18.000 
G1 X3.000 Y458.770 Z0.000 F18.000 
G1 X441.230 Y897.000 Z0.000 F18.000 
G1 X445.473 Y897.000 Z0.000 F18.000 
G1 X3.000 Y454.527 Z0.000 F18.000 
G1 X3.000 Y450.285 Z0.000 F18.000 
G1 X449.715 Y897.000 Z0.000 F18.000 
G1 X453.958 Y897.000 Z0.000 F18.000 
G1 X3.000 Y446.042 Z0.000 F18.000 
G1 X3.000 Y441.799 Z0.000 F18.000 
G1 X458.201 Y897.000 Z0.000 F18.000 
G1 X462.443 Y897.000 Z0.000 F18.000 
G1 X3.000 Y437.557 Z0.000 F18.000 
G1 X3.000 Y433.314 Z0.000 F18.000 
G1 X466.686 Y897.000 Z0.000 F18.000 
G1 X470.929 Y897.000 Z0.000 F18.000 
G1 X3.000 Y429.071 Z0.000 F18.000 
G1 X3.000 Y424.829 Z0.000 F18.000 
G1 X475.171 Y897.000 Z0.000 F18.000 
G1 X479.414 Y897.000 Z0.000 F18.000 
G1 X3.000 Y420.586 Z0.000 F18.000 
G1 X3.000 Y416.344 Z0.000 F18.000 
G1 X483.656 Y897.000 Z0.000 F18.000 
G1 X487.899 Y897.000 Z0.000 F18.000 
G1 X3.000 Y412.101 Z0.000 F18.000 
G1 X3.000 Y407.858 Z0.000 F18.000 
G1 X492.142 Y897.000 Z0.000 F18.000 
G1 X496.384 Y897.000 Z0.000 F18.000 
G1 X3.000 Y403.616 Z0.000 F18.000 
G1 X3.000 Y399.373 Z0.000 F18.000 
G1 X500.627 Y897.000 Z0.000 F18.000 
G1 X504.870 Y897.000 Z0.000 F18.000 
G1 X3.000 Y395.130 Z0.000 F18.000 
G1 X3.000 Y390.888 Z0.000 F18.000 
G1 X509.112 Y897.000 Z0.000 F18.000 
G1 X513.355 Y897.000 Z0.000 F18.000 
G1 X3.000 Y386.645 Z0.000 F18.000 
G1 X3.000 Y382.402 Z0.000 F18.000 
G1 X517.598 Y897.000 Z0.000 F18.000 
G1 X521.840 Y897.000 Z0.000 F18.000 
G1 X3.000 Y378.160 Z0.000 F18.000 
G1 X3.000 Y373.917 Z0.000 F18.000 
G1 X526.083 Y897.000 Z0.000 F18.000 
G1 X530.326 Y897.000 Z0.000 F18.000 
G1 X3.000 Y369.674 Z0.000 F18.000 
G1 X3.000 Y365.432 Z0.000 F18.000 
G1 X534.568 Y897.000 Z0.000 F18.000 
G1 X538.811 Y897.000 Z0.000 F18.000 
G1 X3.000 Y361.189 Z0.000 F18.000 
G1 X3.000 Y356.947 Z0.000 F18.000 
G1 X543.053 Y897.000 Z0.000 F18.000 
G1 X547.296 Y897.000 Z0.000 F18.000 
G1 X3.000 Y352.704 Z0.000 F18.000 
G1 X3.000 Y348.461 Z0.000 F18.000 
G1 X551.539 Y897.000 Z0.000 F18.000 
G1 X555.781 Y897.000 Z0.000 F18.000 
G1 X3.000 Y344.219 Z0.000 F18.000 
G1 X3.000 Y339.976 Z0.000 F18.000 
G1 X560.024 Y897.000 Z0.000 F18.000 
G1 X564.267 Y897.000 Z0.000 F18.000 
G1 X3.000 Y335.733 Z0.000 F18.000 
G1 X3.000 Y331.491 Z0.000 F18.000 
G1 X568.509 Y897.000 Z0.000 F18.000 
G1 X572.752 Y897.000 Z0.000 F18.000 
G1 X3.000 Y327.248 Z0.000 F18.000 
G1 X3.000 Y323.005 Z0.000 F18.000 
G1 X576.995 Y897.000 Z0.000 F18.000 
G1 X581.237 Y897.000 Z0.000 F18.000 
G1 X3.000 Y318.763 Z0.000 F18.000 
G1 X3.000 Y314.520 Z0.000 F18.000 
G1 X585.480 Y897.000 Z0.000 F18.000 
G1 X589.723 Y897.000 Z0.000 F18.000 
G1 X3.000 Y310.277 Z0.000 F18.000 
G1 X3.000 Y306.035 Z0.000 F18.000 
G1 X593.965 Y897.000 Z0.000 F18.000 
G1 X598.208 Y897.000 Z0.000 F18.000 
G1 X3.000 Y301.792 Z0.000 F18.000 
G1 X3.000 Y297.550 Z0.000 F18.000 
G1 X602.450 Y897.000 Z0.000 F18.000 
G1 X606.693 Y897.000 Z0.000 F18.000 
G1 X3.000 Y293.307 Z0.000 F18.000 
G1 X3.000 Y289.064 Z0.000 F18.000 
G1 X610.936 Y897.000 Z0.000 F18.000 
G1 X615.178 Y897.000 Z0.000 F18.000 
G1 X3.000 Y284.822 Z0.000 F18.000 
G1 X3.000 Y280.579 Z0.000 F18.000 
G1 X619.421 Y897.000 Z0.000 F18.000 
G1 X623.664 Y897.000 Z0.000 F18.000 
G1 X3.000 Y276.336 Z0.000 F18.000 
G1 X3.000 Y272.094 Z0.000 F18.000 
G1 X627.906 Y897.000 Z0.000 F18.000 
G1 X632.149 Y897.000 Z0.000 F18.000 
G1 X3.000 Y267.851 Z0.000 F18.000 
G1 X3.000 Y263.608 Z0.000 F18.000 
G1 X636.392 Y897.000 Z0.000 F18.000 
G1 X640.634 Y897.000 Z0.000 F18.000 
G1 X3.000 Y259.366 Z0.000 F18.000 
G1 X3.000 Y255.123 Z0.000 F18.000 
G1 X644.877 Y897.000 Z0.000 F18.000 
G1 X649.119 Y897.000 Z0.000 F18.000 
G1 X3.000 Y250.881 Z0.000 F18.000 
G1 X3.000 Y246.638 Z0.000 F18.000 
G1 X653.362 Y897.000 Z0.000 F18.000 
G1 X657.605 Y897.000 Z0.000 F18.000 
G1 X3.000 Y242.395 Z0.000 F18.000 
G1 X3.000 Y238.153 Z0.000 F18.000 
G1 X661.847 Y897.000 Z0.000 F18.000 
G1 X666.090 Y897.000 Z0.000 F18.000 
G1 X3.000 Y233.910 Z0.000 F18.000 
G1 X3.000 Y229.667 Z0.000 F18.000 
G1 X670.333 Y897.000 Z0.000 F18.000 
G1 X674.575 Y897.000 Z0.000 F18.000 
G1 X3.000 Y225.425 Z0.000 F18.000 
G1 X3.000 Y221.182 Z0.000 F18.000 
G1 X678.818 Y897.000 Z0.000 F18.000 
G1 X683.061 Y897.000 Z0.000 F18.000 
G1 X3.000 Y216.939 Z0.000 F18.000 
G1 X3.000 Y212.697 Z0.000 F18.000 
G1 X687.303 Y897.000 Z0.000 F18.000 
G1 X691.546 Y897.000 Z0.000 F18.000 
G1 X3.000 Y208.454 Z0.000 F18.000 
G1 X3.000 Y204.211 Z0.000 F18.000 
G1 X695.789 Y897.000 Z0.000 F18.000 
G1 X700.031 Y897.000 Z0.000 F18.000 
G1 X3.000 Y199.969 Z0.000 F18.000 
G1 X3.000 Y195.726 Z0.000 F18.000 
G1 X704.274 Y897.000 Z0.000 F18.000 
G1 X708.516 Y897.000 Z0.000 F18.000 
G1 X3.000 Y191.484 Z0.000 F18.000 
G1 X3.000 Y187.241 Z0.000 F18.000 
G1 X712.759 Y897.000 Z0.000 F18.000 
G1 X717.002 Y897.000 Z0.000 F18.000 
G1 X3.000 Y182.998 Z0.000 F18.000 
G1 X3.000 Y178.756 Z0.000 F18.000 
G1 X721.244 Y897.000 Z0.000 F18.000 
G1 X725.487 Y897.000 Z0.000 F18.000 
G1 X3.000 Y174.513 Z0.000 F18.000 
G1 X3.000 Y170.270 Z0.000 F18.000 
G1 X729.730 Y897.000 Z0.000 F18.000 
G1 X733.972 Y897.000 Z0.000 F18.000 
G1 X3.000 Y166.028 Z0.000 F18.000 
G1 X3.000 Y161.785 Z0.000 F18.000 
G1 X738.215 Y897.000 Z0.000 F18.000 
G1 X742.458 Y897.000 Z0.000 F18.000 
G1 X3.000 Y157.542 Z0.000 F18.000 
G1 X3.000 Y153.300 Z0.000 F18.000 
G1 X746.700 Y897.000 Z0.000 F18.000 
G1 X750.943 Y897.000 Z0.000 F18.000 
G1 X3.000 Y149.057 Z0.000 F18.000 
G1 X3.000 Y144.815 Z0.000 F18.000 
G1 X755.185 Y897.000 Z0.000 F18.000 
G1 X759.428 Y897.000 Z0.000 F18.000 
G1 X3.000 Y140.572 Z0.000 F18.000 
G1 X3.000 Y136.329 Z0.000 F18.000 
G1 X763.671 Y897.000 Z0.000 F18.000 
G1 X767.913 Y897.000 Z0.000 F18.000 
G1 X3.000 Y132.087 Z0.000 F18.000 
G1 X3.000 Y127.844 Z0.000 F18.000 
G1 X772.156 Y897.000 Z0.000 F18.000 
G1 X776.399 Y897.000 Z0.000 F18.000 
G1 X3.000 Y123.601 Z0.000 F18.000 
G1 X3.000 Y119.359 Z0.000 F18.000 
G1 X780.641 Y897.000 Z0.000 F18.000 
G1 X784.884 Y897.000 Z0.000 F18.000 
G1 X3.000 Y115.116 Z0.000 F18.000 
G1 X3.000 Y110.873 Z0.000 F18.000 
G1 X789.127 Y897.000 Z0.000 F18.000 
G1 X793.369 Y897.000 Z0.000 F18.000 
G1 X3.000 Y106.631 Z0.000 F18.000 
G1 X3.000 Y102.388 Z0.000 F18.000 
G1 X797.612 Y897.000 Z0.000 F18.000 
G1 X801.855 Y897.000 Z0.000 F18.000 
G1 X3.000 Y98.145 Z0.000 F18.000 
G1 X3.000 Y93.903 Z0.000 F18.000 
G1 X806.097 Y897.000 Z0.000 F18.000 
G1 X810.340 Y897.000 Z0.000 F18.000 
G1 X3.000 Y89.660 Z0.000 F18.000 
G1 X3.000 Y85.418 Z0.000 F18.000 
G1 X814.582 Y897.000 Z0.000 F18.000 
G1 X818.825 Y897.000 Z0.000 F18.000 
G1 X3.000 Y81.175 Z0.000 F18.000 
G1 X3.000 Y76.932 Z0.000 F18.000 
G1 X823.068 Y897.000 Z0.000 F18.000 
G1 X827.310 Y897.000 Z0.000 F18.000 
G1 X3.000 Y72.690 Z0.000 F18.000 
G1 X3.000 Y68.447 Z0.000 F18.000 
G1 X831.553 Y897.000 Z0.000 F18.000 
G1 X835.796 Y897.000 Z0.000 F18.000 
G1 X3.000 Y64.204 Z0.000 F18.000 
G1 X3.000 Y59.962 Z0.000 F18.000 
G1 X840.038 Y897.000 Z0.000 F18.000 
G1 X844.281 Y897.000 Z0.000 F18.000 
G1 X3.000 Y55.719 Z0.000 F18.000 
G1 X3.000 Y51.476 Z0.000 F18.000 
G1 X848.524 Y897.000 Z0.000 F18.000 
G1 X852.766 Y897.000 Z0.000 F18.000 
G1 X3.000 Y47.234 Z0.000 F18.000 
G1 X3.000 Y42.991 Z0.000 F18.000 
G1 X857.009 Y897.000 Z0.000 F18.000 
G1 X861.252 Y897.000 Z0.000 F18.000 
G1 X3.000 Y38.748 Z0.000 F18.000 
G1 X3.000 Y34.506 Z0.000 F18.000 
G1 X865.494 Y897.000 Z0.000 F18.000 
G1 X869.737 Y897.000 Z0.000 F18.000 
G1 X3.000 Y30.263 Z0.000 F18.000 
G1 X3.000 Y26.021 Z0.000 F18.000 
G1 X873.979 Y897.000 Z0.000 F18.000 
G1 X878.222 Y897.000 Z0.000 F18.000 
G1 X3.000 Y21.778 Z0.000 F18.000 
G1 X3.000 Y17.535 Z0.000 F18.000 
G1 X882.465 Y897.000 Z0.000 F18.000 
G1 X886.707 Y897.000 Z0.000 F18.000 
G1 X3.000 Y13.293 Z0.000 F18.000 
G1 X3.000 Y9.050 Z0.000 F18.000 
G1 X890.950 Y897.000 Z0.000 F18.000 
G1 X895.193 Y897.000 Z0.000 F18.000 
G1 X3.000 Y4.807 Z0.000 F18.000 
G1 X3.000 Y3.000 Z0.000 F18.000 
G1 X5.435 Y3.000 Z0.000 F18.000 
G1 X899.435 Y897.000 Z0.000 F18.000 
G1 X903.678 Y897.000 Z0.000 F18.000 
G1 X9.678 Y3.000 Z0.000 F18.000 
G1 X13.921 Y3.000 Z0.000 F18.000 
G1 X907.921 Y897.000 Z0.000 F18.000 
G1 X912.163 Y897.000 Z0.000 F18.000 
G1 X18.163 Y3.000 Z0.000 F18.000 
G1 X22.406 Y3.000 Z0.000 F18.000 
G1 X916.406 Y897.000 Z0.000 F18.000 
G1 X920.648 Y897.000 Z0.000 F18.000 
G1 X26.648 Y3.000 Z0.000 F18.000 
G1 X30.891 Y3.000 Z0.000 F18.000 
G1 X924.891 Y897.000 Z0.000 F18.000 
G1 X929.134 Y897.000 Z0.000 F18.000 
G1 X35.134 Y3.000 Z0.000 F18.000 
G1 X39.376 Y3.000 Z0.000 F18.000 
G1 X933.376 Y897.000 Z0.000 F18.000 
G1 X937.619 Y897.000 Z0.000 F18.000 
G1 X43.619 Y3.000 Z0.000 F18.000 
G1 X47.862 Y3.000 Z0.000 F18.000 
G1 X941.862 Y897.000 Z0.000 F18.000 
G1 X946.104 Y897.000 Z0.000 F18.000 
G1 X52.104 Y3.000 Z0.000 F18.000 
G1 X56.347 Y3.000 Z0.000 F18.000 
G1 X950.347 Y897.000 Z0.000 F18.000 
G1 X954.590 Y897.000 Z0.000 F18.000 
G1 X60.590 Y3.000 Z0.000 F18.000 
G1 X64.832 Y3.000 Z0.000 F18.000 
G1 X958.832 Y897.000 Z0.000 F18.000 
G1 X963.075 Y897.000 Z0.000 F18.000 
G1 X69.075 Y3.000 Z0.000 F18.000 
G1 X73.318 Y3.000 Z0.000 F18.000 
G1 X967.318 Y897.000 Z0.000 F18.000 
G1 X971.560 Y897.000 Z0.000 F18.000 
G1 X77.560 Y3.000 Z0.000 F18.000 
G1 X81.803 Y3.000 Z0.000 F18.000 
G1 X975.803 Y897.000 Z0.000 F18.000 
G1 X977.000 Y897.000 Z0.000 F18.000 
G1 X977.000 Y893.955 Z0.000 F18.000 
G1 X86.045 Y3.000 Z0.000 F18.000 
G1 X90.288 Y3.000 Z0.000 F18.000 
G1 X977.000 Y889.712 Z0.000 F18.000 
G1 X977.000 Y885.469 Z0.000 F18.000 
G1 X94.531 Y3.000 Z0.000 F18.000 
G1 X98.773 Y3.000 Z0.000 F18.000 
G1 X977.000 Y881.227 Z0.000 F18.000 
G1 X977.000 Y876.984 Z0.000 F18.000 
G1 X103.016 Y3.000 Z0.000 F18.000 
G1 X107.259 Y3.000 Z0.000 F18.000 
G1 X977.000 Y872.741 Z0.000 F18.000 
G1 X977.000 Y868.499 Z0.000 F18.000 
G1 X111.501 Y3.000 Z0.000 F18.000 
G1 X115.744 Y3.000 Z0.000 F18.000 
G1 X977.000 Y864.256 Z0.000 F18.000 
G1 X977.000 Y860.013 Z0.000 F18.000 
G1 X119.987 Y3.000 Z0.000 F18.000 
G1 X124.229 Y3.000 Z0.000 F18.000 
G1 X977.000 Y855.771 Z0.000 F18.000 
G1 X977.000 Y851.528 Z0.000 F18.000 
G1 X128.472 Y3.000 Z0.000 F18.000 
G1 X132.715 Y3.000 Z0.000 F18.000 
G1 X977.000 Y847.285 Z0.000 F18.000 
G1 X977.000 Y843.043 Z0.000 F18.000 
G1 X136.957 Y3.000 Z0.000 F18.000 
G1 X141.200 Y3.000 Z0.000 F18.000 
G1 X977.000 Y838.800 Z0.000 F18.000 
G1 X977.000 Y834.558 Z0.000 F18.000 
G1 X145.442 Y3.000 Z0.000 F18.000 
G1 X149.685 Y3.000 Z0.000 F18.000 
G1 X977.000 Y830.315 Z0.000 F18.000 
G1 X977.000 Y826.072 Z0.000 F18.000 
G1 X153.928 Y3.000 Z0.000 F18.000 
G1 X158.170 Y3.000 Z0.000 F18.000 
G1 X977.000 Y821.830 Z0.000 F18.000 
G1 X977.000 Y817.587 Z0.000 F18.000 
G1 X162.413 Y3.000 Z0.000 F18.000 
G1 X166.656 Y3.000 Z0.000 F18.000 
G1 X977.000 Y813.344 Z0.000 F18.000 
G1 X977.000 Y809.102 Z0.000 F18.000 
G1 X170.898 Y3.000 Z0.000 F18.000 
G1 X175.141 Y3.000 Z0.000 F18.000 
G1 X977.000 Y804.859 Z0.000 F18.000 
G1 X977.000 Y800.616 Z0.000 F18.000 
G1 X179.384 Y3.000 Z0.000 F18.000 
G1 X183.626 Y3.000 Z0.000 F18.000 
G1 X977.000 Y796.374 Z0.000 F18.000 
G1 X977.000 Y792.131 Z0.000 F18.000 
G1 X187.869 Y3.000 Z0.000 F18.000 
G1 X192.111 Y3.000 Z0.000 F18.000 
G1 X977.000 Y787.889 Z0.000 F18.000 
G1 X977.000 Y783.646 Z0.000 F18.000 
G1 X196.354 Y3.000 Z0.000 F18.000 
G1 X200.597 Y3.000 Z0.000 F18.000 
G1 X977.000 Y779.403 Z0.000 F18.000 
G1 X977.000 Y775.161 Z0.000 F18.000 
G1 X204.839 Y3.000 Z0.000 F18.000 
G1 X209.082 Y3.000 Z0.000 F18.000 
G1 X977.000 Y770.918 Z0.000 F18.000 
G1 X977.000 Y766.675 Z0.000 F18.000 
G1 X213.325 Y3.000 Z0.000 F18.000 
G1 X217.567 Y3.000 Z0.000 F18.000 
G1 X977.000 Y762.433 Z0.000 F18.000 
G1 X977.000 Y758.190 Z0.000 F18.000 
G1 X221.810 Y3.000 Z0.000 F18.000 
G1 X226.053 Y3.000 Z0.000 F18.000 
G1 X977.000 Y753.947 Z0.000 F18.000 
G1 X977.000 Y749.705 Z0.000 F18.000 
G1 X230.295 Y3.000 Z0.000 F18.000 
G1 X234.538 Y3.000 Z0.000 F18.000 
G1 X977.000 Y745.462 Z0.000 F18.000 
G1 X977.000 Y741.219 Z0.000 F18.000 
G1 X238.781 Y3.000 Z0.000 F18.000 
G1 X243.023 Y3.000 Z0.000 F18.000 
G1 X977.000 Y736.977 Z0.000 F18.000 
G1 X977.000 Y732.734 Z0.000 F18.000 
G1 X247.266 Y3.000 Z0.000 F18.000 
G1 X251.508 Y3.000 Z0.000 F18.000 
G1 X977.000 Y728.492 Z0.000 F18.000 
G1 X977.000 Y724.249 Z0.000 F18.000 
G1 X255.751 Y3.000 Z0.000 F18.000 
G1 X259.994 Y3.000 Z0.000 F18.000 
G1 X977.000 Y720.006 Z0.000 F18.000 
G1 X977.000 Y715.764 Z0.000 F18.000 
G1 X264.236 Y3.000 Z0.000 F18.000 
G1 X268.479 Y3.000 Z0.000 F18.000 
G1 X977.000 Y711.521 Z0.000 F18.000 
G1 X977.000 Y707.278 Z0.000 F18.000 
G1 X272.722 Y3.000 Z0.000 F18.000 
G1 X276.964 Y3.000 Z0.000 F18.000 
G1 X977.000 Y703.036 Z0.000 F18.000 
G1 X977.000 Y698.793 Z0.000 F18.000 
G1 X281.207 Y3.000 Z0.000 F18.000 
G1 X285.450 Y3.000 Z0.000 F18.000 
G1 X977.000 Y694.550 Z0.000 F18.000 
G1 X977.000 Y690.308 Z0.000 F18.000 
G1 X289.692 Y3.000 Z0.000 F18.000 
G1 X293.935 Y3.000 Z0.000 F18.000 
G1 X977.000 Y686.065 Z0.000 F18.000 
G1 X977.000 Y681.823 Z0.000 F18.000 
G1 X298.177 Y3.000 Z0.000 F18.000 
G1 X302.420 Y3.000 Z0.000 F18.000 
G1 X977.000 Y677.580 Z0.000 F18.000 
G1 X977.000 Y673.337 Z0.000 F18.000 
G1 X306.663 Y3.000 Z0.000 F18.000 
G1 X310.905 Y3.000 Z0.000 F18.000 
G1 X977.000 Y669.095 Z0.000 F18.000 
G1 X977.000 Y664.852 Z0.000 F18.000 
G1 X315.148 Y3.000 Z0.000 F18.000 
G1 X319.391 Y3.000 Z0.000 F18.000 
G1 X977.000 Y660.609 Z0.000 F18.000 
G1 X977.000 Y656.367 Z0.000 F18.000 
G1 X323.633 Y3.000 Z0.000 F18.000 
G1 X327.876 Y3.000 Z0.000 F18.000 
G1 X977.000 Y652.124 Z0.000 F18.000 
G1 X977.000 Y647.881 Z0.000 F18.000 
G1 X332.119 Y3.000 Z0.000 F18.000 
G1 X336.361 Y3.000 Z0.000 F18.000 
G1 X977.000 Y643.639 Z0.000 F18.000 
G1 X977.000 Y639.396 Z0.000 F18.000 
G1 X340.604 Y3.000 Z0.000 F18.000 
G1 X344.847 Y3.000 Z0.000 F18.000 
G1 X977.000 Y635.153 Z0.000 F18.000 
G1 X977.000 Y630.911 Z0.000 F18.000 
G1 X349.089 Y3.000 Z0.000 F18.000 
G1 X353.332 Y3.000 Z0.000 F18.000 
G1 X977.000 Y626.668 Z0.000 F18.000 
G1 X977.000 Y622.426 Z0.000 F18.000 
G1 X357.574 Y3.000 Z0.000 F18.000 
G1 X361.817 Y3.000 Z0.000 F18.000 
G1 X977.000 Y618.183 Z0.000 F18.000 
G1 X977.000 Y613.940 Z0.000 F18.000 
G1 X366.060 Y3.000 Z0.000 F18.000 
G1 X370.302 Y3.000 Z0.000 F18.000 
G1 X977.000 Y609.698 Z0.000 F18.000 
G1 X977.000 Y605.455 Z0.000 F18.000 
G1 X374.545 Y3.000 Z0.000 F18.000 
G1 X378.788 Y3.000 Z0.000 F18.000 
G1 X977.000 Y601.212 Z0.000 F18.000 
G1 X977.000 Y596.970 Z0.000 F18.000 
G1 X383.030 Y3.000 Z0.000 F18.000 
G1 X387.273 Y3.000 Z0.000 F18.000 
G1 X977.000 Y592.727 Z0.000 F18.000 
G1 X977.000 Y588.484 Z0.000 F18.000 
G1 X391.516 Y3.000 Z0.000 F18.000 
G1 X395.758 Y3.000 Z0.000 F18.000 
G1 X977.000 Y584.242 Z0.000 F18.000 
G1 X977.000 Y579.999 Z0.000 F18.000 
G1 X400.001 Y3.000 Z0.000 F18.000 
G1 X404.244 Y3.000 Z0.000 F18.000 
G1 X977.000 Y575.756 Z0.000 F18.000 
G1 X977.000 Y571.514 Z0.000 F18.000 
G1 X408.486 Y3.000 Z0.000 F18.000 
G1 X412.729 Y3.000 Z0.000 F18.000 
G1 X977.000 Y567.271 Z0.000 F18.000 
G1 X977.000 Y563.029 Z0.000 F18.000 
G1 X416.971 Y3.000 Z0.000 F18.000 
G1 X421.214 Y3.000 Z0.000 F18.000 
G1 X977.000 Y558.786 Z0.000 F18.000 
G1 X977.000 Y554.543 Z0.000 F18.000 
G1 X425.457 Y3.000 Z0.000 F18.000 
G1 X429.699 Y3.000 Z0.000 F18.000 
G1 X977.000 Y550.301 Z0.000 F18.000 
G1 X977.000 Y546.058 Z0.000 F18.000 
G1 X433.942 Y3.000 Z0.000 F18.000 
G1 X438.185 Y3.000 Z0.000 F18.000 
G1 X977.000 Y541.815 Z0.000 F18.000 
G1 X977.000 Y537.573 Z0.000 F18.000 
G1 X442.427 Y3.000 Z0.000 F18.000 
G1 X446.670 Y3.000 Z0.000 F18.000 
G1 X977.000 Y533.330 Z0.000 F18.000 
G1 X977.000 Y529.087 Z0.000 F18.000 
G1 X450.913 Y3.000 Z0.000 F18.000 
G1 X455.155 Y3.000 Z0.000 F18.000 
G1 X977.000 Y524.845 Z0.000 F18.000 
G1 X977.000 Y520.602 Z0.000 F18.000 
G1 X459.398 Y3.000 Z0.000 F18.000 
G1 X463.640 Y3.000 Z0.000 F18.000 
G1 X977.000 Y516.360 Z0.000 F18.000 
G1 X977.000 Y512.117 Z0.000 F18.000 
G1 X467.883 Y3.000 Z0.000 F18.000 
G1 X472.126 Y3.000 Z0.000 F18.000 
G1 X977.000 Y507.874 Z0.000 F18.000 
G1 X977.000 Y503.632 Z0.000 F18.000 
G1 X476.368 Y3.000 Z0.000 F18.000 
G1 X480.611 Y3.000 Z0.000 F18.000 
G1 X977.000 Y499.389 Z0.000 F18.000 
G1 X977.000 Y495.146 Z0.000 F18.000 
G1 X484.854 Y3.000 Z0.000 F18.000 
G1 X489.096 Y3.000 Z0.000 F18.000 
G1 X977.000 Y490.904 Z0.000 F18.000 
G1 X977.000 Y486.661 Z0.000 F18.000 
G1 X493.339 Y3.000 Z0.000 F18.000 
G1 X497.582 Y3.000 Z0.000 F18.000 
G1 X977.000 Y482.418 Z0.000 F18.000 
G1 X977.000 Y478.176 Z0.000 F18.000 
G1 X501.824 Y3.000 Z0.000 F18.000 
G1 X506.067 Y3.000 Z0.000 F18.000 
G1 X977.000 Y473.933 Z0.000 F18.000 
G1 X977.000 Y469.690 Z0.000 F18.000 
G1 X510.310 Y3.000 Z0.000 F18.000 
G1 X514.552 Y3.000 Z0.000 F18.000 
G1 X977.000 Y465.448 Z0.000 F18.000 
G1 X977.000 Y461.205 Z0.000 F18.000 
G1 X518.795 Y3.000 Z0.000 F18.000 
G1 X523.037 Y3.000 Z0.000 F18.000 
G1 X977.000 Y456.963 Z0.000 F18.000 
G1 X977.000 Y452.720 Z0.000 F18.000 
G1 X527.280 Y3.000 Z0.000 F18.000 
G1 X531.523 Y3.000 Z0.000 F18.000 
G1 X977.000 Y448.477 Z0.000 F18.000 
G1 X977.000 Y444.235 Z0.000 F18.000 
G1 X535.765 Y3.000 Z0.000 F18.000 
G1 X540.008 Y3.000 Z0.000 F18.000 
G1 X977.000 Y439.992 Z0.000 F18.000 
G1 X977.000 Y435.749 Z0.000 F18.000 
G1 X544.251 Y3.000 Z0.000 F18.000 
G1 X548.493 Y3.000 Z0.000 F18.000 
G1 X977.000 Y431.507 Z0.000 F18.000 
G1 X977.000 Y427.264 Z0.000 F18.000 
G1 X552.736 Y3.000 Z0.000 F18.000 
G1 X556.979 Y3.000 Z0.000 F18.000 
G1 X977.000 Y423.021 Z0.000 F18.000 
G1 X977.000 Y418.779 Z0.000 F18.000 
G1 X561.221 Y3.000 Z0.000 F18.000 
G1 X565.464 Y3.000 Z0.000 F18.000 
G1 X977.000 Y414.536 Z0.000 F18.000 
G1 X977.000 Y410.294 Z0.000 F18.000 
G1 X569.706 Y3.000 Z0.000 F18.000 
G1 X573.949 Y3.000 Z0.000 F18.000 
G1 X977.000 Y406.051 Z0.000 F18.000 
G1 X977.000 Y401.808 Z0.000 F18.000 
G1 X578.192 Y3.000 Z0.000 F18.000 
G1 X582.434 Y3.000 Z0.000 F18.000 
G1 X977.000 Y397.566 Z0.000 F18.000 
G1 X977.000 Y393.323 Z0.000 F18.000 
G1 X586.677 Y3.000 Z0.000 F18.000 
G1 X590.920 Y3.000 Z0.000 F18.000 
G1 X977.000 Y389.080 Z0.000 F18.000 
G1 X977.000 Y384.838 Z0.000 F18.000 
G1 X595.162 Y3.000 Z0.000 F18.000 
G1 X599.405 Y3.000 Z0.000 F18.000 
G1 X977.000 Y380.595 Z0.000 F18.000 
G1 X977.000 Y376.352 Z0.000 F18.000 
G1 X603.648 Y3.000 Z0.000 F18.000 
G1 X607.890 Y3.000 Z0.000 F18.000 
G1 X977.000 Y372.110 Z0.000 F18.000 
G1 X977.000 Y367.867 Z0.000 F18.000 
G1 X612.133 Y3.000 Z0.000 F18.000 
G1 X616.376 Y3.000 Z0.000 F18.000 
G1 X977.000 Y363.624 Z0.000 F18.000 
G1 X977.000 Y359.382 Z0.000 F18.000 
G1 X620.618 Y3.000 Z0.000 F18.000 
G1 X624.861 Y3.000 Z0.000 F18.000 
G1 X977.000 Y355.139 Z0.000 F18.000 
G1 X977.000 Y350.897 Z0.000 F18.000 
G1 X629.103 Y3.000 Z0.000 F18.000 
G1 X633.346 Y3.000 Z0.000 F18.000 
G1 X977.000 Y346.654 Z0.000 F18.000 
G1 X977.000 Y342.411 Z0.000 F18.000 
G1 X637.589 Y3.000 Z0.000 F18.000 
G1 X641.831 Y3.000 Z0.000 F18.000 
G1 X977.000 Y338.169 Z0.000 F18.000 
G1 X977.000 Y333.926 Z0.000 F18.000 
G1 X646.074 Y3.000 Z0.000 F18.000 
G1 X650.317 Y3.000 Z0.000 F18.000 
G1 X977.000 Y329.683 Z0.000 F18.000 
G1 X977.000 Y325.441 Z0.000 F18.000 
G1 X654.559 Y3.000 Z0.000 F18.000 
G1 X658.802 Y3.000 Z0.000 F18.000 
G1 X977.000 Y321.198 Z0.000 F18.000 
G1 X977.000 Y316.955 Z0.000 F18.000 
G1 X663.045 Y3.000 Z0.000 F18.000 
G1 X667.287 Y3.000 Z0.000 F18.000 
G1 X977.000 Y312.713 Z0.000 F18.000 
G1 X977.000 Y308.470 Z0.000 F18.000 
G1 X671.530 Y3.000 Z0.000 F18.000 
G1 X675.773 Y3.000 Z0.000 F18.000 
G1 X977.000 Y304.227 Z0.000 F18.000 
G1 X977.000 Y299.985 Z0.000 F18.000 
G1 X680.015 Y3.000 Z0.000 F18.000 
G1 X684.258 Y3.000 Z0.000 F18.000 
G1 X977.000 Y295.742 Z0.000 F18.000 
G1 X977.000 Y291.500 Z0.000 F18.000 
G1 X688.500 Y3.000 Z0.000 F18.000 
G1 X692.743 Y3.000 Z0.000 F18.000 
G1 X977.000 Y287.257 Z0.000 F18.000 
G1 X977.000 Y283.014 Z0.000 F18.000 
G1 X696.986 Y3.000 Z0.000 F18.000 
G1 X701.228 Y3.000 Z0.000 F18.000 
G1 X977.000 Y278.772 Z0.000 F18.000 
G1 X977.000 Y274.529 Z0.000 F18.000 
G1 X705.471 Y3.000 Z0.000 F18.000 
G1 X709.714 Y3.000 Z0.000 F18.000 
G1 X977.000 Y270.286 Z0.000 F18.000 
G1 X977.000 Y266.044 Z0.000 F18.000 
G1 X713.956 Y3.000 Z0.000 F18.000 
G1 X718.199 Y3.000 Z0.000 F18.000 
G1 X977.000 Y261.801 Z0.000 F18.000 
G1 X977.000 Y257.558 Z0.000 F18.000 
G1 X722.442 Y3.000 Z0.000 F18.000 
G1 X726.684 Y3.000 Z0.000 F18.000 
G1 X977.000 Y253.316 Z0.000 F18.000 
G1 X977.000 Y249.073 Z0.000 F18.000 
G1 X730.927 Y3.000 Z0.000 F18.000 
G1 X735.169 Y3.000 Z0.000 F18.000 
G1 X977.000 Y244.831 Z0.000 F18.000 
G1 X977.000 Y240.588 Z0.000 F18.000 
G1 X739.412 Y3.000 Z0.000 F18.000 
G1 X743.655 Y3.000 Z0.000 F18.000 
G1 X977.000 Y236.345 Z0.000 F18.000 
G1 X977.000 Y232.103 Z0.000 F18.000 
G1 X747.897 Y3.000 Z0.000 F18.000 
G1 X752.140 Y3.000 Z0.000 F18.000 
G1 X977.000 Y227.860 Z0.000 F18.000 
G1 X977.000 Y223.617 Z0.000 F18.000 
G1 X756.383 Y3.000 Z0.000 F18.000 
G1 X760.625 Y3.000 Z0.000 F18.000 
G1 X977.000 Y219.375 Z0.000 F18.000 
G1 X977.000 Y215.132 Z0.000 F18.000 
G1 X764.868 Y3.000 Z0.000 F18.000 
G1 X769.111 Y3.000 Z0.000 F18.000 
G1 X977.000 Y210.889 Z0.000 F18.000 
G1 X977.000 Y206.647 Z0.000 F18.000 
G1 X773.353 Y3.000 Z0.000 F18.000 
G1 X777.596 Y3.000 Z0.000 F18.000 
G1 X977.000 Y202.404 Z0.000 F18.000 
G1 X977.000 Y198.161 Z0.000 F18.000 
G1 X781.839 Y3.000 Z0.000 F18.000 
G1 X786.081 Y3.000 Z0.000 F18.000 
G1 X977.000 Y193.919 Z0.000 F18.000 
G1 X977.000 Y189.676 Z0.000 F18.000 
G1 X790.324 Y3.000 Z0.000 F18.000 
G1 X794.566 Y3.000 Z0.000 F18.000 
G1 X977.000 Y185.434 Z0.000 F18.000 
G1 X977.000 Y181.191 Z0.000 F18.000 
G1 X798.809 Y3.000 Z0.000 F18.000 
G1 X803.052 Y3.000 Z0.000 F18.000 
G1 X977.000 Y176.948 Z0.000 F18.000 
G1 X977.000 Y172.706 Z0.000 F18.000 
G1 X807.294 Y3.000 Z0.000 F18.000 
G1 X811.537 Y3.000 Z0.000 F18.000 
G1 X977.000 Y168.463 Z0.000 F18.000 
G1 X977.000 Y164.220 Z0.000 F18.000 
G1 X815.780 Y3.000 Z0.000 F18.000 
G1 X820.022 Y3.000 Z0.000 F18.000 
G1 X977.000 Y159.978 Z0.000 F18.000 
G1 X977.000 Y155.735 Z0.000 F18.000 
G1 X824.265 Y3.000 Z0.000 F18.000 
G1 X828.508 Y3.000 Z0.000 F18.000 
G1 X977.000 Y151.492 Z0.000 F18.000 
G1 X977.000 Y147.250 Z0.000 F18.000 
G1 X832.750 Y3.000 Z0.000 F18.000 
G1 X836.993 Y3.000 Z0.000 F18.000 
G1 X977.000 Y143.007 Z0.000 F18.000 
G1 X977.000 Y138.765 Z0.000 F18.000 
G1 X841.235 Y3.000 Z0.000 F18.000 
G1 X845.478 Y3.000 Z0.000 F18.000 
G1 X977.000 Y134.522 Z0.000 F18.000 
G1 X977.000 Y130.279 Z0.000 F18.000 
G1 X849.721 Y3.000 Z0.000 F18.000 
G1 X853.963 Y3.000 Z0.000 F18.000 
G1 X977.000 Y126.037 Z0.000 F18.000 
G1 X977.000 Y121.794 Z0.000 F18.000 
G1 X858.206 Y3.000 Z0.000 F18.000 
G1 X862.449 Y3.000 Z0.000 F18.000 
G1 X977.000 Y117.551 Z0.000 F18.000 
G1 X977.000 Y113.309 Z0.000 F18.000 
G1 X866.691 Y3.000 Z0.000 F18.000 
G1 X870.934 Y3.000 Z0.000 F18.000 
G1 X977.000 Y109.066 Z0.000 F18.000 
G1 X977.000 Y104.823 Z0.000 F18.000 
G1 X875.177 Y3.000 Z0.000 F18.000 
G1 X879.419 Y3.000 Z0.000 F18.000 
G1 X977.000 Y100.581 Z0.000 F18.000 
G1 X977.000 Y96.338 Z0.000 F18.000 
G1 X883.662 Y3.000 Z0.000 F18.000 
G1 X887.905 Y3.000 Z0.000 F18.000 
G1 X977.000 Y92.095 Z0.000 F18.000 
G1 X977.000 Y87.853 Z0.000 F18.000 
G1 X892.147 Y3.000 Z0.000 F18.000 
G1 X896.390 Y3.000 Z0.000 F18.000 
G1 X977.000 Y83.610 Z0.000 F18.000 
G1 X977.000 Y79.368 Z0.000 F18.000 
G1 X900.632 Y3.000 Z0.000 F18.000 
G1 X904.875 Y3.000 Z0.000 F18.000 
G1 X977.000 Y75.125 Z0.000 F18.000 
G1 X977.000 Y70.882 Z0.000 F18.000 
G1 X909.118 Y3.000 Z0.000 F18.000 
G1 X913.360 Y3.000 Z0.000 F18.000 
G1 X977.000 Y66.640 Z0.000 F18.000 
G1 X977.000 Y62.397 Z0.000 F18.000 
G1 X917.603 Y3.000 Z0.000 F18.000 
G1 X921.846 Y3.000 Z0.000 F18.000 
G1 X977.000 Y58.154 Z0.000 F18.000 
G1 X977.000 Y53.912 Z0.000 F18.000 
G1 X926.088 Y3.000 Z0.000 F18.000 
G1 X930.331 Y3.000 Z0.000 F18.000 
G1 X977.000 Y49.669 Z0.000 F18.000 
G1 X977.000 Y45.426 Z0.000 F18.000 
G1 X934.574 Y3.000 Z0.000 F18.000 
G1 X938.816 Y3.000 Z0.000 F18.000 
G1 X977.000 Y41.184 Z0.000 F18.000 
G1 X977.000 Y36.941 Z0.000 F18.000 
G1 X943.059 Y3.000 Z0.000 F18.000 
G1 X947.302 Y3.000 Z0.000 F18.000 
G1 X977.000 Y32.698 Z0.000 F18.000 
G1 X977.000 Y28.456 Z0.000 F18.000 
G1 X951.544 Y3.000 Z0.000 F18.000 
G1 X955.787 Y3.000 Z0.000 F18.000 
G1 X977.000 Y24.213 Z0.000 F18.000 
G1 X977.000 Y19.971 Z0.000 F18.000 
G1 X960.029 Y3.000 Z0.000 F18.000 
G1 X964.272 Y3.000 Z0.000 F18.000 
G1 X977.000 Y15.728 Z0.000 F18.000 
G1 X977.000 Y11.485 Z0.000 F18.000 
G1 X968.515 Y3.000 Z0.000 F18.000 
G1 X972.757 Y3.000 Z0.000 F18.000 
G1 X977.000 Y7.243 Z0.000 F18.000 
G1 X977.000 Y3.000 Z0.000 F18.000 
G0 Z6.000 
G0 Z6.000 
(finish operation: MillFace)
(begin operation: Helix)
(machine units: mm/min)
(Helix) 
(helix cut operation) 
G0 Z6.000 
G0 Z6.000 
G0 X117.800 Y149.796 Z6.000 
G0 X117.800 Y149.796 Z1.000 
G0 X118.769 Y149.796 
G1 Z1.000 F18.000 
G2 X116.831 Y149.796 Z-1.842 I-0.969 J0.000 F18.000 
G2 X118.769 Y149.796 Z-4.683 I0.969 J0.000 F18.000 
G2 X116.831 Y149.796 Z-7.525 I-0.969 J0.000 F18.000 
G2 X118.769 Y149.796 Z-10.367 I0.969 J0.000 F18.000 
G2 X116.831 Y149.796 Z-13.208 I-0.969 J0.000 F18.000 
G2 X118.769 Y149.796 Z-16.050 I0.969 J0.000 F18.000 
G2 X116.831 Y149.796 Z-16.050 I-0.969 J0.000 F18.000 
G2 X118.769 Y149.796 Z-16.050 I0.969 J0.000 F18.000 
G0 X117.800 Y149.796 Z-16.050 
G0 Z1.000 
G0 Z6.000 
G0 X117.800 Y225.996 Z6.000 
G0 X117.800 Y225.996 Z1.000 
G0 X118.769 Y225.996 
G1 Z1.000 F18.000 
G2 X116.831 Y225.996 Z-1.842 I-0.969 J0.000 F18.000 
G2 X118.769 Y225.996 Z-4.683 I0.969 J0.000 F18.000 
G2 X116.831 Y225.996 Z-7.525 I-0.969 J0.000 F18.000 
G2 X118.769 Y225.996 Z-10.367 I0.969 J0.000 F18.000 
G2 X116.831 Y225.996 Z-13.208 I-0.969 J0.000 F18.000 
G2 X118.769 Y225.996 Z-16.050 I0.969 J0.000 F18.000 
G2 X116.831 Y225.996 Z-16.050 I-0.969 J0.000 F18.000 
G2 X118.769 Y225.996 Z-16.050 I0.969 J0.000 F18.000 
G0 X117.800 Y225.996 Z-16.050 
G0 Z1.000 
G0 Z6.000 
G0 X117.800 Y302.196 Z6.000 
G0 X117.800 Y302.196 Z1.000 
G0 X118.769 Y302.196 
G1 Z1.000 F18.000 
G2 X116.831 Y302.196 Z-1.842 I-0.969 J0.000 F18.000 
G2 X118.769 Y302.196 Z-4.683 I0.969 J0.000 F18.000 
G2 X116.831 Y302.196 Z-7.525 I-0.969 J0.000 F18.000 
G2 X118.769 Y302.196 Z-10.367 I0.969 J0.000 F18.000 
G2 X116.831 Y302.196 Z-13.208 I-0.969 J0.000 F18.000 
G2 X118.769 Y302.196 Z-16.050 I0.969 J0.000 F18.000 
G2 X116.831 Y302.196 Z-16.050 I-0.969 J0.000 F18.000 
G2 X118.769 Y302.196 Z-16.050 I0.969 J0.000 F18.000 
G0 X117.800 Y302.196 Z-16.050 
G0 Z1.000 
G0 Z6.000 
G0 X117.800 Y378.396 Z6.000 
G0 X117.800 Y378.396 Z1.000 
G0 X118.769 Y378.396 
G1 Z1.000 F18.000 
G2 X116.831 Y378.396 Z-1.842 I-0.969 J0.000 F18.000 
G2 X118.769 Y378.396 Z-4.683 I0.969 J0.000 F18.000 
G2 X116.831 Y378.396 Z-7.525 I-0.969 J0.000 F18.000 
G2 X118.769 Y378.396 Z-10.367 I0.969 J0.000 F18.000 
G2 X116.831 Y378.396 Z-13.208 I-0.969 J0.000 F18.000 
G2 X118.769 Y378.396 Z-16.050 I0.969 J0.000 F18.000 
G2 X116.831 Y378.396 Z-16.050 I-0.969 J0.000 F18.000 
G2 X118.769 Y378.396 Z-16.050 I0.969 J0.000 F18.000 
G0 X117.800 Y378.396 Z-16.050 
G0 Z1.000 
G0 Z6.000 
G0 X117.800 Y454.596 Z6.000 
G0 X117.800 Y454.596 Z1.000 
G0 X118.769 Y454.596 
G1 Z1.000 F18.000 
G2 X116.831 Y454.596 Z-1.842 I-0.969 J0.000 F18.000 
G2 X118.769 Y454.596 Z-4.683 I0.969 J0.000 F18.000 
G2 X116.831 Y454.596 Z-7.525 I-0.969 J0.000 F18.000 
G2 X118.769 Y454.596 Z-10.367 I0.969 J0.000 F18.000 
G2 X116.831 Y454.596 Z-13.208 I-0.969 J0.000 F18.000 
G2 X118.769 Y454.596 Z-16.050 I0.969 J0.000 F18.000 
G2 X116.831 Y454.596 Z-16.050 I-0.969 J0.000 F18.000 
G2 X118.769 Y454.596 Z-16.050 I0.969 J0.000 F18.000 
G0 X117.800 Y454.596 Z-16.050 
G0 Z1.000 
G0 Z6.000 
G0 X117.800 Y530.796 Z6.000 
G0 X117.800 Y530.796 Z1.000 
G0 X118.769 Y530.796 
G1 Z1.000 F18.000 
G2 X116.831 Y530.796 Z-1.842 I-0.969 J0.000 F18.000 
G2 X118.769 Y530.796 Z-4.683 I0.969 J0.000 F18.000 
G2 X116.831 Y530.796 Z-7.525 I-0.969 J0.000 F18.000 
G2 X118.769 Y530.796 Z-10.367 I0.969 J0.000 F18.000 
G2 X116.831 Y530.796 Z-13.208 I-0.969 J0.000 F18.000 
G2 X118.769 Y530.796 Z-16.050 I0.969 J0.000 F18.000 
G2 X116.831 Y530.796 Z-16.050 I-0.969 J0.000 F18.000 
G2 X118.769 Y530.796 Z-16.050 I0.969 J0.000 F18.000 
G0 X117.800 Y530.796 Z-16.050 
G0 Z1.000 
G0 Z6.000 
G0 X117.800 Y606.996 Z6.000 
G0 X117.800 Y606.996 Z1.000 
G0 X118.769 Y606.996 
G1 Z1.000 F18.000 
G2 X116.831 Y606.996 Z-1.842 I-0.969 J0.000 F18.000 
G2 X118.769 Y606.996 Z-4.683 I0.969 J0.000 F18.000 
G2 X116.831 Y606.996 Z-7.525 I-0.969 J0.000 F18.000 
G2 X118.769 Y606.996 Z-10.367 I0.969 J0.000 F18.000 
G2 X116.831 Y606.996 Z-13.208 I-0.969 J0.000 F18.000 
G2 X118.769 Y606.996 Z-16.050 I0.969 J0.000 F18.000 
G2 X116.831 Y606.996 Z-16.050 I-0.969 J0.000 F18.000 
G2 X118.769 Y606.996 Z-16.050 I0.969 J0.000 F18.000 
G0 X117.800 Y606.996 Z-16.050 
G0 Z1.000 
G0 Z6.000 
G0 X117.800 Y683.196 Z6.000 
G0 X117.800 Y683.196 Z1.000 
G0 X118.769 Y683.196 
G1 Z1.000 F18.000 
G2 X116.831 Y683.196 Z-1.842 I-0.969 J0.000 F18.000 
G2 X118.769 Y683.196 Z-4.683 I0.969 J0.000 F18.000 
G2 X116.831 Y683.196 Z-7.525 I-0.969 J0.000 F18.000 
G2 X118.769 Y683.196 Z-10.367 I0.969 J0.000 F18.000 
G2 X116.831 Y683.196 Z-13.208 I-0.969 J0.000 F18.000 
G2 X118.769 Y683.196 Z-16.050 I0.969 J0.000 F18.000 
G2 X116.831 Y683.196 Z-16.050 I-0.969 J0.000 F18.000 
G2 X118.769 Y683.196 Z-16.050 I0.969 J0.000 F18.000 
G0 X117.800 Y683.196 Z-16.050 
G0 Z1.000 
G0 Z6.000 
G0 X117.800 Y759.396 Z6.000 
G0 X117.800 Y759.396 Z1.000 
G0 X118.769 Y759.396 
G1 Z1.000 F18.000 
G2 X116.831 Y759.396 Z-1.842 I-0.969 J0.000 F18.000 
G2 X118.769 Y759.396 Z-4.683 I0.969 J0.000 F18.000 
G2 X116.831 Y759.396 Z-7.525 I-0.969 J0.000 F18.000 
G2 X118.769 Y759.396 Z-10.367 I0.969 J0.000 F18.000 
G2 X116.831 Y759.396 Z-13.208 I-0.969 J0.000 F18.000 
G2 X118.769 Y759.396 Z-16.050 I0.969 J0.000 F18.000 
G2 X116.831 Y759.396 Z-16.050 I-0.969 J0.000 F18.000 
G2 X118.769 Y759.396 Z-16.050 I0.969 J0.000 F18.000 
G0 X117.800 Y759.396 Z-16.050 
G0 Z1.000 
G0 Z6.000 
G0 X117.800 Y835.596 Z6.000 
G0 X117.800 Y835.596 Z1.000 
G0 X118.769 Y835.596 
G1 Z1.000 F18.000 
G2 X116.831 Y835.596 Z-1.842 I-0.969 J0.000 F18.000 
G2 X118.769 Y835.596 Z-4.683 I0.969 J0.000 F18.000 
G2 X116.831 Y835.596 Z-7.525 I-0.969 J0.000 F18.000 
G2 X118.769 Y835.596 Z-10.367 I0.969 J0.000 F18.000 
G2 X116.831 Y835.596 Z-13.208 I-0.969 J0.000 F18.000 
G2 X118.769 Y835.596 Z-16.050 I0.969 J0.000 F18.000 
G2 X116.831 Y835.596 Z-16.050 I-0.969 J0.000 F18.000 
G2 X118.769 Y835.596 Z-16.050 I0.969 J0.000 F18.000 
G0 X117.800 Y835.596 Z-16.050 
G0 Z1.000 
G0 Z6.000 
G0 X194.000 Y835.596 Z6.000 
G0 X194.000 Y835.596 Z1.000 
G0 X194.969 Y835.596 
G1 Z1.000 F18.000 
G2 X193.031 Y835.596 Z-1.842 I-0.969 J0.000 F18.000 
G2 X194.969 Y835.596 Z-4.683 I0.969 J0.000 F18.000 
G2 X193.031 Y835.596 Z-7.525 I-0.969 J0.000 F18.000 
G2 X194.969 Y835.596 Z-10.367 I0.969 J0.000 F18.000 
G2 X193.031 Y835.596 Z-13.208 I-0.969 J0.000 F18.000 
G2 X194.969 Y835.596 Z-16.050 I0.969 J0.000 F18.000 
G2 X193.031 Y835.596 Z-16.050 I-0.969 J0.000 F18.000 
G2 X194.969 Y835.596 Z-16.050 I0.969 J0.000 F18.000 
G0 X194.000 Y835.596 Z-16.050 
G0 Z1.000 
G0 Z6.000 
G0 X194.000 Y759.396 Z6.000 
G0 X194.000 Y759.396 Z1.000 
G0 X194.969 Y759.396 
G1 Z1.000 F18.000 
G2 X193.031 Y759.396 Z-1.842 I-0.969 J0.000 F18.000 
G2 X194.969 Y759.396 Z-4.683 I0.969 J0.000 F18.000 
G2 X193.031 Y759.396 Z-7.525 I-0.969 J0.000 F18.000 
G2 X194.969 Y759.396 Z-10.367 I0.969 J0.000 F18.000 
G2 X193.031 Y759.396 Z-13.208 I-0.969 J0.000 F18.000 
G2 X194.969 Y759.396 Z-16.050 I0.969 J0.000 F18.000 
G2 X193.031 Y759.396 Z-16.050 I-0.969 J0.000 F18.000 
G2 X194.969 Y759.396 Z-16.050 I0.969 J0.000 F18.000 
G0 X194.000 Y759.396 Z-16.050 
G0 Z1.000 
G0 Z6.000 
G0 X270.200 Y759.396 Z6.000 
G0 X270.200 Y759.396 Z1.000 
G0 X271.169 Y759.396 
G1 Z1.000 F18.000 
G2 X269.231 Y759.396 Z-1.842 I-0.969 J0.000 F18.000 
G2 X271.169 Y759.396 Z-4.683 I0.969 J0.000 F18.000 
G2 X269.231 Y759.396 Z-7.525 I-0.969 J0.000 F18.000 
G2 X271.169 Y759.396 Z-10.367 I0.969 J0.000 F18.000 
G2 X269.231 Y759.396 Z-13.208 I-0.969 J0.000 F18.000 
G2 X271.169 Y759.396 Z-16.050 I0.969 J0.000 F18.000 
G2 X269.231 Y759.396 Z-16.050 I-0.969 J0.000 F18.000 
G2 X271.169 Y759.396 Z-16.050 I0.969 J0.000 F18.000 
G0 X270.200 Y759.396 Z-16.050 
G0 Z1.000 
G0 Z6.000 
G0 X270.200 Y683.196 Z6.000 
G0 X270.200 Y683.196 Z1.000 
G0 X271.169 Y683.196 
G1 Z1.000 F18.000 
G2 X269.231 Y683.196 Z-1.842 I-0.969 J0.000 F18.000 
G2 X271.169 Y683.196 Z-4.683 I0.969 J0.000 F18.000 
G2 X269.231 Y683.196 Z-7.525 I-0.969 J0.000 F18.000 
G2 X271.169 Y683.196 Z-10.367 I0.969 J0.000 F18.000 
G2 X269.231 Y683.196 Z-13.208 I-0.969 J0.000 F18.000 
G2 X271.169 Y683.196 Z-16.050 I0.969 J0.000 F18.000 
G2 X269.231 Y683.196 Z-16.050 I-0.969 J0.000 F18.000 
G2 X271.169 Y683.196 Z-16.050 I0.969 J0.000 F18.000 
G0 X270.200 Y683.196 Z-16.050 
G0 Z1.000 
G0 Z6.000 
G0 X270.200 Y606.996 Z6.000 
G0 X270.200 Y606.996 Z1.000 
G0 X271.169 Y606.996 
G1 Z1.000 F18.000 
G2 X269.231 Y606.996 Z-1.842 I-0.969 J0.000 F18.000 
G2 X271.169 Y606.996 Z-4.683 I0.969 J0.000 F18.000 
G2 X269.231 Y606.996 Z-7.525 I-0.969 J0.000 F18.000 
G2 X271.169 Y606.996 Z-10.367 I0.969 J0.000 F18.000 
G2 X269.231 Y606.996 Z-13.208 I-0.969 J0.000 F18.000 
G2 X271.169 Y606.996 Z-16.050 I0.969 J0.000 F18.000 
G2 X269.231 Y606.996 Z-16.050 I-0.969 J0.000 F18.000 
G2 X271.169 Y606.996 Z-16.050 I0.969 J0.000 F18.000 
G0 X270.200 Y606.996 Z-16.050 
G0 Z1.000 
G0 Z6.000 
G0 X194.000 Y606.996 Z6.000 
G0 X194.000 Y606.996 Z1.000 
G0 X194.969 Y606.996 
G1 Z1.000 F18.000 
G2 X193.031 Y606.996 Z-1.842 I-0.969 J0.000 F18.000 
G2 X194.969 Y606.996 Z-4.683 I0.969 J0.000 F18.000 
G2 X193.031 Y606.996 Z-7.525 I-0.969 J0.000 F18.000 
G2 X194.969 Y606.996 Z-10.367 I0.969 J0.000 F18.000 
G2 X193.031 Y606.996 Z-13.208 I-0.969 J0.000 F18.000 
G2 X194.969 Y606.996 Z-16.050 I0.969 J0.000 F18.000 
G2 X193.031 Y606.996 Z-16.050 I-0.969 J0.000 F18.000 
G2 X194.969 Y606.996 Z-16.050 I0.969 J0.000 F18.000 
G0 X194.000 Y606.996 Z-16.050 
G0 Z1.000 
G0 Z6.000 
G0 X194.000 Y530.796 Z6.000 
G0 X194.000 Y530.796 Z1.000 
G0 X194.969 Y530.796 
G1 Z1.000 F18.000 
G2 X193.031 Y530.796 Z-1.842 I-0.969 J0.000 F18.000 
G2 X194.969 Y530.796 Z-4.683 I0.969 J0.000 F18.000 
G2 X193.031 Y530.796 Z-7.525 I-0.969 J0.000 F18.000 
G2 X194.969 Y530.796 Z-10.367 I0.969 J0.000 F18.000 
G2 X193.031 Y530.796 Z-13.208 I-0.969 J0.000 F18.000 
G2 X194.969 Y530.796 Z-16.050 I0.969 J0.000 F18.000 
G2 X193.031 Y530.796 Z-16.050 I-0.969 J0.000 F18.000 
G2 X194.969 Y530.796 Z-16.050 I0.969 J0.000 F18.000 
G0 X194.000 Y530.796 Z-16.050 
G0 Z1.000 
G0 Z6.000 
G0 X270.200 Y530.796 Z6.000 
G0 X270.200 Y530.796 Z1.000 
G0 X271.169 Y530.796 
G1 Z1.000 F18.000 
G2 X269.231 Y530.796 Z-1.842 I-0.969 J0.000 F18.000 
G2 X271.169 Y530.796 Z-4.683 I0.969 J0.000 F18.000 
G2 X269.231 Y530.796 Z-7.525 I-0.969 J0.000 F18.000 
G2 X271.169 Y530.796 Z-10.367 I0.969 J0.000 F18.000 
G2 X269.231 Y530.796 Z-13.208 I-0.969 J0.000 F18.000 
G2 X271.169 Y530.796 Z-16.050 I0.969 J0.000 F18.000 
G2 X269.231 Y530.796 Z-16.050 I-0.969 J0.000 F18.000 
G2 X271.169 Y530.796 Z-16.050 I0.969 J0.000 F18.000 
G0 X270.200 Y530.796 Z-16.050 
G0 Z1.000 
G0 Z6.000 
G0 X270.200 Y454.596 Z6.000 
G0 X270.200 Y454.596 Z1.000 
G0 X271.169 Y454.596 
G1 Z1.000 F18.000 
G2 X269.231 Y454.596 Z-1.842 I-0.969 J0.000 F18.000 
G2 X271.169 Y454.596 Z-4.683 I0.969 J0.000 F18.000 
G2 X269.231 Y454.596 Z-7.525 I-0.969 J0.000 F18.000 
G2 X271.169 Y454.596 Z-10.367 I0.969 J0.000 F18.000 
G2 X269.231 Y454.596 Z-13.208 I-0.969 J0.000 F18.000 
G2 X271.169 Y454.596 Z-16.050 I0.969 J0.000 F18.000 
G2 X269.231 Y454.596 Z-16.050 I-0.969 J0.000 F18.000 
G2 X271.169 Y454.596 Z-16.050 I0.969 J0.000 F18.000 
G0 X270.200 Y454.596 Z-16.050 
G0 Z1.000 
G0 Z6.000 
G0 X270.200 Y378.396 Z6.000 
G0 X270.200 Y378.396 Z1.000 
G0 X271.169 Y378.396 
G1 Z1.000 F18.000 
G2 X269.231 Y378.396 Z-1.842 I-0.969 J0.000 F18.000 
G2 X271.169 Y378.396 Z-4.683 I0.969 J0.000 F18.000 
G2 X269.231 Y378.396 Z-7.525 I-0.969 J0.000 F18.000 
G2 X271.169 Y378.396 Z-10.367 I0.969 J0.000 F18.000 
G2 X269.231 Y378.396 Z-13.208 I-0.969 J0.000 F18.000 
G2 X271.169 Y378.396 Z-16.050 I0.969 J0.000 F18.000 
G2 X269.231 Y378.396 Z-16.050 I-0.969 J0.000 F18.000 
G2 X271.169 Y378.396 Z-16.050 I0.969 J0.000 F18.000 
G0 X270.200 Y378.396 Z-16.050 
G0 Z1.000 
G0 Z6.000 
G0 X194.000 Y378.396 Z6.000 
G0 X194.000 Y378.396 Z1.000 
G0 X194.969 Y378.396 
G1 Z1.000 F18.000 
G2 X193.031 Y378.396 Z-1.842 I-0.969 J0.000 F18.000 
G2 X194.969 Y378.396 Z-4.683 I0.969 J0.000 F18.000 
G2 X193.031 Y378.396 Z-7.525 I-0.969 J0.000 F18.000 
G2 X194.969 Y378.396 Z-10.367 I0.969 J0.000 F18.000 
G2 X193.031 Y378.396 Z-13.208 I-0.969 J0.000 F18.000 
G2 X194.969 Y378.396 Z-16.050 I0.969 J0.000 F18.000 
G2 X193.031 Y378.396 Z-16.050 I-0.969 J0.000 F18.000 
G2 X194.969 Y378.396 Z-16.050 I0.969 J0.000 F18.000 
G0 X194.000 Y378.396 Z-16.050 
G0 Z1.000 
G0 Z6.000 
G0 X194.000 Y302.196 Z6.000 
G0 X194.000 Y302.196 Z1.000 
G0 X194.969 Y302.196 
G1 Z1.000 F18.000 
G2 X193.031 Y302.196 Z-1.842 I-0.969 J0.000 F18.000 
G2 X194.969 Y302.196 Z-4.683 I0.969 J0.000 F18.000 
G2 X193.031 Y302.196 Z-7.525 I-0.969 J0.000 F18.000 
G2 X194.969 Y302.196 Z-10.367 I0.969 J0.000 F18.000 
G2 X193.031 Y302.196 Z-13.208 I-0.969 J0.000 F18.000 
G2 X194.969 Y302.196 Z-16.050 I0.969 J0.000 F18.000 
G2 X193.031 Y302.196 Z-16.050 I-0.969 J0.000 F18.000 
G2 X194.969 Y302.196 Z-16.050 I0.969 J0.000 F18.000 
G0 X194.000 Y302.196 Z-16.050 
G0 Z1.000 
G0 Z6.000 
G0 X270.200 Y302.196 Z6.000 
G0 X270.200 Y302.196 Z1.000 
G0 X271.169 Y302.196 
G1 Z1.000 F18.000 
G2 X269.231 Y302.196 Z-1.842 I-0.969 J0.000 F18.000 
G2 X271.169 Y302.196 Z-4.683 I0.969 J0.000 F18.000 
G2 X269.231 Y302.196 Z-7.525 I-0.969 J0.000 F18.000 
G2 X271.169 Y302.196 Z-10.367 I0.969 J0.000 F18.000 
G2 X269.231 Y302.196 Z-13.208 I-0.969 J0.000 F18.000 
G2 X271.169 Y302.196 Z-16.050 I0.969 J0.000 F18.000 
G2 X269.231 Y302.196 Z-16.050 I-0.969 J0.000 F18.000 
G2 X271.169 Y302.196 Z-16.050 I0.969 J0.000 F18.000 
G0 X270.200 Y302.196 Z-16.050 
G0 Z1.000 
G0 Z6.000 
G0 X270.200 Y225.996 Z6.000 
G0 X270.200 Y225.996 Z1.000 
G0 X271.169 Y225.996 
G1 Z1.000 F18.000 
G2 X269.231 Y225.996 Z-1.842 I-0.969 J0.000 F18.000 
G2 X271.169 Y225.996 Z-4.683 I0.969 J0.000 F18.000 
G2 X269.231 Y225.996 Z-7.525 I-0.969 J0.000 F18.000 
G2 X271.169 Y225.996 Z-10.367 I0.969 J0.000 F18.000 
G2 X269.231 Y225.996 Z-13.208 I-0.969 J0.000 F18.000 
G2 X271.169 Y225.996 Z-16.050 I0.969 J0.000 F18.000 
G2 X269.231 Y225.996 Z-16.050 I-0.969 J0.000 F18.000 
G2 X271.169 Y225.996 Z-16.050 I0.969 J0.000 F18.000 
G0 X270.200 Y225.996 Z-16.050 
G0 Z1.000 
G0 Z6.000 
G0 X270.200 Y149.796 Z6.000 
G0 X270.200 Y149.796 Z1.000 
G0 X271.169 Y149.796 
G1 Z1.000 F18.000 
G2 X269.231 Y149.796 Z-1.842 I-0.969 J0.000 F18.000 
G2 X271.169 Y149.796 Z-4.683 I0.969 J0.000 F18.000 
G2 X269.231 Y149.796 Z-7.525 I-0.969 J0.000 F18.000 
G2 X271.169 Y149.796 Z-10.367 I0.969 J0.000 F18.000 
G2 X269.231 Y149.796 Z-13.208 I-0.969 J0.000 F18.000 
G2 X271.169 Y149.796 Z-16.050 I0.969 J0.000 F18.000 
G2 X269.231 Y149.796 Z-16.050 I-0.969 J0.000 F18.000 
G2 X271.169 Y149.796 Z-16.050 I0.969 J0.000 F18.000 
G0 X270.200 Y149.796 Z-16.050 
G0 Z1.000 
G0 Z6.000 
G0 X194.000 Y149.796 Z6.000 
G0 X194.000 Y149.796 Z1.000 
G0 X194.969 Y149.796 
G1 Z1.000 F18.000 
G2 X193.031 Y149.796 Z-1.842 I-0.969 J0.000 F18.000 
G2 X194.969 Y149.796 Z-4.683 I0.969 J0.000 F18.000 
G2 X193.031 Y149.796 Z-7.525 I-0.969 J0.000 F18.000 
G2 X194.969 Y149.796 Z-10.367 I0.969 J0.000 F18.000 
G2 X193.031 Y149.796 Z-13.208 I-0.969 J0.000 F18.000 
G2 X194.969 Y149.796 Z-16.050 I0.969 J0.000 F18.000 
G2 X193.031 Y149.796 Z-16.050 I-0.969 J0.000 F18.000 
G2 X194.969 Y149.796 Z-16.050 I0.969 J0.000 F18.000 
G0 X194.000 Y149.796 Z-16.050 
G0 Z1.000 
G0 Z6.000 
G0 X397.200 Y149.796 Z6.000 
G0 X397.200 Y149.796 Z1.000 
G0 X398.169 Y149.796 
G1 Z1.000 F18.000 
G2 X396.231 Y149.796 Z-1.842 I-0.969 J0.000 F18.000 
G2 X398.169 Y149.796 Z-4.683 I0.969 J0.000 F18.000 
G2 X396.231 Y149.796 Z-7.525 I-0.969 J0.000 F18.000 
G2 X398.169 Y149.796 Z-10.367 I0.969 J0.000 F18.000 
G2 X396.231 Y149.796 Z-13.208 I-0.969 J0.000 F18.000 
G2 X398.169 Y149.796 Z-16.050 I0.969 J0.000 F18.000 
G2 X396.231 Y149.796 Z-16.050 I-0.969 J0.000 F18.000 
G2 X398.169 Y149.796 Z-16.050 I0.969 J0.000 F18.000 
G0 X397.200 Y149.796 Z-16.050 
G0 Z1.000 
G0 Z6.000 
G0 X397.200 Y225.996 Z6.000 
G0 X397.200 Y225.996 Z1.000 
G0 X398.169 Y225.996 
G1 Z1.000 F18.000 
G2 X396.231 Y225.996 Z-1.842 I-0.969 J0.000 F18.000 
G2 X398.169 Y225.996 Z-4.683 I0.969 J0.000 F18.000 
G2 X396.231 Y225.996 Z-7.525 I-0.969 J0.000 F18.000 
G2 X398.169 Y225.996 Z-10.367 I0.969 J0.000 F18.000 
G2 X396.231 Y225.996 Z-13.208 I-0.969 J0.000 F18.000 
G2 X398.169 Y225.996 Z-16.050 I0.969 J0.000 F18.000 
G2 X396.231 Y225.996 Z-16.050 I-0.969 J0.000 F18.000 
G2 X398.169 Y225.996 Z-16.050 I0.969 J0.000 F18.000 
G0 X397.200 Y225.996 Z-16.050 
G0 Z1.000 
G0 Z6.000 
G0 X397.200 Y302.196 Z6.000 
G0 X397.200 Y302.196 Z1.000 
G0 X398.169 Y302.196 
G1 Z1.000 F18.000 
G2 X396.231 Y302.196 Z-1.842 I-0.969 J0.000 F18.000 
G2 X398.169 Y302.196 Z-4.683 I0.969 J0.000 F18.000 
G2 X396.231 Y302.196 Z-7.525 I-0.969 J0.000 F18.000 
G2 X398.169 Y302.196 Z-10.367 I0.969 J0.000 F18.000 
G2 X396.231 Y302.196 Z-13.208 I-0.969 J0.000 F18.000 
G2 X398.169 Y302.196 Z-16.050 I0.969 J0.000 F18.000 
G2 X396.231 Y302.196 Z-16.050 I-0.969 J0.000 F18.000 
G2 X398.169 Y302.196 Z-16.050 I0.969 J0.000 F18.000 
G0 X397.200 Y302.196 Z-16.050 
G0 Z1.000 
G0 Z6.000 
G0 X397.200 Y378.396 Z6.000 
G0 X397.200 Y378.396 Z1.000 
G0 X398.169 Y378.396 
G1 Z1.000 F18.000 
G2 X396.231 Y378.396 Z-1.842 I-0.969 J0.000 F18.000 
G2 X398.169 Y378.396 Z-4.683 I0.969 J0.000 F18.000 
G2 X396.231 Y378.396 Z-7.525 I-0.969 J0.000 F18.000 
G2 X398.169 Y378.396 Z-10.367 I0.969 J0.000 F18.000 
G2 X396.231 Y378.396 Z-13.208 I-0.969 J0.000 F18.000 
G2 X398.169 Y378.396 Z-16.050 I0.969 J0.000 F18.000 
G2 X396.231 Y378.396 Z-16.050 I-0.969 J0.000 F18.000 
G2 X398.169 Y378.396 Z-16.050 I0.969 J0.000 F18.000 
G0 X397.200 Y378.396 Z-16.050 
G0 Z1.000 
G0 Z6.000 
G0 X397.200 Y454.596 Z6.000 
G0 X397.200 Y454.596 Z1.000 
G0 X398.169 Y454.596 
G1 Z1.000 F18.000 
G2 X396.231 Y454.596 Z-1.842 I-0.969 J0.000 F18.000 
G2 X398.169 Y454.596 Z-4.683 I0.969 J0.000 F18.000 
G2 X396.231 Y454.596 Z-7.525 I-0.969 J0.000 F18.000 
G2 X398.169 Y454.596 Z-10.367 I0.969 J0.000 F18.000 
G2 X396.231 Y454.596 Z-13.208 I-0.969 J0.000 F18.000 
G2 X398.169 Y454.596 Z-16.050 I0.969 J0.000 F18.000 
G2 X396.231 Y454.596 Z-16.050 I-0.969 J0.000 F18.000 
G2 X398.169 Y454.596 Z-16.050 I0.969 J0.000 F18.000 
G0 X397.200 Y454.596 Z-16.050 
G0 Z1.000 
G0 Z6.000 
G0 X397.200 Y530.796 Z6.000 
G0 X397.200 Y530.796 Z1.000 
G0 X398.169 Y530.796 
G1 Z1.000 F18.000 
G2 X396.231 Y530.796 Z-1.842 I-0.969 J0.000 F18.000 
G2 X398.169 Y530.796 Z-4.683 I0.969 J0.000 F18.000 
G2 X396.231 Y530.796 Z-7.525 I-0.969 J0.000 F18.000 
G2 X398.169 Y530.796 Z-10.367 I0.969 J0.000 F18.000 
G2 X396.231 Y530.796 Z-13.208 I-0.969 J0.000 F18.000 
G2 X398.169 Y530.796 Z-16.050 I0.969 J0.000 F18.000 
G2 X396.231 Y530.796 Z-16.050 I-0.969 J0.000 F18.000 
G2 X398.169 Y530.796 Z-16.050 I0.969 J0.000 F18.000 
G0 X397.200 Y530.796 Z-16.050 
G0 Z1.000 
G0 Z6.000 
G0 X397.200 Y606.996 Z6.000 
G0 X397.200 Y606.996 Z1.000 
G0 X398.169 Y606.996 
G1 Z1.000 F18.000 
G2 X396.231 Y606.996 Z-1.842 I-0.969 J0.000 F18.000 
G2 X398.169 Y606.996 Z-4.683 I0.969 J0.000 F18.000 
G2 X396.231 Y606.996 Z-7.525 I-0.969 J0.000 F18.000 
G2 X398.169 Y606.996 Z-10.367 I0.969 J0.000 F18.000 
G2 X396.231 Y606.996 Z-13.208 I-0.969 J0.000 F18.000 
G2 X398.169 Y606.996 Z-16.050 I0.969 J0.000 F18.000 
G2 X396.231 Y606.996 Z-16.050 I-0.969 J0.000 F18.000 
G2 X398.169 Y606.996 Z-16.050 I0.969 J0.000 F18.000 
G0 X397.200 Y606.996 Z-16.050 
G0 Z1.000 
G0 Z6.000 
G0 X397.200 Y683.196 Z6.000 
G0 X397.200 Y683.196 Z1.000 
G0 X398.169 Y683.196 
G1 Z1.000 F18.000 
G2 X396.231 Y683.196 Z-1.842 I-0.969 J0.000 F18.000 
G2 X398.169 Y683.196 Z-4.683 I0.969 J0.000 F18.000 
G2 X396.231 Y683.196 Z-7.525 I-0.969 J0.000 F18.000 
G2 X398.169 Y683.196 Z-10.367 I0.969 J0.000 F18.000 
G2 X396.231 Y683.196 Z-13.208 I-0.969 J0.000 F18.000 
G2 X398.169 Y683.196 Z-16.050 I0.969 J0.000 F18.000 
G2 X396.231 Y683.196 Z-16.050 I-0.969 J0.000 F18.000 
G2 X398.169 Y683.196 Z-16.050 I0.969 J0.000 F18.000 
G0 X397.200 Y683.196 Z-16.050 
G0 Z1.000 
G0 Z6.000 
G0 X397.200 Y759.396 Z6.000 
G0 X397.200 Y759.396 Z1.000 
G0 X398.169 Y759.396 
G1 Z1.000 F18.000 
G2 X396.231 Y759.396 Z-1.842 I-0.969 J0.000 F18.000 
G2 X398.169 Y759.396 Z-4.683 I0.969 J0.000 F18.000 
G2 X396.231 Y759.396 Z-7.525 I-0.969 J0.000 F18.000 
G2 X398.169 Y759.396 Z-10.367 I0.969 J0.000 F18.000 
G2 X396.231 Y759.396 Z-13.208 I-0.969 J0.000 F18.000 
G2 X398.169 Y759.396 Z-16.050 I0.969 J0.000 F18.000 
G2 X396.231 Y759.396 Z-16.050 I-0.969 J0.000 F18.000 
G2 X398.169 Y759.396 Z-16.050 I0.969 J0.000 F18.000 
G0 X397.200 Y759.396 Z-16.050 
G0 Z1.000 
G0 Z6.000 
G0 X397.200 Y835.596 Z6.000 
G0 X397.200 Y835.596 Z1.000 
G0 X398.169 Y835.596 
G1 Z1.000 F18.000 
G2 X396.231 Y835.596 Z-1.842 I-0.969 J0.000 F18.000 
G2 X398.169 Y835.596 Z-4.683 I0.969 J0.000 F18.000 
G2 X396.231 Y835.596 Z-7.525 I-0.969 J0.000 F18.000 
G2 X398.169 Y835.596 Z-10.367 I0.969 J0.000 F18.000 
G2 X396.231 Y835.596 Z-13.208 I-0.969 J0.000 F18.000 
G2 X398.169 Y835.596 Z-16.050 I0.969 J0.000 F18.000 
G2 X396.231 Y835.596 Z-16.050 I-0.969 J0.000 F18.000 
G2 X398.169 Y835.596 Z-16.050 I0.969 J0.000 F18.000 
G0 X397.200 Y835.596 Z-16.050 
G0 Z1.000 
G0 Z6.000 
G0 X473.400 Y835.596 Z6.000 
G0 X473.400 Y835.596 Z1.000 
G0 X474.369 Y835.596 
G1 Z1.000 F18.000 
G2 X472.431 Y835.596 Z-1.842 I-0.969 J0.000 F18.000 
G2 X474.369 Y835.596 Z-4.683 I0.969 J0.000 F18.000 
G2 X472.431 Y835.596 Z-7.525 I-0.969 J0.000 F18.000 
G2 X474.369 Y835.596 Z-10.367 I0.969 J0.000 F18.000 
G2 X472.431 Y835.596 Z-13.208 I-0.969 J0.000 F18.000 
G2 X474.369 Y835.596 Z-16.050 I0.969 J0.000 F18.000 
G2 X472.431 Y835.596 Z-16.050 I-0.969 J0.000 F18.000 
G2 X474.369 Y835.596 Z-16.050 I0.969 J0.000 F18.000 
G0 X473.400 Y835.596 Z-16.050 
G0 Z1.000 
G0 Z6.000 
G0 X473.400 Y759.396 Z6.000 
G0 X473.400 Y759.396 Z1.000 
G0 X474.369 Y759.396 
G1 Z1.000 F18.000 
G2 X472.431 Y759.396 Z-1.842 I-0.969 J0.000 F18.000 
G2 X474.369 Y759.396 Z-4.683 I0.969 J0.000 F18.000 
G2 X472.431 Y759.396 Z-7.525 I-0.969 J0.000 F18.000 
G2 X474.369 Y759.396 Z-10.367 I0.969 J0.000 F18.000 
G2 X472.431 Y759.396 Z-13.208 I-0.969 J0.000 F18.000 
G2 X474.369 Y759.396 Z-16.050 I0.969 J0.000 F18.000 
G2 X472.431 Y759.396 Z-16.050 I-0.969 J0.000 F18.000 
G2 X474.369 Y759.396 Z-16.050 I0.969 J0.000 F18.000 
G0 X473.400 Y759.396 Z-16.050 
G0 Z1.000 
G0 Z6.000 
G0 X549.600 Y759.396 Z6.000 
G0 X549.600 Y759.396 Z1.000 
G0 X550.569 Y759.396 
G1 Z1.000 F18.000 
G2 X548.631 Y759.396 Z-1.842 I-0.969 J0.000 F18.000 
G2 X550.569 Y759.396 Z-4.683 I0.969 J0.000 F18.000 
G2 X548.631 Y759.396 Z-7.525 I-0.969 J0.000 F18.000 
G2 X550.569 Y759.396 Z-10.367 I0.969 J0.000 F18.000 
G2 X548.631 Y759.396 Z-13.208 I-0.969 J0.000 F18.000 
G2 X550.569 Y759.396 Z-16.050 I0.969 J0.000 F18.000 
G2 X548.631 Y759.396 Z-16.050 I-0.969 J0.000 F18.000 
G2 X550.569 Y759.396 Z-16.050 I0.969 J0.000 F18.000 
G0 X549.600 Y759.396 Z-16.050 
G0 Z1.000 
G0 Z6.000 
G0 X549.600 Y683.196 Z6.000 
G0 X549.600 Y683.196 Z1.000 
G0 X550.569 Y683.196 
G1 Z1.000 F18.000 
G2 X548.631 Y683.196 Z-1.842 I-0.969 J0.000 F18.000 
G2 X550.569 Y683.196 Z-4.683 I0.969 J0.000 F18.000 
G2 X548.631 Y683.196 Z-7.525 I-0.969 J0.000 F18.000 
G2 X550.569 Y683.196 Z-10.367 I0.969 J0.000 F18.000 
G2 X548.631 Y683.196 Z-13.208 I-0.969 J0.000 F18.000 
G2 X550.569 Y683.196 Z-16.050 I0.969 J0.000 F18.000 
G2 X548.631 Y683.196 Z-16.050 I-0.969 J0.000 F18.000 
G2 X550.569 Y683.196 Z-16.050 I0.969 J0.000 F18.000 
G0 X549.600 Y683.196 Z-16.050 
G0 Z1.000 
G0 Z6.000 
G0 X549.600 Y606.996 Z6.000 
G0 X549.600 Y606.996 Z1.000 
G0 X550.569 Y606.996 
G1 Z1.000 F18.000 
G2 X548.631 Y606.996 Z-1.842 I-0.969 J0.000 F18.000 
G2 X550.569 Y606.996 Z-4.683 I0.969 J0.000 F18.000 
G2 X548.631 Y606.996 Z-7.525 I-0.969 J0.000 F18.000 
G2 X550.569 Y606.996 Z-10.367 I0.969 J0.000 F18.000 
G2 X548.631 Y606.996 Z-13.208 I-0.969 J0.000 F18.000 
G2 X550.569 Y606.996 Z-16.050 I0.969 J0.000 F18.000 
G2 X548.631 Y606.996 Z-16.050 I-0.969 J0.000 F18.000 
G2 X550.569 Y606.996 Z-16.050 I0.969 J0.000 F18.000 
G0 X549.600 Y606.996 Z-16.050 
G0 Z1.000 
G0 Z6.000 
G0 X473.400 Y606.996 Z6.000 
G0 X473.400 Y606.996 Z1.000 
G0 X474.369 Y606.996 
G1 Z1.000 F18.000 
G2 X472.431 Y606.996 Z-1.842 I-0.969 J0.000 F18.000 
G2 X474.369 Y606.996 Z-4.683 I0.969 J0.000 F18.000 
G2 X472.431 Y606.996 Z-7.525 I-0.969 J0.000 F18.000 
G2 X474.369 Y606.996 Z-10.367 I0.969 J0.000 F18.000 
G2 X472.431 Y606.996 Z-13.208 I-0.969 J0.000 F18.000 
G2 X474.369 Y606.996 Z-16.050 I0.969 J0.000 F18.000 
G2 X472.431 Y606.996 Z-16.050 I-0.969 J0.000 F18.000 
G2 X474.369 Y606.996 Z-16.050 I0.969 J0.000 F18.000 
G0 X473.400 Y606.996 Z-16.050 
G0 Z1.000 
G0 Z6.000 
G0 X473.400 Y530.796 Z6.000 
G0 X473.400 Y530.796 Z1.000 
G0 X474.369 Y530.796 
G1 Z1.000 F18.000 
G2 X472.431 Y530.796 Z-1.842 I-0.969 J0.000 F18.000 
G2 X474.369 Y530.796 Z-4.683 I0.969 J0.000 F18.000 
G2 X472.431 Y530.796 Z-7.525 I-0.969 J0.000 F18.000 
G2 X474.369 Y530.796 Z-10.367 I0.969 J0.000 F18.000 
G2 X472.431 Y530.796 Z-13.208 I-0.969 J0.000 F18.000 
G2 X474.369 Y530.796 Z-16.050 I0.969 J0.000 F18.000 
G2 X472.431 Y530.796 Z-16.050 I-0.969 J0.000 F18.000 
G2 X474.369 Y530.796 Z-16.050 I0.969 J0.000 F18.000 
G0 X473.400 Y530.796 Z-16.050 
G0 Z1.000 
G0 Z6.000 
G0 X549.600 Y530.796 Z6.000 
G0 X549.600 Y530.796 Z1.000 
G0 X550.569 Y530.796 
G1 Z1.000 F18.000 
G2 X548.631 Y530.796 Z-1.842 I-0.969 J0.000 F18.000 
G2 X550.569 Y530.796 Z-4.683 I0.969 J0.000 F18.000 
G2 X548.631 Y530.796 Z-7.525 I-0.969 J0.000 F18.000 
G2 X550.569 Y530.796 Z-10.367 I0.969 J0.000 F18.000 
G2 X548.631 Y530.796 Z-13.208 I-0.969 J0.000 F18.000 
G2 X550.569 Y530.796 Z-16.050 I0.969 J0.000 F18.000 
G2 X548.631 Y530.796 Z-16.050 I-0.969 J0.000 F18.000 
G2 X550.569 Y530.796 Z-16.050 I0.969 J0.000 F18.000 
G0 X549.600 Y530.796 Z-16.050 
G0 Z1.000 
G0 Z6.000 
G0 X549.600 Y454.596 Z6.000 
G0 X549.600 Y454.596 Z1.000 
G0 X550.569 Y454.596 
G1 Z1.000 F18.000 
G2 X548.631 Y454.596 Z-1.842 I-0.969 J0.000 F18.000 
G2 X550.569 Y454.596 Z-4.683 I0.969 J0.000 F18.000 
G2 X548.631 Y454.596 Z-7.525 I-0.969 J0.000 F18.000 
G2 X550.569 Y454.596 Z-10.367 I0.969 J0.000 F18.000 
G2 X548.631 Y454.596 Z-13.208 I-0.969 J0.000 F18.000 
G2 X550.569 Y454.596 Z-16.050 I0.969 J0.000 F18.000 
G2 X548.631 Y454.596 Z-16.050 I-0.969 J0.000 F18.000 
G2 X550.569 Y454.596 Z-16.050 I0.969 J0.000 F18.000 
G0 X549.600 Y454.596 Z-16.050 
G0 Z1.000 
G0 Z6.000 
G0 X549.600 Y378.396 Z6.000 
G0 X549.600 Y378.396 Z1.000 
G0 X550.569 Y378.396 
G1 Z1.000 F18.000 
G2 X548.631 Y378.396 Z-1.842 I-0.969 J0.000 F18.000 
G2 X550.569 Y378.396 Z-4.683 I0.969 J0.000 F18.000 
G2 X548.631 Y378.396 Z-7.525 I-0.969 J0.000 F18.000 
G2 X550.569 Y378.396 Z-10.367 I0.969 J0.000 F18.000 
G2 X548.631 Y378.396 Z-13.208 I-0.969 J0.000 F18.000 
G2 X550.569 Y378.396 Z-16.050 I0.969 J0.000 F18.000 
G2 X548.631 Y378.396 Z-16.050 I-0.969 J0.000 F18.000 
G2 X550.569 Y378.396 Z-16.050 I0.969 J0.000 F18.000 
G0 X549.600 Y378.396 Z-16.050 
G0 Z1.000 
G0 Z6.000 
G0 X473.400 Y378.396 Z6.000 
G0 X473.400 Y378.396 Z1.000 
G0 X474.369 Y378.396 
G1 Z1.000 F18.000 
G2 X472.431 Y378.396 Z-1.842 I-0.969 J0.000 F18.000 
G2 X474.369 Y378.396 Z-4.683 I0.969 J0.000 F18.000 
G2 X472.431 Y378.396 Z-7.525 I-0.969 J0.000 F18.000 
G2 X474.369 Y378.396 Z-10.367 I0.969 J0.000 F18.000 
G2 X472.431 Y378.396 Z-13.208 I-0.969 J0.000 F18.000 
G2 X474.369 Y378.396 Z-16.050 I0.969 J0.000 F18.000 
G2 X472.431 Y378.396 Z-16.050 I-0.969 J0.000 F18.000 
G2 X474.369 Y378.396 Z-16.050 I0.969 J0.000 F18.000 
G0 X473.400 Y378.396 Z-16.050 
G0 Z1.000 
G0 Z6.000 
G0 X473.400 Y302.196 Z6.000 
G0 X473.400 Y302.196 Z1.000 
G0 X474.369 Y302.196 
G1 Z1.000 F18.000 
G2 X472.431 Y302.196 Z-1.842 I-0.969 J0.000 F18.000 
G2 X474.369 Y302.196 Z-4.683 I0.969 J0.000 F18.000 
G2 X472.431 Y302.196 Z-7.525 I-0.969 J0.000 F18.000 
G2 X474.369 Y302.196 Z-10.367 I0.969 J0.000 F18.000 
G2 X472.431 Y302.196 Z-13.208 I-0.969 J0.000 F18.000 
G2 X474.369 Y302.196 Z-16.050 I0.969 J0.000 F18.000 
G2 X472.431 Y302.196 Z-16.050 I-0.969 J0.000 F18.000 
G2 X474.369 Y302.196 Z-16.050 I0.969 J0.000 F18.000 
G0 X473.400 Y302.196 Z-16.050 
G0 Z1.000 
G0 Z6.000 
G0 X549.600 Y302.196 Z6.000 
G0 X549.600 Y302.196 Z1.000 
G0 X550.569 Y302.196 
G1 Z1.000 F18.000 
G2 X548.631 Y302.196 Z-1.842 I-0.969 J0.000 F18.000 
G2 X550.569 Y302.196 Z-4.683 I0.969 J0.000 F18.000 
G2 X548.631 Y302.196 Z-7.525 I-0.969 J0.000 F18.000 
G2 X550.569 Y302.196 Z-10.367 I0.969 J0.000 F18.000 
G2 X548.631 Y302.196 Z-13.208 I-0.969 J0.000 F18.000 
G2 X550.569 Y302.196 Z-16.050 I0.969 J0.000 F18.000 
G2 X548.631 Y302.196 Z-16.050 I-0.969 J0.000 F18.000 
G2 X550.569 Y302.196 Z-16.050 I0.969 J0.000 F18.000 
G0 X549.600 Y302.196 Z-16.050 
G0 Z1.000 
G0 Z6.000 
G0 X549.600 Y225.996 Z6.000 
G0 X549.600 Y225.996 Z1.000 
G0 X550.569 Y225.996 
G1 Z1.000 F18.000 
G2 X548.631 Y225.996 Z-1.842 I-0.969 J0.000 F18.000 
G2 X550.569 Y225.996 Z-4.683 I0.969 J0.000 F18.000 
G2 X548.631 Y225.996 Z-7.525 I-0.969 J0.000 F18.000 
G2 X550.569 Y225.996 Z-10.367 I0.969 J0.000 F18.000 
G2 X548.631 Y225.996 Z-13.208 I-0.969 J0.000 F18.000 
G2 X550.569 Y225.996 Z-16.050 I0.969 J0.000 F18.000 
G2 X548.631 Y225.996 Z-16.050 I-0.969 J0.000 F18.000 
G2 X550.569 Y225.996 Z-16.050 I0.969 J0.000 F18.000 
G0 X549.600 Y225.996 Z-16.050 
G0 Z1.000 
G0 Z6.000 
G0 X549.600 Y149.796 Z6.000 
G0 X549.600 Y149.796 Z1.000 
G0 X550.569 Y149.796 
G1 Z1.000 F18.000 
G2 X548.631 Y149.796 Z-1.842 I-0.969 J0.000 F18.000 
G2 X550.569 Y149.796 Z-4.683 I0.969 J0.000 F18.000 
G2 X548.631 Y149.796 Z-7.525 I-0.969 J0.000 F18.000 
G2 X550.569 Y149.796 Z-10.367 I0.969 J0.000 F18.000 
G2 X548.631 Y149.796 Z-13.208 I-0.969 J0.000 F18.000 
G2 X550.569 Y149.796 Z-16.050 I0.969 J0.000 F18.000 
G2 X548.631 Y149.796 Z-16.050 I-0.969 J0.000 F18.000 
G2 X550.569 Y149.796 Z-16.050 I0.969 J0.000 F18.000 
G0 X549.600 Y149.796 Z-16.050 
G0 Z1.000 
G0 Z6.000 
G0 X473.400 Y149.796 Z6.000 
G0 X473.400 Y149.796 Z1.000 
G0 X474.369 Y149.796 
G1 Z1.000 F18.000 
G2 X472.431 Y149.796 Z-1.842 I-0.969 J0.000 F18.000 
G2 X474.369 Y149.796 Z-4.683 I0.969 J0.000 F18.000 
G2 X472.431 Y149.796 Z-7.525 I-0.969 J0.000 F18.000 
G2 X474.369 Y149.796 Z-10.367 I0.969 J0.000 F18.000 
G2 X472.431 Y149.796 Z-13.208 I-0.969 J0.000 F18.000 
G2 X474.369 Y149.796 Z-16.050 I0.969 J0.000 F18.000 
G2 X472.431 Y149.796 Z-16.050 I-0.969 J0.000 F18.000 
G2 X474.369 Y149.796 Z-16.050 I0.969 J0.000 F18.000 
G0 X473.400 Y149.796 Z-16.050 
G0 Z1.000 
G0 Z6.000 
G0 X676.600 Y149.796 Z6.000 
G0 X676.600 Y149.796 Z1.000 
G0 X677.569 Y149.796 
G1 Z1.000 F18.000 
G2 X675.631 Y149.796 Z-1.842 I-0.969 J0.000 F18.000 
G2 X677.569 Y149.796 Z-4.683 I0.969 J0.000 F18.000 
G2 X675.631 Y149.796 Z-7.525 I-0.969 J0.000 F18.000 
G2 X677.569 Y149.796 Z-10.367 I0.969 J0.000 F18.000 
G2 X675.631 Y149.796 Z-13.208 I-0.969 J0.000 F18.000 
G2 X677.569 Y149.796 Z-16.050 I0.969 J0.000 F18.000 
G2 X675.631 Y149.796 Z-16.050 I-0.969 J0.000 F18.000 
G2 X677.569 Y149.796 Z-16.050 I0.969 J0.000 F18.000 
G0 X676.600 Y149.796 Z-16.050 
G0 Z1.000 
G0 Z6.000 
G0 X676.600 Y225.996 Z6.000 
G0 X676.600 Y225.996 Z1.000 
G0 X677.569 Y225.996 
G1 Z1.000 F18.000 
G2 X675.631 Y225.996 Z-1.842 I-0.969 J0.000 F18.000 
G2 X677.569 Y225.996 Z-4.683 I0.969 J0.000 F18.000 
G2 X675.631 Y225.996 Z-7.525 I-0.969 J0.000 F18.000 
G2 X677.569 Y225.996 Z-10.367 I0.969 J0.000 F18.000 
G2 X675.631 Y225.996 Z-13.208 I-0.969 J0.000 F18.000 
G2 X677.569 Y225.996 Z-16.050 I0.969 J0.000 F18.000 
G2 X675.631 Y225.996 Z-16.050 I-0.969 J0.000 F18.000 
G2 X677.569 Y225.996 Z-16.050 I0.969 J0.000 F18.000 
G0 X676.600 Y225.996 Z-16.050 
G0 Z1.000 
G0 Z6.000 
G0 X676.600 Y302.196 Z6.000 
G0 X676.600 Y302.196 Z1.000 
G0 X677.569 Y302.196 
G1 Z1.000 F18.000 
G2 X675.631 Y302.196 Z-1.842 I-0.969 J0.000 F18.000 
G2 X677.569 Y302.196 Z-4.683 I0.969 J0.000 F18.000 
G2 X675.631 Y302.196 Z-7.525 I-0.969 J0.000 F18.000 
G2 X677.569 Y302.196 Z-10.367 I0.969 J0.000 F18.000 
G2 X675.631 Y302.196 Z-13.208 I-0.969 J0.000 F18.000 
G2 X677.569 Y302.196 Z-16.050 I0.969 J0.000 F18.000 
G2 X675.631 Y302.196 Z-16.050 I-0.969 J0.000 F18.000 
G2 X677.569 Y302.196 Z-16.050 I0.969 J0.000 F18.000 
G0 X676.600 Y302.196 Z-16.050 
G0 Z1.000 
G0 Z6.000 
G0 X676.600 Y378.396 Z6.000 
G0 X676.600 Y378.396 Z1.000 
G0 X677.569 Y378.396 
G1 Z1.000 F18.000 
G2 X675.631 Y378.396 Z-1.842 I-0.969 J0.000 F18.000 
G2 X677.569 Y378.396 Z-4.683 I0.969 J0.000 F18.000 
G2 X675.631 Y378.396 Z-7.525 I-0.969 J0.000 F18.000 
G2 X677.569 Y378.396 Z-10.367 I0.969 J0.000 F18.000 
G2 X675.631 Y378.396 Z-13.208 I-0.969 J0.000 F18.000 
G2 X677.569 Y378.396 Z-16.050 I0.969 J0.000 F18.000 
G2 X675.631 Y378.396 Z-16.050 I-0.969 J0.000 F18.000 
G2 X677.569 Y378.396 Z-16.050 I0.969 J0.000 F18.000 
G0 X676.600 Y378.396 Z-16.050 
G0 Z1.000 
G0 Z6.000 
G0 X676.600 Y454.596 Z6.000 
G0 X676.600 Y454.596 Z1.000 
G0 X677.569 Y454.596 
G1 Z1.000 F18.000 
G2 X675.631 Y454.596 Z-1.842 I-0.969 J0.000 F18.000 
G2 X677.569 Y454.596 Z-4.683 I0.969 J0.000 F18.000 
G2 X675.631 Y454.596 Z-7.525 I-0.969 J0.000 F18.000 
G2 X677.569 Y454.596 Z-10.367 I0.969 J0.000 F18.000 
G2 X675.631 Y454.596 Z-13.208 I-0.969 J0.000 F18.000 
G2 X677.569 Y454.596 Z-16.050 I0.969 J0.000 F18.000 
G2 X675.631 Y454.596 Z-16.050 I-0.969 J0.000 F18.000 
G2 X677.569 Y454.596 Z-16.050 I0.969 J0.000 F18.000 
G0 X676.600 Y454.596 Z-16.050 
G0 Z1.000 
G0 Z6.000 
G0 X676.600 Y530.796 Z6.000 
G0 X676.600 Y530.796 Z1.000 
G0 X677.569 Y530.796 
G1 Z1.000 F18.000 
G2 X675.631 Y530.796 Z-1.842 I-0.969 J0.000 F18.000 
G2 X677.569 Y530.796 Z-4.683 I0.969 J0.000 F18.000 
G2 X675.631 Y530.796 Z-7.525 I-0.969 J0.000 F18.000 
G2 X677.569 Y530.796 Z-10.367 I0.969 J0.000 F18.000 
G2 X675.631 Y530.796 Z-13.208 I-0.969 J0.000 F18.000 
G2 X677.569 Y530.796 Z-16.050 I0.969 J0.000 F18.000 
G2 X675.631 Y530.796 Z-16.050 I-0.969 J0.000 F18.000 
G2 X677.569 Y530.796 Z-16.050 I0.969 J0.000 F18.000 
G0 X676.600 Y530.796 Z-16.050 
G0 Z1.000 
G0 Z6.000 
G0 X676.600 Y606.996 Z6.000 
G0 X676.600 Y606.996 Z1.000 
G0 X677.569 Y606.996 
G1 Z1.000 F18.000 
G2 X675.631 Y606.996 Z-1.842 I-0.969 J0.000 F18.000 
G2 X677.569 Y606.996 Z-4.683 I0.969 J0.000 F18.000 
G2 X675.631 Y606.996 Z-7.525 I-0.969 J0.000 F18.000 
G2 X677.569 Y606.996 Z-10.367 I0.969 J0.000 F18.000 
G2 X675.631 Y606.996 Z-13.208 I-0.969 J0.000 F18.000 
G2 X677.569 Y606.996 Z-16.050 I0.969 J0.000 F18.000 
G2 X675.631 Y606.996 Z-16.050 I-0.969 J0.000 F18.000 
G2 X677.569 Y606.996 Z-16.050 I0.969 J0.000 F18.000 
G0 X676.600 Y606.996 Z-16.050 
G0 Z1.000 
G0 Z6.000 
G0 X676.600 Y683.196 Z6.000 
G0 X676.600 Y683.196 Z1.000 
G0 X677.569 Y683.196 
G1 Z1.000 F18.000 
G2 X675.631 Y683.196 Z-1.842 I-0.969 J0.000 F18.000 
G2 X677.569 Y683.196 Z-4.683 I0.969 J0.000 F18.000 
G2 X675.631 Y683.196 Z-7.525 I-0.969 J0.000 F18.000 
G2 X677.569 Y683.196 Z-10.367 I0.969 J0.000 F18.000 
G2 X675.631 Y683.196 Z-13.208 I-0.969 J0.000 F18.000 
G2 X677.569 Y683.196 Z-16.050 I0.969 J0.000 F18.000 
G2 X675.631 Y683.196 Z-16.050 I-0.969 J0.000 F18.000 
G2 X677.569 Y683.196 Z-16.050 I0.969 J0.000 F18.000 
G0 X676.600 Y683.196 Z-16.050 
G0 Z1.000 
G0 Z6.000 
G0 X676.600 Y759.396 Z6.000 
G0 X676.600 Y759.396 Z1.000 
G0 X677.569 Y759.396 
G1 Z1.000 F18.000 
G2 X675.631 Y759.396 Z-1.842 I-0.969 J0.000 F18.000 
G2 X677.569 Y759.396 Z-4.683 I0.969 J0.000 F18.000 
G2 X675.631 Y759.396 Z-7.525 I-0.969 J0.000 F18.000 
G2 X677.569 Y759.396 Z-10.367 I0.969 J0.000 F18.000 
G2 X675.631 Y759.396 Z-13.208 I-0.969 J0.000 F18.000 
G2 X677.569 Y759.396 Z-16.050 I0.969 J0.000 F18.000 
G2 X675.631 Y759.396 Z-16.050 I-0.969 J0.000 F18.000 
G2 X677.569 Y759.396 Z-16.050 I0.969 J0.000 F18.000 
G0 X676.600 Y759.396 Z-16.050 
G0 Z1.000 
G0 Z6.000 
G0 X676.600 Y835.596 Z6.000 
G0 X676.600 Y835.596 Z1.000 
G0 X677.569 Y835.596 
G1 Z1.000 F18.000 
G2 X675.631 Y835.596 Z-1.842 I-0.969 J0.000 F18.000 
G2 X677.569 Y835.596 Z-4.683 I0.969 J0.000 F18.000 
G2 X675.631 Y835.596 Z-7.525 I-0.969 J0.000 F18.000 
G2 X677.569 Y835.596 Z-10.367 I0.969 J0.000 F18.000 
G2 X675.631 Y835.596 Z-13.208 I-0.969 J0.000 F18.000 
G2 X677.569 Y835.596 Z-16.050 I0.969 J0.000 F18.000 
G2 X675.631 Y835.596 Z-16.050 I-0.969 J0.000 F18.000 
G2 X677.569 Y835.596 Z-16.050 I0.969 J0.000 F18.000 
G0 X676.600 Y835.596 Z-16.050 
G0 Z1.000 
G0 Z6.000 
G0 X752.800 Y835.596 Z6.000 
G0 X752.800 Y835.596 Z1.000 
G0 X753.769 Y835.596 
G1 Z1.000 F18.000 
G2 X751.831 Y835.596 Z-1.842 I-0.969 J0.000 F18.000 
G2 X753.769 Y835.596 Z-4.683 I0.969 J0.000 F18.000 
G2 X751.831 Y835.596 Z-7.525 I-0.969 J0.000 F18.000 
G2 X753.769 Y835.596 Z-10.367 I0.969 J0.000 F18.000 
G2 X751.831 Y835.596 Z-13.208 I-0.969 J0.000 F18.000 
G2 X753.769 Y835.596 Z-16.050 I0.969 J0.000 F18.000 
G2 X751.831 Y835.596 Z-16.050 I-0.969 J0.000 F18.000 
G2 X753.769 Y835.596 Z-16.050 I0.969 J0.000 F18.000 
G0 X752.800 Y835.596 Z-16.050 
G0 Z1.000 
G0 Z6.000 
G0 X752.800 Y759.396 Z6.000 
G0 X752.800 Y759.396 Z1.000 
G0 X753.769 Y759.396 
G1 Z1.000 F18.000 
G2 X751.831 Y759.396 Z-1.842 I-0.969 J0.000 F18.000 
G2 X753.769 Y759.396 Z-4.683 I0.969 J0.000 F18.000 
G2 X751.831 Y759.396 Z-7.525 I-0.969 J0.000 F18.000 
G2 X753.769 Y759.396 Z-10.367 I0.969 J0.000 F18.000 
G2 X751.831 Y759.396 Z-13.208 I-0.969 J0.000 F18.000 
G2 X753.769 Y759.396 Z-16.050 I0.969 J0.000 F18.000 
G2 X751.831 Y759.396 Z-16.050 I-0.969 J0.000 F18.000 
G2 X753.769 Y759.396 Z-16.050 I0.969 J0.000 F18.000 
G0 X752.800 Y759.396 Z-16.050 
G0 Z1.000 
G0 Z6.000 
G0 X829.000 Y759.396 Z6.000 
G0 X829.000 Y759.396 Z1.000 
G0 X829.969 Y759.396 
G1 Z1.000 F18.000 
G2 X828.031 Y759.396 Z-1.842 I-0.969 J0.000 F18.000 
G2 X829.969 Y759.396 Z-4.683 I0.969 J0.000 F18.000 
G2 X828.031 Y759.396 Z-7.525 I-0.969 J0.000 F18.000 
G2 X829.969 Y759.396 Z-10.367 I0.969 J0.000 F18.000 
G2 X828.031 Y759.396 Z-13.208 I-0.969 J0.000 F18.000 
G2 X829.969 Y759.396 Z-16.050 I0.969 J0.000 F18.000 
G2 X828.031 Y759.396 Z-16.050 I-0.969 J0.000 F18.000 
G2 X829.969 Y759.396 Z-16.050 I0.969 J0.000 F18.000 
G0 X829.000 Y759.396 Z-16.050 
G0 Z1.000 
G0 Z6.000 
G0 X829.000 Y683.196 Z6.000 
G0 X829.000 Y683.196 Z1.000 
G0 X829.969 Y683.196 
G1 Z1.000 F18.000 
G2 X828.031 Y683.196 Z-1.842 I-0.969 J0.000 F18.000 
G2 X829.969 Y683.196 Z-4.683 I0.969 J0.000 F18.000 
G2 X828.031 Y683.196 Z-7.525 I-0.969 J0.000 F18.000 
G2 X829.969 Y683.196 Z-10.367 I0.969 J0.000 F18.000 
G2 X828.031 Y683.196 Z-13.208 I-0.969 J0.000 F18.000 
G2 X829.969 Y683.196 Z-16.050 I0.969 J0.000 F18.000 
G2 X828.031 Y683.196 Z-16.050 I-0.969 J0.000 F18.000 
G2 X829.969 Y683.196 Z-16.050 I0.969 J0.000 F18.000 
G0 X829.000 Y683.196 Z-16.050 
G0 Z1.000 
G0 Z6.000 
G0 X829.000 Y606.996 Z6.000 
G0 X829.000 Y606.996 Z1.000 
G0 X829.969 Y606.996 
G1 Z1.000 F18.000 
G2 X828.031 Y606.996 Z-1.842 I-0.969 J0.000 F18.000 
G2 X829.969 Y606.996 Z-4.683 I0.969 J0.000 F18.000 
G2 X828.031 Y606.996 Z-7.525 I-0.969 J0.000 F18.000 
G2 X829.969 Y606.996 Z-10.367 I0.969 J0.000 F18.000 
G2 X828.031 Y606.996 Z-13.208 I-0.969 J0.000 F18.000 
G2 X829.969 Y606.996 Z-16.050 I0.969 J0.000 F18.000 
G2 X828.031 Y606.996 Z-16.050 I-0.969 J0.000 F18.000 
G2 X829.969 Y606.996 Z-16.050 I0.969 J0.000 F18.000 
G0 X829.000 Y606.996 Z-16.050 
G0 Z1.000 
G0 Z6.000 
G0 X752.800 Y606.996 Z6.000 
G0 X752.800 Y606.996 Z1.000 
G0 X753.769 Y606.996 
G1 Z1.000 F18.000 
G2 X751.831 Y606.996 Z-1.842 I-0.969 J0.000 F18.000 
G2 X753.769 Y606.996 Z-4.683 I0.969 J0.000 F18.000 
G2 X751.831 Y606.996 Z-7.525 I-0.969 J0.000 F18.000 
G2 X753.769 Y606.996 Z-10.367 I0.969 J0.000 F18.000 
G2 X751.831 Y606.996 Z-13.208 I-0.969 J0.000 F18.000 
G2 X753.769 Y606.996 Z-16.050 I0.969 J0.000 F18.000 
G2 X751.831 Y606.996 Z-16.050 I-0.969 J0.000 F18.000 
G2 X753.769 Y606.996 Z-16.050 I0.969 J0.000 F18.000 
G0 X752.800 Y606.996 Z-16.050 
G0 Z1.000 
G0 Z6.000 
G0 X752.800 Y530.796 Z6.000 
G0 X752.800 Y530.796 Z1.000 
G0 X753.769 Y530.796 
G1 Z1.000 F18.000 
G2 X751.831 Y530.796 Z-1.842 I-0.969 J0.000 F18.000 
G2 X753.769 Y530.796 Z-4.683 I0.969 J0.000 F18.000 
G2 X751.831 Y530.796 Z-7.525 I-0.969 J0.000 F18.000 
G2 X753.769 Y530.796 Z-10.367 I0.969 J0.000 F18.000 
G2 X751.831 Y530.796 Z-13.208 I-0.969 J0.000 F18.000 
G2 X753.769 Y530.796 Z-16.050 I0.969 J0.000 F18.000 
G2 X751.831 Y530.796 Z-16.050 I-0.969 J0.000 F18.000 
G2 X753.769 Y530.796 Z-16.050 I0.969 J0.000 F18.000 
G0 X752.800 Y530.796 Z-16.050 
G0 Z1.000 
G0 Z6.000 
G0 X829.000 Y530.796 Z6.000 
G0 X829.000 Y530.796 Z1.000 
G0 X829.969 Y530.796 
G1 Z1.000 F18.000 
G2 X828.031 Y530.796 Z-1.842 I-0.969 J0.000 F18.000 
G2 X829.969 Y530.796 Z-4.683 I0.969 J0.000 F18.000 
G2 X828.031 Y530.796 Z-7.525 I-0.969 J0.000 F18.000 
G2 X829.969 Y530.796 Z-10.367 I0.969 J0.000 F18.000 
G2 X828.031 Y530.796 Z-13.208 I-0.969 J0.000 F18.000 
G2 X829.969 Y530.796 Z-16.050 I0.969 J0.000 F18.000 
G2 X828.031 Y530.796 Z-16.050 I-0.969 J0.000 F18.000 
G2 X829.969 Y530.796 Z-16.050 I0.969 J0.000 F18.000 
G0 X829.000 Y530.796 Z-16.050 
G0 Z1.000 
G0 Z6.000 
G0 X829.000 Y454.596 Z6.000 
G0 X829.000 Y454.596 Z1.000 
G0 X829.969 Y454.596 
G1 Z1.000 F18.000 
G2 X828.031 Y454.596 Z-1.842 I-0.969 J0.000 F18.000 
G2 X829.969 Y454.596 Z-4.683 I0.969 J0.000 F18.000 
G2 X828.031 Y454.596 Z-7.525 I-0.969 J0.000 F18.000 
G2 X829.969 Y454.596 Z-10.367 I0.969 J0.000 F18.000 
G2 X828.031 Y454.596 Z-13.208 I-0.969 J0.000 F18.000 
G2 X829.969 Y454.596 Z-16.050 I0.969 J0.000 F18.000 
G2 X828.031 Y454.596 Z-16.050 I-0.969 J0.000 F18.000 
G2 X829.969 Y454.596 Z-16.050 I0.969 J0.000 F18.000 
G0 X829.000 Y454.596 Z-16.050 
G0 Z1.000 
G0 Z6.000 
G0 X829.000 Y378.396 Z6.000 
G0 X829.000 Y378.396 Z1.000 
G0 X829.969 Y378.396 
G1 Z1.000 F18.000 
G2 X828.031 Y378.396 Z-1.842 I-0.969 J0.000 F18.000 
G2 X829.969 Y378.396 Z-4.683 I0.969 J0.000 F18.000 
G2 X828.031 Y378.396 Z-7.525 I-0.969 J0.000 F18.000 
G2 X829.969 Y378.396 Z-10.367 I0.969 J0.000 F18.000 
G2 X828.031 Y378.396 Z-13.208 I-0.969 J0.000 F18.000 
G2 X829.969 Y378.396 Z-16.050 I0.969 J0.000 F18.000 
G2 X828.031 Y378.396 Z-16.050 I-0.969 J0.000 F18.000 
G2 X829.969 Y378.396 Z-16.050 I0.969 J0.000 F18.000 
G0 X829.000 Y378.396 Z-16.050 
G0 Z1.000 
G0 Z6.000 
G0 X752.800 Y378.396 Z6.000 
G0 X752.800 Y378.396 Z1.000 
G0 X753.769 Y378.396 
G1 Z1.000 F18.000 
G2 X751.831 Y378.396 Z-1.842 I-0.969 J0.000 F18.000 
G2 X753.769 Y378.396 Z-4.683 I0.969 J0.000 F18.000 
G2 X751.831 Y378.396 Z-7.525 I-0.969 J0.000 F18.000 
G2 X753.769 Y378.396 Z-10.367 I0.969 J0.000 F18.000 
G2 X751.831 Y378.396 Z-13.208 I-0.969 J0.000 F18.000 
G2 X753.769 Y378.396 Z-16.050 I0.969 J0.000 F18.000 
G2 X751.831 Y378.396 Z-16.050 I-0.969 J0.000 F18.000 
G2 X753.769 Y378.396 Z-16.050 I0.969 J0.000 F18.000 
G0 X752.800 Y378.396 Z-16.050 
G0 Z1.000 
G0 Z6.000 
G0 X752.800 Y302.196 Z6.000 
G0 X752.800 Y302.196 Z1.000 
G0 X753.769 Y302.196 
G1 Z1.000 F18.000 
G2 X751.831 Y302.196 Z-1.842 I-0.969 J0.000 F18.000 
G2 X753.769 Y302.196 Z-4.683 I0.969 J0.000 F18.000 
G2 X751.831 Y302.196 Z-7.525 I-0.969 J0.000 F18.000 
G2 X753.769 Y302.196 Z-10.367 I0.969 J0.000 F18.000 
G2 X751.831 Y302.196 Z-13.208 I-0.969 J0.000 F18.000 
G2 X753.769 Y302.196 Z-16.050 I0.969 J0.000 F18.000 
G2 X751.831 Y302.196 Z-16.050 I-0.969 J0.000 F18.000 
G2 X753.769 Y302.196 Z-16.050 I0.969 J0.000 F18.000 
G0 X752.800 Y302.196 Z-16.050 
G0 Z1.000 
G0 Z6.000 
G0 X829.000 Y302.196 Z6.000 
G0 X829.000 Y302.196 Z1.000 
G0 X829.969 Y302.196 
G1 Z1.000 F18.000 
G2 X828.031 Y302.196 Z-1.842 I-0.969 J0.000 F18.000 
G2 X829.969 Y302.196 Z-4.683 I0.969 J0.000 F18.000 
G2 X828.031 Y302.196 Z-7.525 I-0.969 J0.000 F18.000 
G2 X829.969 Y302.196 Z-10.367 I0.969 J0.000 F18.000 
G2 X828.031 Y302.196 Z-13.208 I-0.969 J0.000 F18.000 
G2 X829.969 Y302.196 Z-16.050 I0.969 J0.000 F18.000 
G2 X828.031 Y302.196 Z-16.050 I-0.969 J0.000 F18.000 
G2 X829.969 Y302.196 Z-16.050 I0.969 J0.000 F18.000 
G0 X829.000 Y302.196 Z-16.050 
G0 Z1.000 
G0 Z6.000 
G0 X829.000 Y225.996 Z6.000 
G0 X829.000 Y225.996 Z1.000 
G0 X829.969 Y225.996 
G1 Z1.000 F18.000 
G2 X828.031 Y225.996 Z-1.842 I-0.969 J0.000 F18.000 
G2 X829.969 Y225.996 Z-4.683 I0.969 J0.000 F18.000 
G2 X828.031 Y225.996 Z-7.525 I-0.969 J0.000 F18.000 
G2 X829.969 Y225.996 Z-10.367 I0.969 J0.000 F18.000 
G2 X828.031 Y225.996 Z-13.208 I-0.969 J0.000 F18.000 
G2 X829.969 Y225.996 Z-16.050 I0.969 J0.000 F18.000 
G2 X828.031 Y225.996 Z-16.050 I-0.969 J0.000 F18.000 
G2 X829.969 Y225.996 Z-16.050 I0.969 J0.000 F18.000 
G0 X829.000 Y225.996 Z-16.050 
G0 Z1.000 
G0 Z6.000 
G0 X829.000 Y149.796 Z6.000 
G0 X829.000 Y149.796 Z1.000 
G0 X829.969 Y149.796 
G1 Z1.000 F18.000 
G2 X828.031 Y149.796 Z-1.842 I-0.969 J0.000 F18.000 
G2 X829.969 Y149.796 Z-4.683 I0.969 J0.000 F18.000 
G2 X828.031 Y149.796 Z-7.525 I-0.969 J0.000 F18.000 
G2 X829.969 Y149.796 Z-10.367 I0.969 J0.000 F18.000 
G2 X828.031 Y149.796 Z-13.208 I-0.969 J0.000 F18.000 
G2 X829.969 Y149.796 Z-16.050 I0.969 J0.000 F18.000 
G2 X828.031 Y149.796 Z-16.050 I-0.969 J0.000 F18.000 
G2 X829.969 Y149.796 Z-16.050 I0.969 J0.000 F18.000 
G0 X829.000 Y149.796 Z-16.050 
G0 Z1.000 
G0 Z6.000 
G0 X752.800 Y149.796 Z6.000 
G0 X752.800 Y149.796 Z1.000 
G0 X753.769 Y149.796 
G1 Z1.000 F18.000 
G2 X751.831 Y149.796 Z-1.842 I-0.969 J0.000 F18.000 
G2 X753.769 Y149.796 Z-4.683 I0.969 J0.000 F18.000 
G2 X751.831 Y149.796 Z-7.525 I-0.969 J0.000 F18.000 
G2 X753.769 Y149.796 Z-10.367 I0.969 J0.000 F18.000 
G2 X751.831 Y149.796 Z-13.208 I-0.969 J0.000 F18.000 
G2 X753.769 Y149.796 Z-16.050 I0.969 J0.000 F18.000 
G2 X751.831 Y149.796 Z-16.050 I-0.969 J0.000 F18.000 
G2 X753.769 Y149.796 Z-16.050 I0.969 J0.000 F18.000 
G0 X752.800 Y149.796 Z-16.050 
G0 Z1.000 
G0 Z6.000 
G0 X829.000 Y835.596 Z6.000 
G0 X829.000 Y835.596 Z1.000 
G0 X829.969 Y835.596 
G1 Z1.000 F18.000 
G2 X828.031 Y835.596 Z-1.842 I-0.969 J0.000 F18.000 
G2 X829.969 Y835.596 Z-4.683 I0.969 J0.000 F18.000 
G2 X828.031 Y835.596 Z-7.525 I-0.969 J0.000 F18.000 
G2 X829.969 Y835.596 Z-10.367 I0.969 J0.000 F18.000 
G2 X828.031 Y835.596 Z-13.208 I-0.969 J0.000 F18.000 
G2 X829.969 Y835.596 Z-16.050 I0.969 J0.000 F18.000 
G2 X828.031 Y835.596 Z-16.050 I-0.969 J0.000 F18.000 
G2 X829.969 Y835.596 Z-16.050 I0.969 J0.000 F18.000 
G0 X829.000 Y835.596 Z-16.050 
G0 Z1.000 
G0 Z6.000 
G0 X549.600 Y835.596 Z6.000 
G0 X549.600 Y835.596 Z1.000 
G0 X550.569 Y835.596 
G1 Z1.000 F18.000 
G2 X548.631 Y835.596 Z-1.842 I-0.969 J0.000 F18.000 
G2 X550.569 Y835.596 Z-4.683 I0.969 J0.000 F18.000 
G2 X548.631 Y835.596 Z-7.525 I-0.969 J0.000 F18.000 
G2 X550.569 Y835.596 Z-10.367 I0.969 J0.000 F18.000 
G2 X548.631 Y835.596 Z-13.208 I-0.969 J0.000 F18.000 
G2 X550.569 Y835.596 Z-16.050 I0.969 J0.000 F18.000 
G2 X548.631 Y835.596 Z-16.050 I-0.969 J0.000 F18.000 
G2 X550.569 Y835.596 Z-16.050 I0.969 J0.000 F18.000 
G0 X549.600 Y835.596 Z-16.050 
G0 Z1.000 
G0 Z6.000 
G0 X270.200 Y835.596 Z6.000 
G0 X270.200 Y835.596 Z1.000 
G0 X271.169 Y835.596 
G1 Z1.000 F18.000 
G2 X269.231 Y835.596 Z-1.842 I-0.969 J0.000 F18.000 
G2 X271.169 Y835.596 Z-4.683 I0.969 J0.000 F18.000 
G2 X269.231 Y835.596 Z-7.525 I-0.969 J0.000 F18.000 
G2 X271.169 Y835.596 Z-10.367 I0.969 J0.000 F18.000 
G2 X269.231 Y835.596 Z-13.208 I-0.969 J0.000 F18.000 
G2 X271.169 Y835.596 Z-16.050 I0.969 J0.000 F18.000 
G2 X269.231 Y835.596 Z-16.050 I-0.969 J0.000 F18.000 
G2 X271.169 Y835.596 Z-16.050 I0.969 J0.000 F18.000 
G0 X270.200 Y835.596 Z-16.050 
G0 Z1.000 
G0 Z6.000 
(finish operation: Helix)
(begin operation: Pocket_Shape)
(machine units: mm/min)
(Pocket_Shape) 
G0 Z6.000 
G0 X0.000 Y0.000 
G0 X64.000 Y3.000 
G0 X64.000 Y3.000 Z4.000 
G1 X64.000 Y3.000 Z-2.000 F18.000 
G1 X64.000 Y11.485 Z-2.000 F18.000 
G1 X55.515 Y3.000 Z-2.000 F18.000 
G1 X47.029 Y3.000 Z-2.000 F18.000 
G1 X64.000 Y19.971 Z-2.000 F18.000 
G1 X64.000 Y28.456 Z-2.000 F18.000 
G1 X44.600 Y9.056 Z-2.000 F18.000 
G1 X44.600 Y17.541 Z-2.000 F18.000 
G1 X64.000 Y36.941 Z-2.000 F18.000 
G1 X64.000 Y45.426 Z-2.000 F18.000 
G1 X44.600 Y26.026 Z-2.000 F18.000 
G1 X44.600 Y34.512 Z-2.000 F18.000 
G1 X64.000 Y53.912 Z-2.000 F18.000 
G1 X64.000 Y62.397 Z-2.000 F18.000 
G1 X44.600 Y42.997 Z-2.000 F18.000 
G1 X44.600 Y51.482 Z-2.000 F18.000 
G1 X64.000 Y70.882 Z-2.000 F18.000 
G1 X64.000 Y79.368 Z-2.000 F18.000 
G1 X44.600 Y59.968 Z-2.000 F18.000 
G1 X44.600 Y68.453 Z-2.000 F18.000 
G1 X64.000 Y87.853 Z-2.000 F18.000 
G1 X64.000 Y96.338 Z-2.000 F18.000 
G1 X44.600 Y76.938 Z-2.000 F18.000 
G1 X44.600 Y85.423 Z-2.000 F18.000 
G1 X64.000 Y104.823 Z-2.000 F18.000 
G1 X64.000 Y113.309 Z-2.000 F18.000 
G1 X44.600 Y93.909 Z-2.000 F18.000 
G1 X44.600 Y102.394 Z-2.000 F18.000 
G1 X64.000 Y121.794 Z-2.000 F18.000 
G1 X64.000 Y130.279 Z-2.000 F18.000 
G1 X44.600 Y110.879 Z-2.000 F18.000 
G1 X44.600 Y119.365 Z-2.000 F18.000 
G1 X64.000 Y138.765 Z-2.000 F18.000 
G1 X64.000 Y147.250 Z-2.000 F18.000 
G1 X44.600 Y127.850 Z-2.000 F18.000 
G1 X44.600 Y136.335 Z-2.000 F18.000 
G1 X64.000 Y155.735 Z-2.000 F18.000 
G1 X64.000 Y164.220 Z-2.000 F18.000 
G1 X44.600 Y144.820 Z-2.000 F18.000 
G1 X44.600 Y153.306 Z-2.000 F18.000 
G1 X64.000 Y172.706 Z-2.000 F18.000 
G1 X64.000 Y181.191 Z-2.000 F18.000 
G1 X44.600 Y161.791 Z-2.000 F18.000 
G1 X44.600 Y170.276 Z-2.000 F18.000 
G1 X64.000 Y189.676 Z-2.000 F18.000 
G1 X64.000 Y198.161 Z-2.000 F18.000 
G1 X44.600 Y178.761 Z-2.000 F18.000 
G1 X44.600 Y187.247 Z-2.000 F18.000 
G1 X64.000 Y206.647 Z-2.000 F18.000 
G1 X64.000 Y215.132 Z-2.000 F18.000 
G1 X44.600 Y195.732 Z-2.000 F18.000 
G1 X44.600 Y204.217 Z-2.000 F18.000 
G1 X64.000 Y223.617 Z-2.000 F18.000 
G1 X64.000 Y232.103 Z-2.000 F18.000 
G1 X44.600 Y212.703 Z-2.000 F18.000 
G1 X44.600 Y221.188 Z-2.000 F18.000 
G1 X64.000 Y240.588 Z-2.000 F18.000 
G1 X64.000 Y249.073 Z-2.000 F18.000 
G1 X44.600 Y229.673 Z-2.000 F18.000 
G1 X44.600 Y238.158 Z-2.000 F18.000 
G1 X64.000 Y257.558 Z-2.000 F18.000 
G1 X64.000 Y266.044 Z-2.000 F18.000 
G1 X44.600 Y246.644 Z-2.000 F18.000 
G1 X44.600 Y255.129 Z-2.000 F18.000 
G1 X64.000 Y274.529 Z-2.000 F18.000 
G1 X64.000 Y283.014 Z-2.000 F18.000 
G1 X44.600 Y263.614 Z-2.000 F18.000 
G1 X44.600 Y272.100 Z-2.000 F18.000 
G1 X64.000 Y291.500 Z-2.000 F18.000 
G1 X64.000 Y299.985 Z-2.000 F18.000 
G1 X44.600 Y280.585 Z-2.000 F18.000 
G1 X44.600 Y289.070 Z-2.000 F18.000 
G1 X64.000 Y308.470 Z-2.000 F18.000 
G1 X64.000 Y316.955 Z-2.000 F18.000 
G1 X44.600 Y297.555 Z-2.000 F18.000 
G1 X44.600 Y306.041 Z-2.000 F18.000 
G1 X64.000 Y325.441 Z-2.000 F18.000 
G1 X64.000 Y333.926 Z-2.000 F18.000 
G1 X44.600 Y314.526 Z-2.000 F18.000 
G1 X44.600 Y323.011 Z-2.000 F18.000 
G1 X64.000 Y342.411 Z-2.000 F18.000 
G1 X64.000 Y350.897 Z-2.000 F18.000 
G1 X44.600 Y331.497 Z-2.000 F18.000 
G1 X44.600 Y339.982 Z-2.000 F18.000 
G1 X64.000 Y359.382 Z-2.000 F18.000 
G1 X64.000 Y367.867 Z-2.000 F18.000 
G1 X44.600 Y348.467 Z-2.000 F18.000 
G1 X44.600 Y356.952 Z-2.000 F18.000 
G1 X64.000 Y376.352 Z-2.000 F18.000 
G1 X64.000 Y384.838 Z-2.000 F18.000 
G1 X44.600 Y365.438 Z-2.000 F18.000 
G1 X44.600 Y373.923 Z-2.000 F18.000 
G1 X64.000 Y393.323 Z-2.000 F18.000 
G1 X64.000 Y401.808 Z-2.000 F18.000 
G1 X44.600 Y382.408 Z-2.000 F18.000 
G1 X44.600 Y390.894 Z-2.000 F18.000 
G1 X64.000 Y410.294 Z-2.000 F18.000 
G1 X64.000 Y418.779 Z-2.000 F18.000 
G1 X44.600 Y399.379 Z-2.000 F18.000 
G1 X44.600 Y407.864 Z-2.000 F18.000 
G1 X64.000 Y427.264 Z-2.000 F18.000 
G1 X64.000 Y435.749 Z-2.000 F18.000 
G1 X44.600 Y416.349 Z-2.000 F18.000 
G1 X44.600 Y424.835 Z-2.000 F18.000 
G1 X64.000 Y444.235 Z-2.000 F18.000 
G1 X64.000 Y452.720 Z-2.000 F18.000 
G1 X44.600 Y433.320 Z-2.000 F18.000 
G1 X44.600 Y441.805 Z-2.000 F18.000 
G1 X64.000 Y461.205 Z-2.000 F18.000 
G1 X64.000 Y469.690 Z-2.000 F18.000 
G1 X44.600 Y450.290 Z-2.000 F18.000 
G1 X44.600 Y458.776 Z-2.000 F18.000 
G1 X64.000 Y478.176 Z-2.000 F18.000 
G1 X64.000 Y486.661 Z-2.000 F18.000 
G1 X44.600 Y467.261 Z-2.000 F18.000 
G1 X44.600 Y475.746 Z-2.000 F18.000 
G1 X64.000 Y495.146 Z-2.000 F18.000 
G1 X64.000 Y503.632 Z-2.000 F18.000 
G1 X44.600 Y484.232 Z-2.000 F18.000 
G1 X44.600 Y492.717 Z-2.000 F18.000 
G1 X64.000 Y512.117 Z-2.000 F18.000 
G1 X64.000 Y520.602 Z-2.000 F18.000 
G1 X44.600 Y501.202 Z-2.000 F18.000 
G1 X44.600 Y509.687 Z-2.000 F18.000 
G1 X64.000 Y529.087 Z-2.000 F18.000 
G1 X64.000 Y537.573 Z-2.000 F18.000 
G1 X44.600 Y518.173 Z-2.000 F18.000 
G1 X44.600 Y526.658 Z-2.000 F18.000 
G1 X64.000 Y546.058 Z-2.000 F18.000 
G1 X64.000 Y554.543 Z-2.000 F18.000 
G1 X44.600 Y535.143 Z-2.000 F18.000 
G1 X44.600 Y543.629 Z-2.000 F18.000 
G1 X64.000 Y563.029 Z-2.000 F18.000 
G1 X64.000 Y571.514 Z-2.000 F18.000 
G1 X44.600 Y552.114 Z-2.000 F18.000 
G1 X44.600 Y560.599 Z-2.000 F18.000 
G1 X64.000 Y579.999 Z-2.000 F18.000 
G1 X64.000 Y588.484 Z-2.000 F18.000 
G1 X44.600 Y569.084 Z-2.000 F18.000 
G1 X44.600 Y577.570 Z-2.000 F18.000 
G1 X64.000 Y596.970 Z-2.000 F18.000 
G1 X64.000 Y605.455 Z-2.000 F18.000 
G1 X44.600 Y586.055 Z-2.000 F18.000 
G1 X44.600 Y594.540 Z-2.000 F18.000 
G1 X64.000 Y613.940 Z-2.000 F18.000 
G1 X64.000 Y622.426 Z-2.000 F18.000 
G1 X44.600 Y603.026 Z-2.000 F18.000 
G1 X44.600 Y611.511 Z-2.000 F18.000 
G1 X64.000 Y630.911 Z-2.000 F18.000 
G1 X64.000 Y639.396 Z-2.000 F18.000 
G1 X44.600 Y619.996 Z-2.000 F18.000 
G1 X44.600 Y628.481 Z-2.000 F18.000 
G1 X64.000 Y647.881 Z-2.000 F18.000 
G1 X64.000 Y656.367 Z-2.000 F18.000 
G1 X44.600 Y636.967 Z-2.000 F18.000 
G1 X44.600 Y645.452 Z-2.000 F18.000 
G1 X64.000 Y664.852 Z-2.000 F18.000 
G1 X64.000 Y673.337 Z-2.000 F18.000 
G1 X44.600 Y653.937 Z-2.000 F18.000 
G1 X44.600 Y662.423 Z-2.000 F18.000 
G1 X64.000 Y681.823 Z-2.000 F18.000 
G1 X64.000 Y690.308 Z-2.000 F18.000 
G1 X44.600 Y670.908 Z-2.000 F18.000 
G1 X44.600 Y679.393 Z-2.000 F18.000 
G1 X64.000 Y698.793 Z-2.000 F18.000 
G1 X64.000 Y707.278 Z-2.000 F18.000 
G1 X44.600 Y687.878 Z-2.000 F18.000 
G1 X44.600 Y696.364 Z-2.000 F18.000 
G1 X64.000 Y715.764 Z-2.000 F18.000 
G1 X64.000 Y724.249 Z-2.000 F18.000 
G1 X44.600 Y704.849 Z-2.000 F18.000 
G1 X44.600 Y713.334 Z-2.000 F18.000 
G1 X64.000 Y732.734 Z-2.000 F18.000 
G1 X64.000 Y741.219 Z-2.000 F18.000 
G1 X44.600 Y721.819 Z-2.000 F18.000 
G1 X44.600 Y730.305 Z-2.000 F18.000 
G1 X64.000 Y749.705 Z-2.000 F18.000 
G1 X64.000 Y758.190 Z-2.000 F18.000 
G1 X44.600 Y738.790 Z-2.000 F18.000 
G1 X44.600 Y747.275 Z-2.000 F18.000 
G1 X64.000 Y766.675 Z-2.000 F18.000 
G1 X64.000 Y775.161 Z-2.000 F18.000 
G1 X44.600 Y755.761 Z-2.000 F18.000 
G1 X44.600 Y764.246 Z-2.000 F18.000 
G1 X64.000 Y783.646 Z-2.000 F18.000 
G1 X64.000 Y792.131 Z-2.000 F18.000 
G1 X44.600 Y772.731 Z-2.000 F18.000 
G1 X44.600 Y781.216 Z-2.000 F18.000 
G1 X64.000 Y800.616 Z-2.000 F18.000 
G1 X64.000 Y809.102 Z-2.000 F18.000 
G1 X44.600 Y789.702 Z-2.000 F18.000 
G1 X44.600 Y798.187 Z-2.000 F18.000 
G1 X64.000 Y817.587 Z-2.000 F18.000 
G1 X64.000 Y826.072 Z-2.000 F18.000 
G1 X44.600 Y806.672 Z-2.000 F18.000 
G1 X44.600 Y815.158 Z-2.000 F18.000 
G1 X64.000 Y834.558 Z-2.000 F18.000 
G1 X64.000 Y843.043 Z-2.000 F18.000 
G1 X44.600 Y823.643 Z-2.000 F18.000 
G1 X44.600 Y832.128 Z-2.000 F18.000 
G1 X64.000 Y851.528 Z-2.000 F18.000 
G1 X64.000 Y860.013 Z-2.000 F18.000 
G1 X44.600 Y840.613 Z-2.000 F18.000 
G1 X44.600 Y849.099 Z-2.000 F18.000 
G1 X64.000 Y868.499 Z-2.000 F18.000 
G1 X64.000 Y876.984 Z-2.000 F18.000 
G1 X44.600 Y857.584 Z-2.000 F18.000 
G1 X44.600 Y866.069 Z-2.000 F18.000 
G1 X64.000 Y885.469 Z-2.000 F18.000 
G1 X64.000 Y893.955 Z-2.000 F18.000 
G1 X44.600 Y874.555 Z-2.000 F18.000 
G1 X44.600 Y883.040 Z-2.000 F18.000 
G1 X58.560 Y897.000 Z-2.000 F18.000 
G1 X50.075 Y897.000 Z-2.000 F18.000 
G1 X44.600 Y897.000 Z-2.000 F18.000 
G1 X44.600 Y891.525 Z-2.000 F18.000 
G1 X50.075 Y897.000 Z-2.000 F18.000 
G1 X50.075 Y897.000 Z-5.000 F18.000 
G1 X44.600 Y891.525 Z-5.000 F18.000 
G1 X44.600 Y897.000 Z-5.000 F18.000 
G1 X50.075 Y897.000 Z-5.000 F18.000 
G1 X58.560 Y897.000 Z-5.000 F18.000 
G1 X44.600 Y883.040 Z-5.000 F18.000 
G1 X44.600 Y874.555 Z-5.000 F18.000 
G1 X64.000 Y893.955 Z-5.000 F18.000 
G1 X64.000 Y885.469 Z-5.000 F18.000 
G1 X44.600 Y866.069 Z-5.000 F18.000 
G1 X44.600 Y857.584 Z-5.000 F18.000 
G1 X64.000 Y876.984 Z-5.000 F18.000 
G1 X64.000 Y868.499 Z-5.000 F18.000 
G1 X44.600 Y849.099 Z-5.000 F18.000 
G1 X44.600 Y840.613 Z-5.000 F18.000 
G1 X64.000 Y860.013 Z-5.000 F18.000 
G1 X64.000 Y851.528 Z-5.000 F18.000 
G1 X44.600 Y832.128 Z-5.000 F18.000 
G1 X44.600 Y823.643 Z-5.000 F18.000 
G1 X64.000 Y843.043 Z-5.000 F18.000 
G1 X64.000 Y834.558 Z-5.000 F18.000 
G1 X44.600 Y815.158 Z-5.000 F18.000 
G1 X44.600 Y806.672 Z-5.000 F18.000 
G1 X64.000 Y826.072 Z-5.000 F18.000 
G1 X64.000 Y817.587 Z-5.000 F18.000 
G1 X44.600 Y798.187 Z-5.000 F18.000 
G1 X44.600 Y789.702 Z-5.000 F18.000 
G1 X64.000 Y809.102 Z-5.000 F18.000 
G1 X64.000 Y800.616 Z-5.000 F18.000 
G1 X44.600 Y781.216 Z-5.000 F18.000 
G1 X44.600 Y772.731 Z-5.000 F18.000 
G1 X64.000 Y792.131 Z-5.000 F18.000 
G1 X64.000 Y783.646 Z-5.000 F18.000 
G1 X44.600 Y764.246 Z-5.000 F18.000 
G1 X44.600 Y755.761 Z-5.000 F18.000 
G1 X64.000 Y775.161 Z-5.000 F18.000 
G1 X64.000 Y766.675 Z-5.000 F18.000 
G1 X44.600 Y747.275 Z-5.000 F18.000 
G1 X44.600 Y738.790 Z-5.000 F18.000 
G1 X64.000 Y758.190 Z-5.000 F18.000 
G1 X64.000 Y749.705 Z-5.000 F18.000 
G1 X44.600 Y730.305 Z-5.000 F18.000 
G1 X44.600 Y721.819 Z-5.000 F18.000 
G1 X64.000 Y741.219 Z-5.000 F18.000 
G1 X64.000 Y732.734 Z-5.000 F18.000 
G1 X44.600 Y713.334 Z-5.000 F18.000 
G1 X44.600 Y704.849 Z-5.000 F18.000 
G1 X64.000 Y724.249 Z-5.000 F18.000 
G1 X64.000 Y715.764 Z-5.000 F18.000 
G1 X44.600 Y696.364 Z-5.000 F18.000 
G1 X44.600 Y687.878 Z-5.000 F18.000 
G1 X64.000 Y707.278 Z-5.000 F18.000 
G1 X64.000 Y698.793 Z-5.000 F18.000 
G1 X44.600 Y679.393 Z-5.000 F18.000 
G1 X44.600 Y670.908 Z-5.000 F18.000 
G1 X64.000 Y690.308 Z-5.000 F18.000 
G1 X64.000 Y681.823 Z-5.000 F18.000 
G1 X44.600 Y662.423 Z-5.000 F18.000 
G1 X44.600 Y653.937 Z-5.000 F18.000 
G1 X64.000 Y673.337 Z-5.000 F18.000 
G1 X64.000 Y664.852 Z-5.000 F18.000 
G1 X44.600 Y645.452 Z-5.000 F18.000 
G1 X44.600 Y636.967 Z-5.000 F18.000 
G1 X64.000 Y656.367 Z-5.000 F18.000 
G1 X64.000 Y647.881 Z-5.000 F18.000 
G1 X44.600 Y628.481 Z-5.000 F18.000 
G1 X44.600 Y619.996 Z-5.000 F18.000 
G1 X64.000 Y639.396 Z-5.000 F18.000 
G1 X64.000 Y630.911 Z-5.000 F18.000 
G1 X44.600 Y611.511 Z-5.000 F18.000 
G1 X44.600 Y603.026 Z-5.000 F18.000 
G1 X64.000 Y622.426 Z-5.000 F18.000 
G1 X64.000 Y613.940 Z-5.000 F18.000 
G1 X44.600 Y594.540 Z-5.000 F18.000 
G1 X44.600 Y586.055 Z-5.000 F18.000 
G1 X64.000 Y605.455 Z-5.000 F18.000 
G1 X64.000 Y596.970 Z-5.000 F18.000 
G1 X44.600 Y577.570 Z-5.000 F18.000 
G1 X44.600 Y569.084 Z-5.000 F18.000 
G1 X64.000 Y588.484 Z-5.000 F18.000 
G1 X64.000 Y579.999 Z-5.000 F18.000 
G1 X44.600 Y560.599 Z-5.000 F18.000 
G1 X44.600 Y552.114 Z-5.000 F18.000 
G1 X64.000 Y571.514 Z-5.000 F18.000 
G1 X64.000 Y563.029 Z-5.000 F18.000 
G1 X44.600 Y543.629 Z-5.000 F18.000 
G1 X44.600 Y535.143 Z-5.000 F18.000 
G1 X64.000 Y554.543 Z-5.000 F18.000 
G1 X64.000 Y546.058 Z-5.000 F18.000 
G1 X44.600 Y526.658 Z-5.000 F18.000 
G1 X44.600 Y518.173 Z-5.000 F18.000 
G1 X64.000 Y537.573 Z-5.000 F18.000 
G1 X64.000 Y529.087 Z-5.000 F18.000 
G1 X44.600 Y509.687 Z-5.000 F18.000 
G1 X44.600 Y501.202 Z-5.000 F18.000 
G1 X64.000 Y520.602 Z-5.000 F18.000 
G1 X64.000 Y512.117 Z-5.000 F18.000 
G1 X44.600 Y492.717 Z-5.000 F18.000 
G1 X44.600 Y484.232 Z-5.000 F18.000 
G1 X64.000 Y503.632 Z-5.000 F18.000 
G1 X64.000 Y495.146 Z-5.000 F18.000 
G1 X44.600 Y475.746 Z-5.000 F18.000 
G1 X44.600 Y467.261 Z-5.000 F18.000 
G1 X64.000 Y486.661 Z-5.000 F18.000 
G1 X64.000 Y478.176 Z-5.000 F18.000 
G1 X44.600 Y458.776 Z-5.000 F18.000 
G1 X44.600 Y450.290 Z-5.000 F18.000 
G1 X64.000 Y469.690 Z-5.000 F18.000 
G1 X64.000 Y461.205 Z-5.000 F18.000 
G1 X44.600 Y441.805 Z-5.000 F18.000 
G1 X44.600 Y433.320 Z-5.000 F18.000 
G1 X64.000 Y452.720 Z-5.000 F18.000 
G1 X64.000 Y444.235 Z-5.000 F18.000 
G1 X44.600 Y424.835 Z-5.000 F18.000 
G1 X44.600 Y416.349 Z-5.000 F18.000 
G1 X64.000 Y435.749 Z-5.000 F18.000 
G1 X64.000 Y427.264 Z-5.000 F18.000 
G1 X44.600 Y407.864 Z-5.000 F18.000 
G1 X44.600 Y399.379 Z-5.000 F18.000 
G1 X64.000 Y418.779 Z-5.000 F18.000 
G1 X64.000 Y410.294 Z-5.000 F18.000 
G1 X44.600 Y390.894 Z-5.000 F18.000 
G1 X44.600 Y382.408 Z-5.000 F18.000 
G1 X64.000 Y401.808 Z-5.000 F18.000 
G1 X64.000 Y393.323 Z-5.000 F18.000 
G1 X44.600 Y373.923 Z-5.000 F18.000 
G1 X44.600 Y365.438 Z-5.000 F18.000 
G1 X64.000 Y384.838 Z-5.000 F18.000 
G1 X64.000 Y376.352 Z-5.000 F18.000 
G1 X44.600 Y356.952 Z-5.000 F18.000 
G1 X44.600 Y348.467 Z-5.000 F18.000 
G1 X64.000 Y367.867 Z-5.000 F18.000 
G1 X64.000 Y359.382 Z-5.000 F18.000 
G1 X44.600 Y339.982 Z-5.000 F18.000 
G1 X44.600 Y331.497 Z-5.000 F18.000 
G1 X64.000 Y350.897 Z-5.000 F18.000 
G1 X64.000 Y342.411 Z-5.000 F18.000 
G1 X44.600 Y323.011 Z-5.000 F18.000 
G1 X44.600 Y314.526 Z-5.000 F18.000 
G1 X64.000 Y333.926 Z-5.000 F18.000 
G1 X64.000 Y325.441 Z-5.000 F18.000 
G1 X44.600 Y306.041 Z-5.000 F18.000 
G1 X44.600 Y297.555 Z-5.000 F18.000 
G1 X64.000 Y316.955 Z-5.000 F18.000 
G1 X64.000 Y308.470 Z-5.000 F18.000 
G1 X44.600 Y289.070 Z-5.000 F18.000 
G1 X44.600 Y280.585 Z-5.000 F18.000 
G1 X64.000 Y299.985 Z-5.000 F18.000 
G1 X64.000 Y291.500 Z-5.000 F18.000 
G1 X44.600 Y272.100 Z-5.000 F18.000 
G1 X44.600 Y263.614 Z-5.000 F18.000 
G1 X64.000 Y283.014 Z-5.000 F18.000 
G1 X64.000 Y274.529 Z-5.000 F18.000 
G1 X44.600 Y255.129 Z-5.000 F18.000 
G1 X44.600 Y246.644 Z-5.000 F18.000 
G1 X64.000 Y266.044 Z-5.000 F18.000 
G1 X64.000 Y257.558 Z-5.000 F18.000 
G1 X44.600 Y238.158 Z-5.000 F18.000 
G1 X44.600 Y229.673 Z-5.000 F18.000 
G1 X64.000 Y249.073 Z-5.000 F18.000 
G1 X64.000 Y240.588 Z-5.000 F18.000 
G1 X44.600 Y221.188 Z-5.000 F18.000 
G1 X44.600 Y212.703 Z-5.000 F18.000 
G1 X64.000 Y232.103 Z-5.000 F18.000 
G1 X64.000 Y223.617 Z-5.000 F18.000 
G1 X44.600 Y204.217 Z-5.000 F18.000 
G1 X44.600 Y195.732 Z-5.000 F18.000 
G1 X64.000 Y215.132 Z-5.000 F18.000 
G1 X64.000 Y206.647 Z-5.000 F18.000 
G1 X44.600 Y187.247 Z-5.000 F18.000 
G1 X44.600 Y178.761 Z-5.000 F18.000 
G1 X64.000 Y198.161 Z-5.000 F18.000 
G1 X64.000 Y189.676 Z-5.000 F18.000 
G1 X44.600 Y170.276 Z-5.000 F18.000 
G1 X44.600 Y161.791 Z-5.000 F18.000 
G1 X64.000 Y181.191 Z-5.000 F18.000 
G1 X64.000 Y172.706 Z-5.000 F18.000 
G1 X44.600 Y153.306 Z-5.000 F18.000 
G1 X44.600 Y144.820 Z-5.000 F18.000 
G1 X64.000 Y164.220 Z-5.000 F18.000 
G1 X64.000 Y155.735 Z-5.000 F18.000 
G1 X44.600 Y136.335 Z-5.000 F18.000 
G1 X44.600 Y127.850 Z-5.000 F18.000 
G1 X64.000 Y147.250 Z-5.000 F18.000 
G1 X64.000 Y138.765 Z-5.000 F18.000 
G1 X44.600 Y119.365 Z-5.000 F18.000 
G1 X44.600 Y110.879 Z-5.000 F18.000 
G1 X64.000 Y130.279 Z-5.000 F18.000 
G1 X64.000 Y121.794 Z-5.000 F18.000 
G1 X44.600 Y102.394 Z-5.000 F18.000 
G1 X44.600 Y93.909 Z-5.000 F18.000 
G1 X64.000 Y113.309 Z-5.000 F18.000 
G1 X64.000 Y104.823 Z-5.000 F18.000 
G1 X44.600 Y85.423 Z-5.000 F18.000 
G1 X44.600 Y76.938 Z-5.000 F18.000 
G1 X64.000 Y96.338 Z-5.000 F18.000 
G1 X64.000 Y87.853 Z-5.000 F18.000 
G1 X44.600 Y68.453 Z-5.000 F18.000 
G1 X44.600 Y59.968 Z-5.000 F18.000 
G1 X64.000 Y79.368 Z-5.000 F18.000 
G1 X64.000 Y70.882 Z-5.000 F18.000 
G1 X44.600 Y51.482 Z-5.000 F18.000 
G1 X44.600 Y42.997 Z-5.000 F18.000 
G1 X64.000 Y62.397 Z-5.000 F18.000 
G1 X64.000 Y53.912 Z-5.000 F18.000 
G1 X44.600 Y34.512 Z-5.000 F18.000 
G1 X44.600 Y26.026 Z-5.000 F18.000 
G1 X64.000 Y45.426 Z-5.000 F18.000 
G1 X64.000 Y36.941 Z-5.000 F18.000 
G1 X44.600 Y17.541 Z-5.000 F18.000 
G1 X44.600 Y9.056 Z-5.000 F18.000 
G1 X64.000 Y28.456 Z-5.000 F18.000 
G1 X64.000 Y19.971 Z-5.000 F18.000 
G1 X47.029 Y3.000 Z-5.000 F18.000 
G1 X55.515 Y3.000 Z-5.000 F18.000 
G1 X64.000 Y11.485 Z-5.000 F18.000 
G1 X64.000 Y3.000 Z-5.000 F18.000 
G1 X64.000 Y3.000 Z-8.000 F18.000 
G1 X64.000 Y11.485 Z-8.000 F18.000 
G1 X55.515 Y3.000 Z-8.000 F18.000 
G1 X47.029 Y3.000 Z-8.000 F18.000 
G1 X64.000 Y19.971 Z-8.000 F18.000 
G1 X64.000 Y28.456 Z-8.000 F18.000 
G1 X44.600 Y9.056 Z-8.000 F18.000 
G1 X44.600 Y17.541 Z-8.000 F18.000 
G1 X64.000 Y36.941 Z-8.000 F18.000 
G1 X64.000 Y45.426 Z-8.000 F18.000 
G1 X44.600 Y26.026 Z-8.000 F18.000 
G1 X44.600 Y34.512 Z-8.000 F18.000 
G1 X64.000 Y53.912 Z-8.000 F18.000 
G1 X64.000 Y62.397 Z-8.000 F18.000 
G1 X44.600 Y42.997 Z-8.000 F18.000 
G1 X44.600 Y51.482 Z-8.000 F18.000 
G1 X64.000 Y70.882 Z-8.000 F18.000 
G1 X64.000 Y79.368 Z-8.000 F18.000 
G1 X44.600 Y59.968 Z-8.000 F18.000 
G1 X44.600 Y68.453 Z-8.000 F18.000 
G1 X64.000 Y87.853 Z-8.000 F18.000 
G1 X64.000 Y96.338 Z-8.000 F18.000 
G1 X44.600 Y76.938 Z-8.000 F18.000 
G1 X44.600 Y85.423 Z-8.000 F18.000 
G1 X64.000 Y104.823 Z-8.000 F18.000 
G1 X64.000 Y113.309 Z-8.000 F18.000 
G1 X44.600 Y93.909 Z-8.000 F18.000 
G1 X44.600 Y102.394 Z-8.000 F18.000 
G1 X64.000 Y121.794 Z-8.000 F18.000 
G1 X64.000 Y130.279 Z-8.000 F18.000 
G1 X44.600 Y110.879 Z-8.000 F18.000 
G1 X44.600 Y119.365 Z-8.000 F18.000 
G1 X64.000 Y138.765 Z-8.000 F18.000 
G1 X64.000 Y147.250 Z-8.000 F18.000 
G1 X44.600 Y127.850 Z-8.000 F18.000 
G1 X44.600 Y136.335 Z-8.000 F18.000 
G1 X64.000 Y155.735 Z-8.000 F18.000 
G1 X64.000 Y164.220 Z-8.000 F18.000 
G1 X44.600 Y144.820 Z-8.000 F18.000 
G1 X44.600 Y153.306 Z-8.000 F18.000 
G1 X64.000 Y172.706 Z-8.000 F18.000 
G1 X64.000 Y181.191 Z-8.000 F18.000 
G1 X44.600 Y161.791 Z-8.000 F18.000 
G1 X44.600 Y170.276 Z-8.000 F18.000 
G1 X64.000 Y189.676 Z-8.000 F18.000 
G1 X64.000 Y198.161 Z-8.000 F18.000 
G1 X44.600 Y178.761 Z-8.000 F18.000 
G1 X44.600 Y187.247 Z-8.000 F18.000 
G1 X64.000 Y206.647 Z-8.000 F18.000 
G1 X64.000 Y215.132 Z-8.000 F18.000 
G1 X44.600 Y195.732 Z-8.000 F18.000 
G1 X44.600 Y204.217 Z-8.000 F18.000 
G1 X64.000 Y223.617 Z-8.000 F18.000 
G1 X64.000 Y232.103 Z-8.000 F18.000 
G1 X44.600 Y212.703 Z-8.000 F18.000 
G1 X44.600 Y221.188 Z-8.000 F18.000 
G1 X64.000 Y240.588 Z-8.000 F18.000 
G1 X64.000 Y249.073 Z-8.000 F18.000 
G1 X44.600 Y229.673 Z-8.000 F18.000 
G1 X44.600 Y238.158 Z-8.000 F18.000 
G1 X64.000 Y257.558 Z-8.000 F18.000 
G1 X64.000 Y266.044 Z-8.000 F18.000 
G1 X44.600 Y246.644 Z-8.000 F18.000 
G1 X44.600 Y255.129 Z-8.000 F18.000 
G1 X64.000 Y274.529 Z-8.000 F18.000 
G1 X64.000 Y283.014 Z-8.000 F18.000 
G1 X44.600 Y263.614 Z-8.000 F18.000 
G1 X44.600 Y272.100 Z-8.000 F18.000 
G1 X64.000 Y291.500 Z-8.000 F18.000 
G1 X64.000 Y299.985 Z-8.000 F18.000 
G1 X44.600 Y280.585 Z-8.000 F18.000 
G1 X44.600 Y289.070 Z-8.000 F18.000 
G1 X64.000 Y308.470 Z-8.000 F18.000 
G1 X64.000 Y316.955 Z-8.000 F18.000 
G1 X44.600 Y297.555 Z-8.000 F18.000 
G1 X44.600 Y306.041 Z-8.000 F18.000 
G1 X64.000 Y325.441 Z-8.000 F18.000 
G1 X64.000 Y333.926 Z-8.000 F18.000 
G1 X44.600 Y314.526 Z-8.000 F18.000 
G1 X44.600 Y323.011 Z-8.000 F18.000 
G1 X64.000 Y342.411 Z-8.000 F18.000 
G1 X64.000 Y350.897 Z-8.000 F18.000 
G1 X44.600 Y331.497 Z-8.000 F18.000 
G1 X44.600 Y339.982 Z-8.000 F18.000 
G1 X64.000 Y359.382 Z-8.000 F18.000 
G1 X64.000 Y367.867 Z-8.000 F18.000 
G1 X44.600 Y348.467 Z-8.000 F18.000 
G1 X44.600 Y356.952 Z-8.000 F18.000 
G1 X64.000 Y376.352 Z-8.000 F18.000 
G1 X64.000 Y384.838 Z-8.000 F18.000 
G1 X44.600 Y365.438 Z-8.000 F18.000 
G1 X44.600 Y373.923 Z-8.000 F18.000 
G1 X64.000 Y393.323 Z-8.000 F18.000 
G1 X64.000 Y401.808 Z-8.000 F18.000 
G1 X44.600 Y382.408 Z-8.000 F18.000 
G1 X44.600 Y390.894 Z-8.000 F18.000 
G1 X64.000 Y410.294 Z-8.000 F18.000 
G1 X64.000 Y418.779 Z-8.000 F18.000 
G1 X44.600 Y399.379 Z-8.000 F18.000 
G1 X44.600 Y407.864 Z-8.000 F18.000 
G1 X64.000 Y427.264 Z-8.000 F18.000 
G1 X64.000 Y435.749 Z-8.000 F18.000 
G1 X44.600 Y416.349 Z-8.000 F18.000 
G1 X44.600 Y424.835 Z-8.000 F18.000 
G1 X64.000 Y444.235 Z-8.000 F18.000 
G1 X64.000 Y452.720 Z-8.000 F18.000 
G1 X44.600 Y433.320 Z-8.000 F18.000 
G1 X44.600 Y441.805 Z-8.000 F18.000 
G1 X64.000 Y461.205 Z-8.000 F18.000 
G1 X64.000 Y469.690 Z-8.000 F18.000 
G1 X44.600 Y450.290 Z-8.000 F18.000 
G1 X44.600 Y458.776 Z-8.000 F18.000 
G1 X64.000 Y478.176 Z-8.000 F18.000 
G1 X64.000 Y486.661 Z-8.000 F18.000 
G1 X44.600 Y467.261 Z-8.000 F18.000 
G1 X44.600 Y475.746 Z-8.000 F18.000 
G1 X64.000 Y495.146 Z-8.000 F18.000 
G1 X64.000 Y503.632 Z-8.000 F18.000 
G1 X44.600 Y484.232 Z-8.000 F18.000 
G1 X44.600 Y492.717 Z-8.000 F18.000 
G1 X64.000 Y512.117 Z-8.000 F18.000 
G1 X64.000 Y520.602 Z-8.000 F18.000 
G1 X44.600 Y501.202 Z-8.000 F18.000 
G1 X44.600 Y509.687 Z-8.000 F18.000 
G1 X64.000 Y529.087 Z-8.000 F18.000 
G1 X64.000 Y537.573 Z-8.000 F18.000 
G1 X44.600 Y518.173 Z-8.000 F18.000 
