(Exported by FreeCAD)
(Post Processor: linuxcnc_post)
(Output Time:2024-05-05 21:45:25.578818)
(begin preamble)
G17 G54 G40 G49 G80 G90
G21
(begin operation: Fixture)
(machine units: mm/min)
G54 
(finish operation: Fixture)
(begin operation: 6mm_Endmill002)
(machine units: mm/min)
(6mm_Endmill002) 
M5
M6 T2 
G43 H2 
(finish operation: 6mm_Endmill002)
(begin operation: Pocket_Shape001)
(machine units: mm/min)
(Pocket_Shape001) 
G0 Z6.000 
G0 X336.827 Y297.000 
G0 Z4.000 
G1 X336.827 Y297.000 Z-10.525 F500.000 
G1 X336.827 Y3.000 Z-10.525 F750.000 
G0 Z6.000 
G0 X330.827 Z6.000 
G0 X330.827 Z4.000 
G1 X330.827 Y3.000 Z-10.525 F500.000 
G1 X330.827 Y297.000 Z-10.525 F750.000 
G0 Z6.000 
G0 X324.827 Z6.000 
G0 X324.827 Z4.000 
G1 X324.827 Y297.000 Z-10.525 F500.000 
G1 X324.827 Y3.000 Z-10.525 F750.000 
G0 Z6.000 
G0 Z6.000 
G0 X324.827 Y3.000 
G0 X604.227 
G0 X604.227 Z4.000 
G1 X604.227 Y3.000 Z-10.525 F500.000 
G1 X604.227 Y297.000 Z-10.525 F750.000 
G0 Z6.000 
G0 X610.227 Z6.000 
G0 X610.227 Z4.000 
G1 X610.227 Y297.000 Z-10.525 F500.000 
G1 X610.227 Y3.000 Z-10.525 F750.000 
G0 Z6.000 
G0 X616.227 Z6.000 
G0 X616.227 Z4.000 
G1 X616.227 Y3.000 Z-10.525 F500.000 
G1 X616.227 Y297.000 Z-10.525 F750.000 
G0 Z6.000 
G0 Z6.000 
G0 X616.227 Y297.000 
G0 X883.627 
G0 X883.627 Z4.000 
G1 X883.627 Y297.000 Z-10.525 F500.000 
G1 X883.627 Y3.000 Z-10.525 F750.000 
G0 Z6.000 
G0 X889.627 Z6.000 
G0 X889.627 Z4.000 
G1 X889.627 Y3.000 Z-10.525 F500.000 
G1 X889.627 Y297.000 Z-10.525 F750.000 
G0 Z6.000 
G0 X895.627 Z6.000 
G0 X895.627 Z4.000 
G1 X895.627 Y297.000 Z-10.525 F500.000 
G1 X895.627 Y3.000 Z-10.525 F750.000 
G0 Z6.000 
G0 Z6.000 
(finish operation: Pocket_Shape001)
(begin postamble)
M05
G17 G54 G90 G80 G40
M2
