(Exported by FreeCAD)
(Post Processor: linuxcnc_post)
(Output Time:2024-05-26 20:07:38.565432)
(begin preamble)
G17 G54 G40 G49 G80 G90
G21
(begin operation: Fixture)
(machine units: mm/min)
G54 
(finish operation: Fixture)
(begin operation: 12mm_Endmill003)
(machine units: mm/min)
(12mm_Endmill003) 
M5
M6 T2 
G43 H2 
(finish operation: 12mm_Endmill003)
(begin operation: Pocket3D)
(machine units: mm/min)
(Pocket3D) 
G0 Z2.000 
G0 X89.250 Y89.250 
G0 Z-0.000 
G1 X89.250 Y89.250 Z-8.000 F800.000 
G1 X83.310 Y89.250 Z-8.000 F800.000 
G1 X89.250 Y83.310 Z-8.000 F800.000 
G1 X89.250 Y77.371 Z-8.000 F800.000 
G1 X77.371 Y89.250 Z-8.000 F800.000 
G1 X71.431 Y89.250 Z-8.000 F800.000 
G1 X89.250 Y71.431 Z-8.000 F800.000 
G1 X89.250 Y65.491 Z-8.000 F800.000 
G1 X65.491 Y89.250 Z-8.000 F800.000 
G1 X59.552 Y89.250 Z-8.000 F800.000 
G1 X89.250 Y59.552 Z-8.000 F800.000 
G1 X89.250 Y53.612 Z-8.000 F800.000 
G1 X82.127 Y60.735 Z-8.000 F800.000 
G2 X84.174 Y52.748 Z-8.000 I-33.629 J-12.875 F800.000 
G1 X89.250 Y47.672 Z-8.000 F800.000 
G1 X89.250 Y41.732 Z-8.000 F800.000 
G1 X84.511 Y46.471 Z-8.000 F800.000 
G2 X83.946 Y41.096 Z-8.000 I-33.644 J0.817 F800.000 
G1 X89.250 Y35.793 Z-8.000 F800.000 
G1 X89.250 Y29.853 Z-8.000 F800.000 
G1 X82.766 Y36.337 Z-8.000 F800.000 
G2 X81.091 Y32.072 Z-8.000 I-31.655 J9.971 F800.000 
G1 X89.250 Y23.913 Z-8.000 F800.000 
G1 X89.250 Y17.974 Z-8.000 F800.000 
G1 X79.017 Y28.207 Z-8.000 F800.000 
G2 X76.564 Y24.719 Z-8.000 I-29.897 J18.418 F800.000 
G1 X89.250 Y12.034 Z-8.000 F800.000 
G1 X89.250 Y6.094 Z-8.000 F800.000 
G1 X73.767 Y21.577 Z-8.000 F800.000 
G2 X70.634 Y18.770 Z-8.000 I-23.413 J22.975 F800.000 
G1 X83.405 Y6.000 Z-8.000 F800.000 
G1 X77.465 Y6.000 Z-8.000 F800.000 
G1 X67.160 Y16.305 Z-8.000 F800.000 
G2 X63.307 Y14.218 Z-8.000 I-18.562 J29.675 F800.000 
G1 X71.525 Y6.000 Z-8.000 F800.000 
G1 X65.585 Y6.000 Z-8.000 F800.000 
G1 X59.054 Y12.532 Z-8.000 F800.000 
G2 X54.314 Y11.332 Z-8.000 I-10.621 J32.008 F800.000 
G1 X59.646 Y6.000 Z-8.000 F800.000 
G1 X53.706 Y6.000 Z-8.000 F800.000 
G1 X48.963 Y10.744 Z-8.000 F800.000 
G2 X42.718 Y11.048 Z-8.000 I-1.437 J34.677 F800.000 
G1 X47.766 Y6.000 Z-8.000 F800.000 
G1 X41.827 Y6.000 Z-8.000 F800.000 
G1 X34.824 Y13.002 Z-8.000 F800.000 
G2 X13.002 Y34.824 Z-8.000 I12.812 J34.634 F800.000 
G1 X6.000 Y41.827 Z-8.000 F800.000 
G1 X6.000 Y35.887 Z-8.000 F800.000 
G1 X35.887 Y6.000 Z-8.000 F800.000 
G1 X29.947 Y6.000 Z-8.000 F800.000 
G1 X6.000 Y29.947 Z-8.000 F800.000 
G1 X6.000 Y24.008 Z-8.000 F800.000 
G1 X24.008 Y6.000 Z-8.000 F800.000 
G1 X18.068 Y6.000 Z-8.000 F800.000 
G1 X6.000 Y18.068 Z-8.000 F800.000 
G1 X6.000 Y12.128 Z-8.000 F800.000 
G1 X12.128 Y6.000 Z-8.000 F800.000 
G1 X6.188 Y6.000 Z-8.000 F800.000 
G1 X6.000 Y6.188 Z-8.000 F800.000 
G1 X6.000 Y6.000 Z-8.000 F800.000 
G1 X6.188 Y6.000 Z-8.000 F800.000 
G0 Z2.000 
G0 X6.000 Y41.827 Z2.000 
G0 X6.000 Y41.827 Z-0.000 
G1 X6.000 Y41.827 Z-8.000 F800.000 
G1 X13.002 Y34.824 Z-8.000 F800.000 
G2 X11.048 Y42.718 Z-8.000 I34.018 J12.609 F800.000 
G1 X6.000 Y47.766 Z-8.000 F800.000 
G1 X6.000 Y53.706 Z-8.000 F800.000 
G1 X10.744 Y48.963 Z-8.000 F800.000 
G2 X11.332 Y54.314 Z-8.000 I33.926 J-1.025 F800.000 
G1 X6.000 Y59.646 Z-8.000 F800.000 
G1 X6.000 Y65.585 Z-8.000 F800.000 
G1 X12.532 Y59.054 Z-8.000 F800.000 
G2 X14.218 Y63.307 Z-8.000 I32.472 J-10.413 F800.000 
G1 X6.000 Y71.525 Z-8.000 F800.000 
G1 X6.000 Y77.465 Z-8.000 F800.000 
G1 X16.305 Y67.160 Z-8.000 F800.000 
G2 X18.770 Y70.634 Z-8.000 I29.806 J-18.542 F800.000 
G1 X6.000 Y83.405 Z-8.000 F800.000 
G1 X6.000 Y89.250 Z-8.000 F800.000 
G1 X6.094 Y89.250 Z-8.000 F800.000 
G1 X21.577 Y73.767 Z-8.000 F800.000 
G2 X24.719 Y76.564 Z-8.000 I22.576 J-22.193 F800.000 
G1 X12.034 Y89.250 Z-8.000 F800.000 
G1 X17.974 Y89.250 Z-8.000 F800.000 
G1 X28.207 Y79.017 Z-8.000 F800.000 
G2 X32.072 Y81.091 Z-8.000 I18.522 J-29.871 F800.000 
G1 X23.913 Y89.250 Z-8.000 F800.000 
G1 X29.853 Y89.250 Z-8.000 F800.000 
G1 X36.337 Y82.766 Z-8.000 F800.000 
G2 X41.096 Y83.946 Z-8.000 I10.592 J-32.533 F800.000 
G1 X35.793 Y89.250 Z-8.000 F800.000 
G1 X41.732 Y89.250 Z-8.000 F800.000 
G1 X46.471 Y84.511 Z-8.000 F800.000 
G2 X52.748 Y84.174 Z-8.000 I1.281 J-34.764 F800.000 
G1 X47.672 Y89.250 Z-8.000 F800.000 
G1 X53.612 Y89.250 Z-8.000 F800.000 
G1 X60.735 Y82.127 Z-8.000 F800.000 
G0 Z2.000 
G0 X59.348 Y53.816 Z2.000 
G0 X59.348 Y53.816 Z-0.000 
G1 X59.348 Y53.816 Z-8.000 F800.000 
G1 X55.273 Y60.872 Z-8.000 F800.000 
G1 X52.291 Y60.872 Z-8.000 F800.000 
G1 X59.348 Y53.816 Z-8.000 F800.000 
G1 X62.922 Y47.625 Z-8.000 F800.000 
G1 X61.705 Y45.518 Z-8.000 F800.000 
G1 X46.351 Y60.872 Z-8.000 F800.000 
G1 X40.412 Y60.872 Z-8.000 F800.000 
G1 X59.531 Y41.753 Z-8.000 F800.000 
G1 X57.357 Y37.987 Z-8.000 F800.000 
G1 X37.962 Y57.383 Z-8.000 F800.000 
G1 X35.788 Y53.617 Z-8.000 F800.000 
G1 X55.027 Y34.378 Z-8.000 F800.000 
G1 X49.087 Y34.378 Z-8.000 F800.000 
G1 X33.614 Y49.851 Z-8.000 F800.000 
G1 X32.328 Y47.625 Z-8.000 F800.000 
G1 X35.645 Y41.880 Z-8.000 F800.000 
G1 X39.977 Y34.378 Z-8.000 F800.000 
G1 X43.148 Y34.378 Z-8.000 F800.000 
G1 X35.645 Y41.880 Z-8.000 F800.000 
G1 X35.645 Y41.880 Z-13.000 F800.000 
G1 X43.148 Y34.378 Z-13.000 F800.000 
G1 X39.977 Y34.378 Z-13.000 F800.000 
G1 X35.645 Y41.880 Z-13.000 F800.000 
G1 X32.328 Y47.625 Z-13.000 F800.000 
G1 X33.614 Y49.851 Z-13.000 F800.000 
G1 X49.087 Y34.378 Z-13.000 F800.000 
G1 X55.027 Y34.378 Z-13.000 F800.000 
G1 X35.788 Y53.617 Z-13.000 F800.000 
G1 X37.962 Y57.383 Z-13.000 F800.000 
G1 X57.357 Y37.987 Z-13.000 F800.000 
G1 X59.531 Y41.753 Z-13.000 F800.000 
G1 X40.412 Y60.872 Z-13.000 F800.000 
G1 X46.351 Y60.872 Z-13.000 F800.000 
G1 X61.705 Y45.518 Z-13.000 F800.000 
G1 X62.922 Y47.625 Z-13.000 F800.000 
G1 X59.348 Y53.816 Z-13.000 F800.000 
G1 X52.291 Y60.872 Z-13.000 F800.000 
G1 X55.273 Y60.872 Z-13.000 F800.000 
G1 X59.348 Y53.816 Z-13.000 F800.000 
G0 Z2.000 
G0 X60.735 Y82.127 Z2.000 
G0 X60.735 Y82.127 Z-0.000 
G1 X60.735 Y82.127 Z-13.000 F800.000 
G1 X53.612 Y89.250 Z-13.000 F800.000 
G1 X47.672 Y89.250 Z-13.000 F800.000 
G1 X52.748 Y84.174 Z-13.000 F800.000 
G3 X46.471 Y84.511 Z-13.000 I-4.996 J-34.427 F800.000 
G1 X41.732 Y89.250 Z-13.000 F800.000 
G1 X35.793 Y89.250 Z-13.000 F800.000 
G1 X41.096 Y83.946 Z-13.000 F800.000 
G3 X36.337 Y82.766 Z-13.000 I5.833 J-33.713 F800.000 
G1 X29.853 Y89.250 Z-13.000 F800.000 
G1 X23.913 Y89.250 Z-13.000 F800.000 
G1 X32.072 Y81.091 Z-13.000 F800.000 
G3 X28.207 Y79.017 Z-13.000 I14.657 J-31.945 F800.000 
G1 X17.974 Y89.250 Z-13.000 F800.000 
G1 X12.034 Y89.250 Z-13.000 F800.000 
G1 X24.719 Y76.564 Z-13.000 F800.000 
G3 X21.577 Y73.767 Z-13.000 I19.434 J-24.990 F800.000 
G1 X6.094 Y89.250 Z-13.000 F800.000 
G1 X6.000 Y89.250 Z-13.000 F800.000 
G1 X6.000 Y83.405 Z-13.000 F800.000 
G1 X18.770 Y70.634 Z-13.000 F800.000 
G3 X16.305 Y67.160 Z-13.000 I27.341 J-22.016 F800.000 
G1 X6.000 Y77.465 Z-13.000 F800.000 
G1 X6.000 Y71.525 Z-13.000 F800.000 
G1 X14.218 Y63.307 Z-13.000 F800.000 
G3 X12.532 Y59.054 Z-13.000 I30.786 J-14.666 F800.000 
G1 X6.000 Y65.585 Z-13.000 F800.000 
G1 X6.000 Y59.646 Z-13.000 F800.000 
G1 X11.332 Y54.314 Z-13.000 F800.000 
G3 X10.744 Y48.963 Z-13.000 I33.338 J-6.376 F800.000 
G1 X6.000 Y53.706 Z-13.000 F800.000 
G1 X6.000 Y47.766 Z-13.000 F800.000 
G1 X11.048 Y42.718 Z-13.000 F800.000 
G3 X13.002 Y34.824 Z-13.000 I35.972 J4.715 F800.000 
G1 X6.000 Y41.827 Z-13.000 F800.000 
G0 Z2.000 
G0 X6.188 Y6.000 Z2.000 
G0 X6.188 Y6.000 Z-0.000 
G1 X6.188 Y6.000 Z-13.000 F800.000 
G1 X6.000 Y6.000 Z-13.000 F800.000 
G1 X6.000 Y6.188 Z-13.000 F800.000 
G1 X6.188 Y6.000 Z-13.000 F800.000 
G1 X12.128 Y6.000 Z-13.000 F800.000 
G1 X6.000 Y12.128 Z-13.000 F800.000 
G1 X6.000 Y18.068 Z-13.000 F800.000 
G1 X18.068 Y6.000 Z-13.000 F800.000 
G1 X24.008 Y6.000 Z-13.000 F800.000 
G1 X6.000 Y24.008 Z-13.000 F800.000 
G1 X6.000 Y29.947 Z-13.000 F800.000 
G1 X29.947 Y6.000 Z-13.000 F800.000 
G1 X35.887 Y6.000 Z-13.000 F800.000 
G1 X6.000 Y35.887 Z-13.000 F800.000 
G1 X6.000 Y41.827 Z-13.000 F800.000 
G1 X13.002 Y34.824 Z-13.000 F800.000 
G3 X34.824 Y13.002 Z-13.000 I34.634 J12.812 F800.000 
G1 X41.827 Y6.000 Z-13.000 F800.000 
G1 X47.766 Y6.000 Z-13.000 F800.000 
G1 X42.718 Y11.048 Z-13.000 F800.000 
G3 X48.963 Y10.744 Z-13.000 I4.808 J34.373 F800.000 
G1 X53.706 Y6.000 Z-13.000 F800.000 
G1 X59.646 Y6.000 Z-13.000 F800.000 
G1 X54.314 Y11.332 Z-13.000 F800.000 
G3 X59.054 Y12.532 Z-13.000 I-5.881 J33.207 F800.000 
G1 X65.585 Y6.000 Z-13.000 F800.000 
G1 X71.525 Y6.000 Z-13.000 F800.000 
G1 X63.307 Y14.218 Z-13.000 F800.000 
G3 X67.160 Y16.305 Z-13.000 I-14.709 J31.762 F800.000 
G1 X77.465 Y6.000 Z-13.000 F800.000 
G1 X83.405 Y6.000 Z-13.000 F800.000 
G1 X70.634 Y18.770 Z-13.000 F800.000 
G3 X73.767 Y21.577 Z-13.000 I-20.281 J25.782 F800.000 
G1 X89.250 Y6.094 Z-13.000 F800.000 
G1 X89.250 Y12.034 Z-13.000 F800.000 
G1 X76.564 Y24.719 Z-13.000 F800.000 
G3 X79.017 Y28.207 Z-13.000 I-27.445 J21.905 F800.000 
G1 X89.250 Y17.974 Z-13.000 F800.000 
G1 X89.250 Y23.913 Z-13.000 F800.000 
G1 X81.091 Y32.072 Z-13.000 F800.000 
G3 X82.766 Y36.337 Z-13.000 I-29.980 J14.236 F800.000 
G1 X89.250 Y29.853 Z-13.000 F800.000 
G1 X89.250 Y35.793 Z-13.000 F800.000 
G1 X83.946 Y41.096 Z-13.000 F800.000 
G3 X84.511 Y46.471 Z-13.000 I-33.079 J6.192 F800.000 
G1 X89.250 Y41.732 Z-13.000 F800.000 
G1 X89.250 Y47.672 Z-13.000 F800.000 
G1 X84.174 Y52.748 Z-13.000 F800.000 
G3 X82.127 Y60.735 Z-13.000 I-35.676 J-4.888 F800.000 
G1 X89.250 Y53.612 Z-13.000 F800.000 
G1 X89.250 Y59.552 Z-13.000 F800.000 
G1 X59.552 Y89.250 Z-13.000 F800.000 
G1 X65.491 Y89.250 Z-13.000 F800.000 
G1 X89.250 Y65.491 Z-13.000 F800.000 
G1 X89.250 Y71.431 Z-13.000 F800.000 
G1 X71.431 Y89.250 Z-13.000 F800.000 
G1 X77.371 Y89.250 Z-13.000 F800.000 
G1 X89.250 Y77.371 Z-13.000 F800.000 
G1 X89.250 Y83.310 Z-13.000 F800.000 
G1 X83.310 Y89.250 Z-13.000 F800.000 
G1 X89.250 Y89.250 Z-13.000 F800.000 
G1 X89.250 Y89.250 Z-18.000 F800.000 
G1 X83.310 Y89.250 Z-18.000 F800.000 
G1 X89.250 Y83.310 Z-18.000 F800.000 
G1 X89.250 Y77.371 Z-18.000 F800.000 
G1 X77.371 Y89.250 Z-18.000 F800.000 
G1 X71.431 Y89.250 Z-18.000 F800.000 
G1 X89.250 Y71.431 Z-18.000 F800.000 
G1 X89.250 Y65.491 Z-18.000 F800.000 
G1 X65.491 Y89.250 Z-18.000 F800.000 
G1 X59.552 Y89.250 Z-18.000 F800.000 
G1 X63.462 Y85.339 Z-18.000 F800.000 
G3 X54.999 Y87.863 Z-18.000 I-15.513 J-36.573 F800.000 
G1 X53.612 Y89.250 Z-18.000 F800.000 
G1 X47.672 Y89.250 Z-18.000 F800.000 
G1 X48.400 Y88.522 Z-18.000 F800.000 
G3 X42.746 Y88.237 Z-18.000 I-0.957 J-37.237 F800.000 
G1 X41.732 Y89.250 Z-18.000 F800.000 
G1 X35.793 Y89.250 Z-18.000 F800.000 
G1 X37.724 Y87.319 Z-18.000 F800.000 
G3 X33.202 Y85.901 Z-18.000 I8.598 J-35.365 F800.000 
G1 X29.853 Y89.250 Z-18.000 F800.000 
G1 X23.913 Y89.250 Z-18.000 F800.000 
G1 X29.075 Y84.088 Z-18.000 F800.000 
G3 X25.310 Y81.913 Z-18.000 I17.515 J-34.667 F800.000 
G1 X17.974 Y89.250 Z-18.000 F800.000 
G1 X12.034 Y89.250 Z-18.000 F800.000 
G1 X21.875 Y79.409 Z-18.000 F800.000 
G3 X18.749 Y76.595 Z-18.000 I21.270 J-26.780 F800.000 
G1 X6.094 Y89.250 Z-18.000 F800.000 
G1 X6.000 Y89.250 Z-18.000 F800.000 
G1 X6.000 Y83.405 Z-18.000 F800.000 
G1 X15.927 Y73.478 Z-18.000 F800.000 
G3 X13.413 Y70.052 Z-18.000 I28.593 J-23.618 F800.000 
G1 X6.000 Y77.465 Z-18.000 F800.000 
G1 X6.000 Y71.525 Z-18.000 F800.000 
G1 X11.224 Y66.301 Z-18.000 F800.000 
G3 X9.400 Y62.186 Z-18.000 I34.799 J-17.883 F800.000 
G1 X6.000 Y65.585 Z-18.000 F800.000 
G1 X6.000 Y59.646 Z-18.000 F800.000 
G1 X7.971 Y57.674 Z-18.000 F800.000 
G3 X7.034 Y52.672 Z-18.000 I36.100 J-9.356 F800.000 
G1 X6.000 Y53.706 Z-18.000 F800.000 
G1 X6.000 Y47.766 Z-18.000 F800.000 
G1 X6.724 Y47.043 Z-18.000 F800.000 
G3 X7.349 Y40.478 Z-18.000 I38.560 J0.361 F800.000 
G1 X6.000 Y41.827 Z-18.000 F800.000 
G1 X6.000 Y35.887 Z-18.000 F800.000 
G1 X9.770 Y32.117 Z-18.000 F800.000 
G3 X32.117 Y9.770 Z-18.000 I37.825 J15.477 F800.000 
G1 X35.887 Y6.000 Z-18.000 F800.000 
G1 X29.947 Y6.000 Z-18.000 F800.000 
G1 X6.000 Y29.947 Z-18.000 F800.000 
G1 X6.000 Y24.008 Z-18.000 F800.000 
G1 X24.008 Y6.000 Z-18.000 F800.000 
G1 X18.068 Y6.000 Z-18.000 F800.000 
G1 X6.000 Y18.068 Z-18.000 F800.000 
G1 X6.000 Y12.128 Z-18.000 F800.000 
G1 X12.128 Y6.000 Z-18.000 F800.000 
G1 X6.188 Y6.000 Z-18.000 F800.000 
G1 X6.000 Y6.000 Z-18.000 F800.000 
G1 X6.000 Y6.188 Z-18.000 F800.000 
G1 X6.188 Y6.000 Z-18.000 F800.000 
G0 Z2.000 
G0 X35.887 Z2.000 
G0 X35.887 Z-0.000 
G1 X35.887 Y6.000 Z-18.000 F800.000 
G1 X32.117 Y9.770 Z-18.000 F800.000 
G3 X40.478 Y7.349 Z-18.000 I15.184 J36.797 F800.000 
G1 X41.827 Y6.000 Z-18.000 F800.000 
G1 X47.766 Y6.000 Z-18.000 F800.000 
G1 X47.043 Y6.724 Z-18.000 F800.000 
G3 X52.672 Y7.034 Z-18.000 I0.758 J37.531 F800.000 
G1 X53.706 Y6.000 Z-18.000 F800.000 
G1 X59.646 Y6.000 Z-18.000 F800.000 
G1 X57.674 Y7.971 Z-18.000 F800.000 
G3 X62.186 Y9.400 Z-18.000 I-9.051 J36.420 F800.000 
G1 X65.585 Y6.000 Z-18.000 F800.000 
G1 X71.525 Y6.000 Z-18.000 F800.000 
G1 X66.301 Y11.224 Z-18.000 F800.000 
G3 X70.052 Y13.413 Z-18.000 I-17.757 J34.733 F800.000 
G1 X77.465 Y6.000 Z-18.000 F800.000 
G1 X83.405 Y6.000 Z-18.000 F800.000 
G1 X73.478 Y15.927 Z-18.000 F800.000 
G3 X76.595 Y18.749 Z-18.000 I-21.925 J27.350 F800.000 
G1 X89.250 Y6.094 Z-18.000 F800.000 
G1 X89.250 Y12.034 Z-18.000 F800.000 
G1 X79.409 Y21.875 Z-18.000 F800.000 
G3 X81.913 Y25.310 Z-18.000 I-26.617 J22.041 F800.000 
G1 X89.250 Y17.974 Z-18.000 F800.000 
G1 X89.250 Y23.913 Z-18.000 F800.000 
G1 X84.088 Y29.075 Z-18.000 F800.000 
G3 X85.901 Y33.202 Z-18.000 I-34.004 J17.403 F800.000 
G1 X89.250 Y29.853 Z-18.000 F800.000 
G1 X89.250 Y35.793 Z-18.000 F800.000 
G1 X87.319 Y37.724 Z-18.000 F800.000 
G3 X88.237 Y42.746 Z-18.000 I-36.665 J9.297 F800.000 
G1 X89.250 Y41.732 Z-18.000 F800.000 
G1 X89.250 Y47.672 Z-18.000 F800.000 
G1 X88.522 Y48.400 Z-18.000 F800.000 
G3 X87.863 Y54.999 Z-18.000 I-38.724 J-0.534 F800.000 
G1 X89.250 Y53.612 Z-18.000 F800.000 
G1 X89.250 Y59.552 Z-18.000 F800.000 
G1 X85.339 Y63.462 Z-18.000 F800.000 
G0 Z2.000 
G0 X59.348 Y53.816 Z2.000 
G0 X59.348 Y53.816 Z-0.000 
G1 X59.348 Y53.816 Z-18.000 F800.000 
G1 X55.273 Y60.872 Z-18.000 F800.000 
G1 X52.291 Y60.872 Z-18.000 F800.000 
G1 X59.348 Y53.816 Z-18.000 F800.000 
G1 X62.922 Y47.625 Z-18.000 F800.000 
G1 X61.705 Y45.518 Z-18.000 F800.000 
G1 X46.351 Y60.872 Z-18.000 F800.000 
G1 X40.412 Y60.872 Z-18.000 F800.000 
G1 X59.531 Y41.753 Z-18.000 F800.000 
G1 X57.357 Y37.987 Z-18.000 F800.000 
G1 X37.962 Y57.383 Z-18.000 F800.000 
G1 X35.788 Y53.617 Z-18.000 F800.000 
G1 X55.027 Y34.378 Z-18.000 F800.000 
G1 X49.087 Y34.378 Z-18.000 F800.000 
G1 X33.614 Y49.851 Z-18.000 F800.000 
G1 X32.328 Y47.625 Z-18.000 F800.000 
G1 X35.645 Y41.880 Z-18.000 F800.000 
G1 X39.977 Y34.378 Z-18.000 F800.000 
G1 X43.148 Y34.378 Z-18.000 F800.000 
G1 X35.645 Y41.880 Z-18.000 F800.000 
G0 Z2.000 
G0 Z2.000 
(finish operation: Pocket3D)
(begin postamble)
M05
G17 G54 G90 G80 G40
M2
