(Exported by FreeCAD)
(Post Processor: KineticNCBeamicon2_post)
(Output Time:2024-04-28 18:24:45.143763)
(begin preamble)
%
G17 G21 G40 G49 G80 G90
M08
G21
(begin operation: Fixture)
(machine: not set, mm/min)
G54
(finish operation: Fixture)
(begin operation: TC: 6mm_Endmill)
(machine: not set, mm/min)
(TC: 6mm_Endmill)
M05
M09M6 T10
M3 S20000
(finish operation: TC: 6mm_Endmill)
(begin operation: MillFace)
(machine: not set, mm/min)
(MillFace)
G0 Z6.000
G0 X1217.200 Y-1217.200
G0 Z4.000
G1 X1217.200 Y-1217.200 Z0.000 F2000.000
G1 X1217.200 Y-1212.957 Z0.000 F2000.000
G1 X1212.957 Y-1217.200 Z0.000 F2000.000
G1 X1208.715 Y-1217.200 Z0.000 F2000.000
G1 X1217.200 Y-1208.715 Z0.000 F2000.000
G1 X1217.200 Y-1204.472 Z0.000 F2000.000
G1 X1204.472 Y-1217.200 Z0.000 F2000.000
G1 X1200.229 Y-1217.200 Z0.000 F2000.000
G1 X1217.200 Y-1200.229 Z0.000 F2000.000
G1 X1217.200 Y-1195.987 Z0.000 F2000.000
G1 X1195.987 Y-1217.200 Z0.000 F2000.000
G1 X1191.744 Y-1217.200 Z0.000 F2000.000
G1 X1217.200 Y-1191.744 Z0.000 F2000.000
G1 X1217.200 Y-1187.502 Z0.000 F2000.000
G1 X1187.502 Y-1217.200 Z0.000 F2000.000
G1 X1183.259 Y-1217.200 Z0.000 F2000.000
G1 X1217.200 Y-1183.259 Z0.000 F2000.000
G1 X1217.200 Y-1179.016 Z0.000 F2000.000
G1 X1179.016 Y-1217.200 Z0.000 F2000.000
G1 X1174.774 Y-1217.200 Z0.000 F2000.000
G1 X1217.200 Y-1174.774 Z0.000 F2000.000
G1 X1217.200 Y-1170.531 Z0.000 F2000.000
G1 X1170.531 Y-1217.200 Z0.000 F2000.000
G1 X1166.288 Y-1217.200 Z0.000 F2000.000
G1 X1217.200 Y-1166.288 Z0.000 F2000.000
G1 X1217.200 Y-1162.046 Z0.000 F2000.000
G1 X1162.046 Y-1217.200 Z0.000 F2000.000
G1 X1157.803 Y-1217.200 Z0.000 F2000.000
G1 X1217.200 Y-1157.803 Z0.000 F2000.000
G1 X1217.200 Y-1153.560 Z0.000 F2000.000
G1 X1153.560 Y-1217.200 Z0.000 F2000.000
G1 X1149.318 Y-1217.200 Z0.000 F2000.000
G1 X1217.200 Y-1149.318 Z0.000 F2000.000
G1 X1217.200 Y-1145.075 Z0.000 F2000.000
G1 X1145.075 Y-1217.200 Z0.000 F2000.000
G1 X1140.832 Y-1217.200 Z0.000 F2000.000
G1 X1217.200 Y-1140.832 Z0.000 F2000.000
G1 X1217.200 Y-1136.590 Z0.000 F2000.000
G1 X1136.590 Y-1217.200 Z0.000 F2000.000
G1 X1132.347 Y-1217.200 Z0.000 F2000.000
G1 X1217.200 Y-1132.347 Z0.000 F2000.000
G1 X1217.200 Y-1128.105 Z0.000 F2000.000
G1 X1128.105 Y-1217.200 Z0.000 F2000.000
G1 X1123.862 Y-1217.200 Z0.000 F2000.000
G1 X1217.200 Y-1123.862 Z0.000 F2000.000
G1 X1217.200 Y-1119.619 Z0.000 F2000.000
G1 X1119.619 Y-1217.200 Z0.000 F2000.000
G1 X1115.377 Y-1217.200 Z0.000 F2000.000
G1 X1217.200 Y-1115.377 Z0.000 F2000.000
G1 X1217.200 Y-1111.134 Z0.000 F2000.000
G1 X1111.134 Y-1217.200 Z0.000 F2000.000
G1 X1106.891 Y-1217.200 Z0.000 F2000.000
G1 X1217.200 Y-1106.891 Z0.000 F2000.000
G1 X1217.200 Y-1102.649 Z0.000 F2000.000
G1 X1102.649 Y-1217.200 Z0.000 F2000.000
G1 X1098.406 Y-1217.200 Z0.000 F2000.000
G1 X1217.200 Y-1098.406 Z0.000 F2000.000
G1 X1217.200 Y-1094.163 Z0.000 F2000.000
G1 X1094.163 Y-1217.200 Z0.000 F2000.000
G1 X1089.921 Y-1217.200 Z0.000 F2000.000
G1 X1217.200 Y-1089.921 Z0.000 F2000.000
G1 X1217.200 Y-1085.678 Z0.000 F2000.000
G1 X1085.678 Y-1217.200 Z0.000 F2000.000
G1 X1081.435 Y-1217.200 Z0.000 F2000.000
G1 X1217.200 Y-1081.435 Z0.000 F2000.000
G1 X1217.200 Y-1077.193 Z0.000 F2000.000
G1 X1077.193 Y-1217.200 Z0.000 F2000.000
G1 X1072.950 Y-1217.200 Z0.000 F2000.000
G1 X1217.200 Y-1072.950 Z0.000 F2000.000
G1 X1217.200 Y-1068.708 Z0.000 F2000.000
G1 X1068.708 Y-1217.200 Z0.000 F2000.000
G1 X1064.465 Y-1217.200 Z0.000 F2000.000
G1 X1217.200 Y-1064.465 Z0.000 F2000.000
G1 X1217.200 Y-1060.222 Z0.000 F2000.000
G1 X1060.222 Y-1217.200 Z0.000 F2000.000
G1 X1055.980 Y-1217.200 Z0.000 F2000.000
G1 X1217.200 Y-1055.980 Z0.000 F2000.000
G1 X1217.200 Y-1051.737 Z0.000 F2000.000
G1 X1051.737 Y-1217.200 Z0.000 F2000.000
G1 X1047.494 Y-1217.200 Z0.000 F2000.000
G1 X1217.200 Y-1047.494 Z0.000 F2000.000
G1 X1217.200 Y-1043.252 Z0.000 F2000.000
G1 X1043.252 Y-1217.200 Z0.000 F2000.000
G1 X1039.009 Y-1217.200 Z0.000 F2000.000
G1 X1217.200 Y-1039.009 Z0.000 F2000.000
G1 X1217.200 Y-1034.766 Z0.000 F2000.000
G1 X1034.766 Y-1217.200 Z0.000 F2000.000
G1 X1030.524 Y-1217.200 Z0.000 F2000.000
G1 X1217.200 Y-1030.524 Z0.000 F2000.000
G1 X1217.200 Y-1026.281 Z0.000 F2000.000
G1 X1026.281 Y-1217.200 Z0.000 F2000.000
G1 X1022.039 Y-1217.200 Z0.000 F2000.000
G1 X1217.200 Y-1022.039 Z0.000 F2000.000
G1 X1217.200 Y-1017.796 Z0.000 F2000.000
G1 X1017.796 Y-1217.200 Z0.000 F2000.000
G1 X1013.553 Y-1217.200 Z0.000 F2000.000
G1 X1217.200 Y-1013.553 Z0.000 F2000.000
G1 X1217.200 Y-1009.311 Z0.000 F2000.000
G1 X1009.311 Y-1217.200 Z0.000 F2000.000
G1 X1005.068 Y-1217.200 Z0.000 F2000.000
G1 X1217.200 Y-1005.068 Z0.000 F2000.000
G1 X1217.200 Y-1000.825 Z0.000 F2000.000
G1 X1000.825 Y-1217.200 Z0.000 F2000.000
G1 X996.583 Y-1217.200 Z0.000 F2000.000
G1 X1217.200 Y-996.583 Z0.000 F2000.000
G1 X1217.200 Y-992.340 Z0.000 F2000.000
G1 X992.340 Y-1217.200 Z0.000 F2000.000
G1 X988.097 Y-1217.200 Z0.000 F2000.000
G1 X1217.200 Y-988.097 Z0.000 F2000.000
G1 X1217.200 Y-983.855 Z0.000 F2000.000
G1 X983.855 Y-1217.200 Z0.000 F2000.000
G1 X979.612 Y-1217.200 Z0.000 F2000.000
G1 X1217.200 Y-979.612 Z0.000 F2000.000
G1 X1217.200 Y-975.369 Z0.000 F2000.000
G1 X975.369 Y-1217.200 Z0.000 F2000.000
G1 X971.127 Y-1217.200 Z0.000 F2000.000
G1 X1217.200 Y-971.127 Z0.000 F2000.000
G1 X1217.200 Y-966.884 Z0.000 F2000.000
G1 X966.884 Y-1217.200 Z0.000 F2000.000
G1 X962.642 Y-1217.200 Z0.000 F2000.000
G1 X1217.200 Y-962.642 Z0.000 F2000.000
G1 X1217.200 Y-958.399 Z0.000 F2000.000
G1 X958.399 Y-1217.200 Z0.000 F2000.000
G1 X954.156 Y-1217.200 Z0.000 F2000.000
G1 X1217.200 Y-954.156 Z0.000 F2000.000
G1 X1217.200 Y-949.914 Z0.000 F2000.000
G1 X949.914 Y-1217.200 Z0.000 F2000.000
G1 X945.671 Y-1217.200 Z0.000 F2000.000
G1 X1217.200 Y-945.671 Z0.000 F2000.000
G1 X1217.200 Y-941.428 Z0.000 F2000.000
G1 X941.428 Y-1217.200 Z0.000 F2000.000
G1 X937.186 Y-1217.200 Z0.000 F2000.000
G1 X1217.200 Y-937.186 Z0.000 F2000.000
G1 X1217.200 Y-932.943 Z0.000 F2000.000
G1 X932.943 Y-1217.200 Z0.000 F2000.000
G1 X928.700 Y-1217.200 Z0.000 F2000.000
G1 X1217.200 Y-928.700 Z0.000 F2000.000
G1 X1217.200 Y-924.458 Z0.000 F2000.000
G1 X924.458 Y-1217.200 Z0.000 F2000.000
G1 X920.215 Y-1217.200 Z0.000 F2000.000
G1 X1217.200 Y-920.215 Z0.000 F2000.000
G1 X1217.200 Y-915.973 Z0.000 F2000.000
G1 X915.973 Y-1217.200 Z0.000 F2000.000
G1 X911.730 Y-1217.200 Z0.000 F2000.000
G1 X1217.200 Y-911.730 Z0.000 F2000.000
G1 X1217.200 Y-907.487 Z0.000 F2000.000
G1 X907.487 Y-1217.200 Z0.000 F2000.000
G1 X903.245 Y-1217.200 Z0.000 F2000.000
G1 X1217.200 Y-903.245 Z0.000 F2000.000
G1 X1217.200 Y-899.002 Z0.000 F2000.000
G1 X899.002 Y-1217.200 Z0.000 F2000.000
G1 X894.759 Y-1217.200 Z0.000 F2000.000
G1 X1217.200 Y-894.759 Z0.000 F2000.000
G1 X1217.200 Y-890.517 Z0.000 F2000.000
G1 X890.517 Y-1217.200 Z0.000 F2000.000
G1 X886.274 Y-1217.200 Z0.000 F2000.000
G1 X1217.200 Y-886.274 Z0.000 F2000.000
G1 X1217.200 Y-882.031 Z0.000 F2000.000
G1 X882.031 Y-1217.200 Z0.000 F2000.000
G1 X877.789 Y-1217.200 Z0.000 F2000.000
G1 X1217.200 Y-877.789 Z0.000 F2000.000
G1 X1217.200 Y-873.546 Z0.000 F2000.000
G1 X873.546 Y-1217.200 Z0.000 F2000.000
G1 X869.303 Y-1217.200 Z0.000 F2000.000
G1 X1217.200 Y-869.303 Z0.000 F2000.000
G1 X1217.200 Y-865.061 Z0.000 F2000.000
G1 X865.061 Y-1217.200 Z0.000 F2000.000
G1 X860.818 Y-1217.200 Z0.000 F2000.000
G1 X1217.200 Y-860.818 Z0.000 F2000.000
G1 X1217.200 Y-856.576 Z0.000 F2000.000
G1 X856.576 Y-1217.200 Z0.000 F2000.000
G1 X852.333 Y-1217.200 Z0.000 F2000.000
G1 X1217.200 Y-852.333 Z0.000 F2000.000
G1 X1217.200 Y-848.090 Z0.000 F2000.000
G1 X848.090 Y-1217.200 Z0.000 F2000.000
G1 X843.848 Y-1217.200 Z0.000 F2000.000
G1 X1217.200 Y-843.848 Z0.000 F2000.000
G1 X1217.200 Y-839.605 Z0.000 F2000.000
G1 X839.605 Y-1217.200 Z0.000 F2000.000
G1 X835.362 Y-1217.200 Z0.000 F2000.000
G1 X1217.200 Y-835.362 Z0.000 F2000.000
G1 X1217.200 Y-831.120 Z0.000 F2000.000
G1 X831.120 Y-1217.200 Z0.000 F2000.000
G1 X826.877 Y-1217.200 Z0.000 F2000.000
G1 X1217.200 Y-826.877 Z0.000 F2000.000
G1 X1217.200 Y-822.634 Z0.000 F2000.000
G1 X822.634 Y-1217.200 Z0.000 F2000.000
G1 X818.392 Y-1217.200 Z0.000 F2000.000
G1 X1217.200 Y-818.392 Z0.000 F2000.000
G1 X1217.200 Y-814.149 Z0.000 F2000.000
G1 X814.149 Y-1217.200 Z0.000 F2000.000
G1 X809.906 Y-1217.200 Z0.000 F2000.000
G1 X1217.200 Y-809.906 Z0.000 F2000.000
G1 X1217.200 Y-805.664 Z0.000 F2000.000
G1 X805.664 Y-1217.200 Z0.000 F2000.000
G1 X801.421 Y-1217.200 Z0.000 F2000.000
G1 X1217.200 Y-801.421 Z0.000 F2000.000
G1 X1217.200 Y-797.179 Z0.000 F2000.000
G1 X797.179 Y-1217.200 Z0.000 F2000.000
G1 X792.936 Y-1217.200 Z0.000 F2000.000
G1 X1217.200 Y-792.936 Z0.000 F2000.000
G1 X1217.200 Y-788.693 Z0.000 F2000.000
G1 X788.693 Y-1217.200 Z0.000 F2000.000
G1 X784.451 Y-1217.200 Z0.000 F2000.000
G1 X1217.200 Y-784.451 Z0.000 F2000.000
G1 X1217.200 Y-780.208 Z0.000 F2000.000
G1 X780.208 Y-1217.200 Z0.000 F2000.000
G1 X775.965 Y-1217.200 Z0.000 F2000.000
G1 X1217.200 Y-775.965 Z0.000 F2000.000
G1 X1217.200 Y-771.723 Z0.000 F2000.000
G1 X771.723 Y-1217.200 Z0.000 F2000.000
G1 X767.480 Y-1217.200 Z0.000 F2000.000
G1 X1217.200 Y-767.480 Z0.000 F2000.000
G1 X1217.200 Y-763.237 Z0.000 F2000.000
G1 X763.237 Y-1217.200 Z0.000 F2000.000
G1 X758.995 Y-1217.200 Z0.000 F2000.000
G1 X1217.200 Y-758.995 Z0.000 F2000.000
G1 X1217.200 Y-754.752 Z0.000 F2000.000
G1 X754.752 Y-1217.200 Z0.000 F2000.000
G1 X750.510 Y-1217.200 Z0.000 F2000.000
G1 X1217.200 Y-750.510 Z0.000 F2000.000
G1 X1217.200 Y-746.267 Z0.000 F2000.000
G1 X746.267 Y-1217.200 Z0.000 F2000.000
G1 X742.024 Y-1217.200 Z0.000 F2000.000
G1 X1217.200 Y-742.024 Z0.000 F2000.000
G1 X1217.200 Y-737.782 Z0.000 F2000.000
G1 X737.782 Y-1217.200 Z0.000 F2000.000
G1 X733.539 Y-1217.200 Z0.000 F2000.000
G1 X1217.200 Y-733.539 Z0.000 F2000.000
G1 X1217.200 Y-729.296 Z0.000 F2000.000
G1 X729.296 Y-1217.200 Z0.000 F2000.000
G1 X725.054 Y-1217.200 Z0.000 F2000.000
G1 X1217.200 Y-725.054 Z0.000 F2000.000
G1 X1217.200 Y-720.811 Z0.000 F2000.000
G1 X720.811 Y-1217.200 Z0.000 F2000.000
G1 X716.568 Y-1217.200 Z0.000 F2000.000
G1 X1217.200 Y-716.568 Z0.000 F2000.000
G1 X1217.200 Y-712.326 Z0.000 F2000.000
G1 X712.326 Y-1217.200 Z0.000 F2000.000
G1 X708.083 Y-1217.200 Z0.000 F2000.000
G1 X1217.200 Y-708.083 Z0.000 F2000.000
G1 X1217.200 Y-703.840 Z0.000 F2000.000
G1 X703.840 Y-1217.200 Z0.000 F2000.000
G1 X699.598 Y-1217.200 Z0.000 F2000.000
G1 X1217.200 Y-699.598 Z0.000 F2000.000
G1 X1217.200 Y-695.355 Z0.000 F2000.000
G1 X695.355 Y-1217.200 Z0.000 F2000.000
G1 X691.113 Y-1217.200 Z0.000 F2000.000
G1 X1217.200 Y-691.113 Z0.000 F2000.000
G1 X1217.200 Y-686.870 Z0.000 F2000.000
G1 X686.870 Y-1217.200 Z0.000 F2000.000
G1 X682.627 Y-1217.200 Z0.000 F2000.000
G1 X1217.200 Y-682.627 Z0.000 F2000.000
G1 X1217.200 Y-678.385 Z0.000 F2000.000
G1 X678.385 Y-1217.200 Z0.000 F2000.000
G1 X674.142 Y-1217.200 Z0.000 F2000.000
G1 X1217.200 Y-674.142 Z0.000 F2000.000
G1 X1217.200 Y-669.899 Z0.000 F2000.000
G1 X669.899 Y-1217.200 Z0.000 F2000.000
G1 X665.657 Y-1217.200 Z0.000 F2000.000
G1 X1217.200 Y-665.657 Z0.000 F2000.000
G1 X1217.200 Y-661.414 Z0.000 F2000.000
G1 X661.414 Y-1217.200 Z0.000 F2000.000
G1 X657.171 Y-1217.200 Z0.000 F2000.000
G1 X1217.200 Y-657.171 Z0.000 F2000.000
G1 X1217.200 Y-652.929 Z0.000 F2000.000
G1 X652.929 Y-1217.200 Z0.000 F2000.000
G1 X648.686 Y-1217.200 Z0.000 F2000.000
G1 X1217.200 Y-648.686 Z0.000 F2000.000
G1 X1217.200 Y-644.444 Z0.000 F2000.000
G1 X644.444 Y-1217.200 Z0.000 F2000.000
G1 X640.201 Y-1217.200 Z0.000 F2000.000
G1 X1217.200 Y-640.201 Z0.000 F2000.000
G1 X1217.200 Y-635.958 Z0.000 F2000.000
G1 X635.958 Y-1217.200 Z0.000 F2000.000
G1 X631.716 Y-1217.200 Z0.000 F2000.000
G1 X1217.200 Y-631.716 Z0.000 F2000.000
G1 X1217.200 Y-627.473 Z0.000 F2000.000
G1 X627.473 Y-1217.200 Z0.000 F2000.000
G1 X623.230 Y-1217.200 Z0.000 F2000.000
G1 X1217.200 Y-623.230 Z0.000 F2000.000
G1 X1217.200 Y-618.988 Z0.000 F2000.000
G1 X618.988 Y-1217.200 Z0.000 F2000.000
G1 X614.745 Y-1217.200 Z0.000 F2000.000
G1 X1217.200 Y-614.745 Z0.000 F2000.000
G1 X1217.200 Y-610.502 Z0.000 F2000.000
G1 X610.502 Y-1217.200 Z0.000 F2000.000
G1 X606.260 Y-1217.200 Z0.000 F2000.000
G1 X1217.200 Y-606.260 Z0.000 F2000.000
G1 X1217.200 Y-602.017 Z0.000 F2000.000
G1 X602.017 Y-1217.200 Z0.000 F2000.000
G1 X597.774 Y-1217.200 Z0.000 F2000.000
G1 X1217.200 Y-597.774 Z0.000 F2000.000
G1 X1217.200 Y-593.532 Z0.000 F2000.000
G1 X593.532 Y-1217.200 Z0.000 F2000.000
G1 X589.289 Y-1217.200 Z0.000 F2000.000
G1 X1217.200 Y-589.289 Z0.000 F2000.000
G1 X1217.200 Y-585.047 Z0.000 F2000.000
G1 X585.047 Y-1217.200 Z0.000 F2000.000
G1 X580.804 Y-1217.200 Z0.000 F2000.000
G1 X1217.200 Y-580.804 Z0.000 F2000.000
G1 X1217.200 Y-576.561 Z0.000 F2000.000
G1 X576.561 Y-1217.200 Z0.000 F2000.000
G1 X572.319 Y-1217.200 Z0.000 F2000.000
G1 X1217.200 Y-572.319 Z0.000 F2000.000
G1 X1217.200 Y-568.076 Z0.000 F2000.000
G1 X568.076 Y-1217.200 Z0.000 F2000.000
G1 X563.833 Y-1217.200 Z0.000 F2000.000
G1 X1217.200 Y-563.833 Z0.000 F2000.000
G1 X1217.200 Y-559.591 Z0.000 F2000.000
G1 X559.591 Y-1217.200 Z0.000 F2000.000
G1 X555.348 Y-1217.200 Z0.000 F2000.000
G1 X1217.200 Y-555.348 Z0.000 F2000.000
G1 X1217.200 Y-551.105 Z0.000 F2000.000
G1 X551.105 Y-1217.200 Z0.000 F2000.000
G1 X546.863 Y-1217.200 Z0.000 F2000.000
G1 X1217.200 Y-546.863 Z0.000 F2000.000
G1 X1217.200 Y-542.620 Z0.000 F2000.000
G1 X542.620 Y-1217.200 Z0.000 F2000.000
G1 X538.377 Y-1217.200 Z0.000 F2000.000
G1 X1217.200 Y-538.377 Z0.000 F2000.000
G1 X1217.200 Y-534.135 Z0.000 F2000.000
G1 X534.135 Y-1217.200 Z0.000 F2000.000
G1 X529.892 Y-1217.200 Z0.000 F2000.000
G1 X1217.200 Y-529.892 Z0.000 F2000.000
G1 X1217.200 Y-525.650 Z0.000 F2000.000
G1 X525.650 Y-1217.200 Z0.000 F2000.000
G1 X521.407 Y-1217.200 Z0.000 F2000.000
G1 X1217.200 Y-521.407 Z0.000 F2000.000
G1 X1217.200 Y-517.164 Z0.000 F2000.000
G1 X517.164 Y-1217.200 Z0.000 F2000.000
G1 X512.922 Y-1217.200 Z0.000 F2000.000
G1 X1217.200 Y-512.922 Z0.000 F2000.000
G1 X1217.200 Y-508.679 Z0.000 F2000.000
G1 X508.679 Y-1217.200 Z0.000 F2000.000
G1 X504.436 Y-1217.200 Z0.000 F2000.000
G1 X1217.200 Y-504.436 Z0.000 F2000.000
G1 X1217.200 Y-500.194 Z0.000 F2000.000
G1 X500.194 Y-1217.200 Z0.000 F2000.000
G1 X495.951 Y-1217.200 Z0.000 F2000.000
G1 X1217.200 Y-495.951 Z0.000 F2000.000
G1 X1217.200 Y-491.708 Z0.000 F2000.000
G1 X491.708 Y-1217.200 Z0.000 F2000.000
G1 X487.466 Y-1217.200 Z0.000 F2000.000
G1 X1217.200 Y-487.466 Z0.000 F2000.000
G1 X1217.200 Y-483.223 Z0.000 F2000.000
G1 X483.223 Y-1217.200 Z0.000 F2000.000
G1 X478.981 Y-1217.200 Z0.000 F2000.000
G1 X1217.200 Y-478.981 Z0.000 F2000.000
G1 X1217.200 Y-474.738 Z0.000 F2000.000
G1 X474.738 Y-1217.200 Z0.000 F2000.000
G1 X470.495 Y-1217.200 Z0.000 F2000.000
G1 X1217.200 Y-470.495 Z0.000 F2000.000
G1 X1217.200 Y-466.253 Z0.000 F2000.000
G1 X466.253 Y-1217.200 Z0.000 F2000.000
G1 X462.010 Y-1217.200 Z0.000 F2000.000
G1 X1217.200 Y-462.010 Z0.000 F2000.000
G1 X1217.200 Y-457.767 Z0.000 F2000.000
G1 X457.767 Y-1217.200 Z0.000 F2000.000
G1 X453.525 Y-1217.200 Z0.000 F2000.000
G1 X1217.200 Y-453.525 Z0.000 F2000.000
G1 X1217.200 Y-449.282 Z0.000 F2000.000
G1 X449.282 Y-1217.200 Z0.000 F2000.000
G1 X445.039 Y-1217.200 Z0.000 F2000.000
G1 X1217.200 Y-445.039 Z0.000 F2000.000
G1 X1217.200 Y-440.797 Z0.000 F2000.000
G1 X440.797 Y-1217.200 Z0.000 F2000.000
G1 X436.554 Y-1217.200 Z0.000 F2000.000
G1 X1217.200 Y-436.554 Z0.000 F2000.000
G1 X1217.200 Y-432.311 Z0.000 F2000.000
G1 X432.311 Y-1217.200 Z0.000 F2000.000
G1 X428.069 Y-1217.200 Z0.000 F2000.000
G1 X1217.200 Y-428.069 Z0.000 F2000.000
G1 X1217.200 Y-423.826 Z0.000 F2000.000
G1 X423.826 Y-1217.200 Z0.000 F2000.000
G1 X419.584 Y-1217.200 Z0.000 F2000.000
G1 X1217.200 Y-419.584 Z0.000 F2000.000
G1 X1217.200 Y-415.341 Z0.000 F2000.000
G1 X415.341 Y-1217.200 Z0.000 F2000.000
G1 X411.098 Y-1217.200 Z0.000 F2000.000
G1 X1217.200 Y-411.098 Z0.000 F2000.000
G1 X1217.200 Y-406.856 Z0.000 F2000.000
G1 X406.856 Y-1217.200 Z0.000 F2000.000
G1 X402.613 Y-1217.200 Z0.000 F2000.000
G1 X1217.200 Y-402.613 Z0.000 F2000.000
G1 X1217.200 Y-398.370 Z0.000 F2000.000
G1 X398.370 Y-1217.200 Z0.000 F2000.000
G1 X394.128 Y-1217.200 Z0.000 F2000.000
G1 X1217.200 Y-394.128 Z0.000 F2000.000
G1 X1217.200 Y-389.885 Z0.000 F2000.000
G1 X389.885 Y-1217.200 Z0.000 F2000.000
G1 X385.642 Y-1217.200 Z0.000 F2000.000
G1 X1217.200 Y-385.642 Z0.000 F2000.000
G1 X1217.200 Y-381.400 Z0.000 F2000.000
G1 X381.400 Y-1217.200 Z0.000 F2000.000
G1 X377.157 Y-1217.200 Z0.000 F2000.000
G1 X1217.200 Y-377.157 Z0.000 F2000.000
G1 X1217.200 Y-372.915 Z0.000 F2000.000
G1 X372.915 Y-1217.200 Z0.000 F2000.000
G1 X368.672 Y-1217.200 Z0.000 F2000.000
G1 X1217.200 Y-368.672 Z0.000 F2000.000
G1 X1217.200 Y-364.429 Z0.000 F2000.000
G1 X364.429 Y-1217.200 Z0.000 F2000.000
G1 X360.187 Y-1217.200 Z0.000 F2000.000
G1 X1217.200 Y-360.187 Z0.000 F2000.000
G1 X1217.200 Y-355.944 Z0.000 F2000.000
G1 X355.944 Y-1217.200 Z0.000 F2000.000
G1 X351.701 Y-1217.200 Z0.000 F2000.000
G1 X1217.200 Y-351.701 Z0.000 F2000.000
G1 X1217.200 Y-347.459 Z0.000 F2000.000
G1 X347.459 Y-1217.200 Z0.000 F2000.000
G1 X343.216 Y-1217.200 Z0.000 F2000.000
G1 X1217.200 Y-343.216 Z0.000 F2000.000
G1 X1217.200 Y-338.973 Z0.000 F2000.000
G1 X338.973 Y-1217.200 Z0.000 F2000.000
G1 X334.731 Y-1217.200 Z0.000 F2000.000
G1 X1217.200 Y-334.731 Z0.000 F2000.000
G1 X1217.200 Y-330.488 Z0.000 F2000.000
G1 X330.488 Y-1217.200 Z0.000 F2000.000
G1 X326.245 Y-1217.200 Z0.000 F2000.000
G1 X1217.200 Y-326.245 Z0.000 F2000.000
G1 X1217.200 Y-322.003 Z0.000 F2000.000
G1 X322.003 Y-1217.200 Z0.000 F2000.000
G1 X317.760 Y-1217.200 Z0.000 F2000.000
G1 X1217.200 Y-317.760 Z0.000 F2000.000
G1 X1217.200 Y-313.518 Z0.000 F2000.000
G1 X313.518 Y-1217.200 Z0.000 F2000.000
G1 X309.275 Y-1217.200 Z0.000 F2000.000
G1 X1217.200 Y-309.275 Z0.000 F2000.000
G1 X1217.200 Y-305.032 Z0.000 F2000.000
G1 X305.032 Y-1217.200 Z0.000 F2000.000
G1 X300.790 Y-1217.200 Z0.000 F2000.000
G1 X1217.200 Y-300.790 Z0.000 F2000.000
G1 X1217.200 Y-296.547 Z0.000 F2000.000
G1 X296.547 Y-1217.200 Z0.000 F2000.000
G1 X292.304 Y-1217.200 Z0.000 F2000.000
G1 X1217.200 Y-292.304 Z0.000 F2000.000
G1 X1217.200 Y-288.062 Z0.000 F2000.000
G1 X288.062 Y-1217.200 Z0.000 F2000.000
G1 X283.819 Y-1217.200 Z0.000 F2000.000
G1 X1217.200 Y-283.819 Z0.000 F2000.000
G1 X1217.200 Y-279.576 Z0.000 F2000.000
G1 X279.576 Y-1217.200 Z0.000 F2000.000
G1 X275.334 Y-1217.200 Z0.000 F2000.000
G1 X1217.200 Y-275.334 Z0.000 F2000.000
G1 X1217.200 Y-271.091 Z0.000 F2000.000
G1 X271.091 Y-1217.200 Z0.000 F2000.000
G1 X266.848 Y-1217.200 Z0.000 F2000.000
G1 X1217.200 Y-266.848 Z0.000 F2000.000
G1 X1217.200 Y-262.606 Z0.000 F2000.000
G1 X262.606 Y-1217.200 Z0.000 F2000.000
G1 X258.363 Y-1217.200 Z0.000 F2000.000
G1 X1217.200 Y-258.363 Z0.000 F2000.000
G1 X1217.200 Y-254.121 Z0.000 F2000.000
G1 X254.121 Y-1217.200 Z0.000 F2000.000
G1 X249.878 Y-1217.200 Z0.000 F2000.000
G1 X1217.200 Y-249.878 Z0.000 F2000.000
G1 X1217.200 Y-245.635 Z0.000 F2000.000
G1 X245.635 Y-1217.200 Z0.000 F2000.000
G1 X241.393 Y-1217.200 Z0.000 F2000.000
G1 X1217.200 Y-241.393 Z0.000 F2000.000
G1 X1217.200 Y-237.150 Z0.000 F2000.000
G1 X237.150 Y-1217.200 Z0.000 F2000.000
G1 X232.907 Y-1217.200 Z0.000 F2000.000
G1 X1217.200 Y-232.907 Z0.000 F2000.000
G1 X1217.200 Y-228.665 Z0.000 F2000.000
G1 X228.665 Y-1217.200 Z0.000 F2000.000
G1 X224.422 Y-1217.200 Z0.000 F2000.000
G1 X1217.200 Y-224.422 Z0.000 F2000.000
G1 X1217.200 Y-220.179 Z0.000 F2000.000
G1 X220.179 Y-1217.200 Z0.000 F2000.000
G1 X215.937 Y-1217.200 Z0.000 F2000.000
G1 X1217.200 Y-215.937 Z0.000 F2000.000
G1 X1217.200 Y-211.694 Z0.000 F2000.000
G1 X211.694 Y-1217.200 Z0.000 F2000.000
G1 X207.452 Y-1217.200 Z0.000 F2000.000
G1 X1217.200 Y-207.452 Z0.000 F2000.000
G1 X1217.200 Y-203.209 Z0.000 F2000.000
G1 X203.209 Y-1217.200 Z0.000 F2000.000
G1 X198.966 Y-1217.200 Z0.000 F2000.000
G1 X1217.200 Y-198.966 Z0.000 F2000.000
G1 X1217.200 Y-194.724 Z0.000 F2000.000
G1 X194.724 Y-1217.200 Z0.000 F2000.000
G1 X190.481 Y-1217.200 Z0.000 F2000.000
G1 X1217.200 Y-190.481 Z0.000 F2000.000
G1 X1217.200 Y-186.238 Z0.000 F2000.000
G1 X186.238 Y-1217.200 Z0.000 F2000.000
G1 X181.996 Y-1217.200 Z0.000 F2000.000
G1 X1217.200 Y-181.996 Z0.000 F2000.000
G1 X1217.200 Y-177.753 Z0.000 F2000.000
G1 X177.753 Y-1217.200 Z0.000 F2000.000
G1 X173.510 Y-1217.200 Z0.000 F2000.000
G1 X1217.200 Y-173.510 Z0.000 F2000.000
G1 X1217.200 Y-169.268 Z0.000 F2000.000
G1 X169.268 Y-1217.200 Z0.000 F2000.000
G1 X165.025 Y-1217.200 Z0.000 F2000.000
G1 X1217.200 Y-165.025 Z0.000 F2000.000
G1 X1217.200 Y-160.782 Z0.000 F2000.000
G1 X160.782 Y-1217.200 Z0.000 F2000.000
G1 X156.540 Y-1217.200 Z0.000 F2000.000
G1 X1217.200 Y-156.540 Z0.000 F2000.000
G1 X1217.200 Y-152.297 Z0.000 F2000.000
G1 X152.297 Y-1217.200 Z0.000 F2000.000
G1 X148.055 Y-1217.200 Z0.000 F2000.000
G1 X1217.200 Y-148.055 Z0.000 F2000.000
G1 X1217.200 Y-143.812 Z0.000 F2000.000
G1 X143.812 Y-1217.200 Z0.000 F2000.000
G1 X139.569 Y-1217.200 Z0.000 F2000.000
G1 X1217.200 Y-139.569 Z0.000 F2000.000
G1 X1217.200 Y-135.327 Z0.000 F2000.000
G1 X135.327 Y-1217.200 Z0.000 F2000.000
G1 X131.084 Y-1217.200 Z0.000 F2000.000
G1 X1217.200 Y-131.084 Z0.000 F2000.000
G1 X1217.200 Y-126.841 Z0.000 F2000.000
G1 X126.841 Y-1217.200 Z0.000 F2000.000
G1 X122.599 Y-1217.200 Z0.000 F2000.000
G1 X1217.200 Y-122.599 Z0.000 F2000.000
G1 X1217.200 Y-118.356 Z0.000 F2000.000
G1 X118.356 Y-1217.200 Z0.000 F2000.000
G1 X114.113 Y-1217.200 Z0.000 F2000.000
G1 X1217.200 Y-114.113 Z0.000 F2000.000
G1 X1217.200 Y-109.871 Z0.000 F2000.000
G1 X109.871 Y-1217.200 Z0.000 F2000.000
G1 X105.628 Y-1217.200 Z0.000 F2000.000
G1 X1217.200 Y-105.628 Z0.000 F2000.000
G1 X1217.200 Y-101.385 Z0.000 F2000.000
G1 X101.385 Y-1217.200 Z0.000 F2000.000
G1 X97.143 Y-1217.200 Z0.000 F2000.000
G1 X1217.200 Y-97.143 Z0.000 F2000.000
G1 X1217.200 Y-92.900 Z0.000 F2000.000
G1 X92.900 Y-1217.200 Z0.000 F2000.000
G1 X88.658 Y-1217.200 Z0.000 F2000.000
G1 X1217.200 Y-88.658 Z0.000 F2000.000
G1 X1217.200 Y-84.415 Z0.000 F2000.000
G1 X84.415 Y-1217.200 Z0.000 F2000.000
G1 X80.172 Y-1217.200 Z0.000 F2000.000
G1 X1217.200 Y-80.172 Z0.000 F2000.000
G1 X1217.200 Y-75.930 Z0.000 F2000.000
G1 X75.930 Y-1217.200 Z0.000 F2000.000
G1 X71.687 Y-1217.200 Z0.000 F2000.000
G1 X1217.200 Y-71.687 Z0.000 F2000.000
G1 X1217.200 Y-67.444 Z0.000 F2000.000
G1 X67.444 Y-1217.200 Z0.000 F2000.000
G1 X63.202 Y-1217.200 Z0.000 F2000.000
G1 X1217.200 Y-63.202 Z0.000 F2000.000
G1 X1217.200 Y-58.959 Z0.000 F2000.000
G1 X58.959 Y-1217.200 Z0.000 F2000.000
G1 X54.716 Y-1217.200 Z0.000 F2000.000
G1 X1217.200 Y-54.716 Z0.000 F2000.000
G1 X1217.200 Y-50.474 Z0.000 F2000.000
G1 X50.474 Y-1217.200 Z0.000 F2000.000
G1 X46.231 Y-1217.200 Z0.000 F2000.000
G1 X1217.200 Y-46.231 Z0.000 F2000.000
G1 X1217.200 Y-41.989 Z0.000 F2000.000
G1 X41.989 Y-1217.200 Z0.000 F2000.000
G1 X37.746 Y-1217.200 Z0.000 F2000.000
G1 X1217.200 Y-37.746 Z0.000 F2000.000
G1 X1217.200 Y-33.503 Z0.000 F2000.000
G1 X33.503 Y-1217.200 Z0.000 F2000.000
G1 X29.261 Y-1217.200 Z0.000 F2000.000
G1 X1217.200 Y-29.261 Z0.000 F2000.000
G1 X1217.200 Y-25.018 Z0.000 F2000.000
G1 X25.018 Y-1217.200 Z0.000 F2000.000
G1 X20.775 Y-1217.200 Z0.000 F2000.000
G1 X1217.200 Y-20.775 Z0.000 F2000.000
G1 X1217.200 Y-16.533 Z0.000 F2000.000
G1 X16.533 Y-1217.200 Z0.000 F2000.000
G1 X12.290 Y-1217.200 Z0.000 F2000.000
G1 X1217.200 Y-12.290 Z0.000 F2000.000
G1 X1217.200 Y-8.047 Z0.000 F2000.000
G1 X8.047 Y-1217.200 Z0.000 F2000.000
G1 X3.805 Y-1217.200 Z0.000 F2000.000
G1 X1217.200 Y-3.805 Z0.000 F2000.000
G1 X1217.200 Y-2.000 Z0.000 F2000.000
G1 X1214.762 Y-2.000 Z0.000 F2000.000
G1 X2.000 Y-1214.762 Z0.000 F2000.000
G1 X2.000 Y-1210.519 Z0.000 F2000.000
G1 X1210.519 Y-2.000 Z0.000 F2000.000
G1 X1206.277 Y-2.000 Z0.000 F2000.000
G1 X2.000 Y-1206.277 Z0.000 F2000.000
G1 X2.000 Y-1202.034 Z0.000 F2000.000
G1 X1202.034 Y-2.000 Z0.000 F2000.000
G1 X1197.792 Y-2.000 Z0.000 F2000.000
G1 X2.000 Y-1197.792 Z0.000 F2000.000
G1 X2.000 Y-1193.549 Z0.000 F2000.000
G1 X1193.549 Y-2.000 Z0.000 F2000.000
G1 X1189.306 Y-2.000 Z0.000 F2000.000
G1 X2.000 Y-1189.306 Z0.000 F2000.000
G1 X2.000 Y-1185.064 Z0.000 F2000.000
G1 X1185.064 Y-2.000 Z0.000 F2000.000
G1 X1180.821 Y-2.000 Z0.000 F2000.000
G1 X2.000 Y-1180.821 Z0.000 F2000.000
G1 X2.000 Y-1176.578 Z0.000 F2000.000
G1 X1176.578 Y-2.000 Z0.000 F2000.000
G1 X1172.336 Y-2.000 Z0.000 F2000.000
G1 X2.000 Y-1172.336 Z0.000 F2000.000
G1 X2.000 Y-1168.093 Z0.000 F2000.000
G1 X1168.093 Y-2.000 Z0.000 F2000.000
G1 X1163.850 Y-2.000 Z0.000 F2000.000
G1 X2.000 Y-1163.850 Z0.000 F2000.000
G1 X2.000 Y-1159.608 Z0.000 F2000.000
G1 X1159.608 Y-2.000 Z0.000 F2000.000
G1 X1155.365 Y-2.000 Z0.000 F2000.000
G1 X2.000 Y-1155.365 Z0.000 F2000.000
G1 X2.000 Y-1151.123 Z0.000 F2000.000
G1 X1151.123 Y-2.000 Z0.000 F2000.000
G1 X1146.880 Y-2.000 Z0.000 F2000.000
G1 X2.000 Y-1146.880 Z0.000 F2000.000
G1 X2.000 Y-1142.637 Z0.000 F2000.000
G1 X1142.637 Y-2.000 Z0.000 F2000.000
G1 X1138.395 Y-2.000 Z0.000 F2000.000
G1 X2.000 Y-1138.395 Z0.000 F2000.000
G1 X2.000 Y-1134.152 Z0.000 F2000.000
G1 X1134.152 Y-2.000 Z0.000 F2000.000
G1 X1129.909 Y-2.000 Z0.000 F2000.000
G1 X2.000 Y-1129.909 Z0.000 F2000.000
G1 X2.000 Y-1125.667 Z0.000 F2000.000
G1 X1125.667 Y-2.000 Z0.000 F2000.000
G1 X1121.424 Y-2.000 Z0.000 F2000.000
G1 X2.000 Y-1121.424 Z0.000 F2000.000
G1 X2.000 Y-1117.181 Z0.000 F2000.000
G1 X1117.181 Y-2.000 Z0.000 F2000.000
G1 X1112.939 Y-2.000 Z0.000 F2000.000
G1 X2.000 Y-1112.939 Z0.000 F2000.000
G1 X2.000 Y-1108.696 Z0.000 F2000.000
G1 X1108.696 Y-2.000 Z0.000 F2000.000
G1 X1104.453 Y-2.000 Z0.000 F2000.000
G1 X2.000 Y-1104.453 Z0.000 F2000.000
G1 X2.000 Y-1100.211 Z0.000 F2000.000
G1 X1100.211 Y-2.000 Z0.000 F2000.000
G1 X1095.968 Y-2.000 Z0.000 F2000.000
G1 X2.000 Y-1095.968 Z0.000 F2000.000
G1 X2.000 Y-1091.726 Z0.000 F2000.000
G1 X1091.726 Y-2.000 Z0.000 F2000.000
G1 X1087.483 Y-2.000 Z0.000 F2000.000
G1 X2.000 Y-1087.483 Z0.000 F2000.000
G1 X2.000 Y-1083.240 Z0.000 F2000.000
G1 X1083.240 Y-2.000 Z0.000 F2000.000
G1 X1078.998 Y-2.000 Z0.000 F2000.000
G1 X2.000 Y-1078.998 Z0.000 F2000.000
G1 X2.000 Y-1074.755 Z0.000 F2000.000
G1 X1074.755 Y-2.000 Z0.000 F2000.000
G1 X1070.512 Y-2.000 Z0.000 F2000.000
G1 X2.000 Y-1070.512 Z0.000 F2000.000
G1 X2.000 Y-1066.270 Z0.000 F2000.000
G1 X1066.270 Y-2.000 Z0.000 F2000.000
G1 X1062.027 Y-2.000 Z0.000 F2000.000
G1 X2.000 Y-1062.027 Z0.000 F2000.000
G1 X2.000 Y-1057.784 Z0.000 F2000.000
G1 X1057.784 Y-2.000 Z0.000 F2000.000
G1 X1053.542 Y-2.000 Z0.000 F2000.000
G1 X2.000 Y-1053.542 Z0.000 F2000.000
G1 X2.000 Y-1049.299 Z0.000 F2000.000
G1 X1049.299 Y-2.000 Z0.000 F2000.000
G1 X1045.056 Y-2.000 Z0.000 F2000.000
G1 X2.000 Y-1045.056 Z0.000 F2000.000
G1 X2.000 Y-1040.814 Z0.000 F2000.000
G1 X1040.814 Y-2.000 Z0.000 F2000.000
G1 X1036.571 Y-2.000 Z0.000 F2000.000
G1 X2.000 Y-1036.571 Z0.000 F2000.000
G1 X2.000 Y-1032.329 Z0.000 F2000.000
G1 X1032.329 Y-2.000 Z0.000 F2000.000
G1 X1028.086 Y-2.000 Z0.000 F2000.000
G1 X2.000 Y-1028.086 Z0.000 F2000.000
G1 X2.000 Y-1023.843 Z0.000 F2000.000
G1 X1023.843 Y-2.000 Z0.000 F2000.000
G1 X1019.601 Y-2.000 Z0.000 F2000.000
G1 X2.000 Y-1019.601 Z0.000 F2000.000
G1 X2.000 Y-1015.358 Z0.000 F2000.000
G1 X1015.358 Y-2.000 Z0.000 F2000.000
G1 X1011.115 Y-2.000 Z0.000 F2000.000
G1 X2.000 Y-1011.115 Z0.000 F2000.000
G1 X2.000 Y-1006.873 Z0.000 F2000.000
G1 X1006.873 Y-2.000 Z0.000 F2000.000
G1 X1002.630 Y-2.000 Z0.000 F2000.000
G1 X2.000 Y-1002.630 Z0.000 F2000.000
G1 X2.000 Y-998.387 Z0.000 F2000.000
G1 X998.387 Y-2.000 Z0.000 F2000.000
G1 X994.145 Y-2.000 Z0.000 F2000.000
G1 X2.000 Y-994.145 Z0.000 F2000.000
G1 X2.000 Y-989.902 Z0.000 F2000.000
G1 X989.902 Y-2.000 Z0.000 F2000.000
G1 X985.660 Y-2.000 Z0.000 F2000.000
G1 X2.000 Y-985.660 Z0.000 F2000.000
G1 X2.000 Y-981.417 Z0.000 F2000.000
G1 X981.417 Y-2.000 Z0.000 F2000.000
G1 X977.174 Y-2.000 Z0.000 F2000.000
G1 X2.000 Y-977.174 Z0.000 F2000.000
G1 X2.000 Y-972.932 Z0.000 F2000.000
G1 X972.932 Y-2.000 Z0.000 F2000.000
G1 X968.689 Y-2.000 Z0.000 F2000.000
G1 X2.000 Y-968.689 Z0.000 F2000.000
G1 X2.000 Y-964.446 Z0.000 F2000.000
G1 X964.446 Y-2.000 Z0.000 F2000.000
G1 X960.204 Y-2.000 Z0.000 F2000.000
G1 X2.000 Y-960.204 Z0.000 F2000.000
G1 X2.000 Y-955.961 Z0.000 F2000.000
G1 X955.961 Y-2.000 Z0.000 F2000.000
G1 X951.718 Y-2.000 Z0.000 F2000.000
G1 X2.000 Y-951.718 Z0.000 F2000.000
G1 X2.000 Y-947.476 Z0.000 F2000.000
G1 X947.476 Y-2.000 Z0.000 F2000.000
G1 X943.233 Y-2.000 Z0.000 F2000.000
G1 X2.000 Y-943.233 Z0.000 F2000.000
G1 X2.000 Y-938.990 Z0.000 F2000.000
G1 X938.990 Y-2.000 Z0.000 F2000.000
G1 X934.748 Y-2.000 Z0.000 F2000.000
G1 X2.000 Y-934.748 Z0.000 F2000.000
G1 X2.000 Y-930.505 Z0.000 F2000.000
G1 X930.505 Y-2.000 Z0.000 F2000.000
G1 X926.263 Y-2.000 Z0.000 F2000.000
G1 X2.000 Y-926.263 Z0.000 F2000.000
G1 X2.000 Y-922.020 Z0.000 F2000.000
G1 X922.020 Y-2.000 Z0.000 F2000.000
G1 X917.777 Y-2.000 Z0.000 F2000.000
G1 X2.000 Y-917.777 Z0.000 F2000.000
G1 X2.000 Y-913.535 Z0.000 F2000.000
G1 X913.535 Y-2.000 Z0.000 F2000.000
G1 X909.292 Y-2.000 Z0.000 F2000.000
G1 X2.000 Y-909.292 Z0.000 F2000.000
G1 X2.000 Y-905.049 Z0.000 F2000.000
G1 X905.049 Y-2.000 Z0.000 F2000.000
G1 X900.807 Y-2.000 Z0.000 F2000.000
G1 X2.000 Y-900.807 Z0.000 F2000.000
G1 X2.000 Y-896.564 Z0.000 F2000.000
G1 X896.564 Y-2.000 Z0.000 F2000.000
G1 X892.321 Y-2.000 Z0.000 F2000.000
G1 X2.000 Y-892.321 Z0.000 F2000.000
G1 X2.000 Y-888.079 Z0.000 F2000.000
G1 X888.079 Y-2.000 Z0.000 F2000.000
G1 X883.836 Y-2.000 Z0.000 F2000.000
G1 X2.000 Y-883.836 Z0.000 F2000.000
G1 X2.000 Y-879.594 Z0.000 F2000.000
G1 X879.594 Y-2.000 Z0.000 F2000.000
G1 X875.351 Y-2.000 Z0.000 F2000.000
G1 X2.000 Y-875.351 Z0.000 F2000.000
G1 X2.000 Y-871.108 Z0.000 F2000.000
G1 X871.108 Y-2.000 Z0.000 F2000.000
G1 X866.866 Y-2.000 Z0.000 F2000.000
G1 X2.000 Y-866.866 Z0.000 F2000.000
G1 X2.000 Y-862.623 Z0.000 F2000.000
G1 X862.623 Y-2.000 Z0.000 F2000.000
G1 X858.380 Y-2.000 Z0.000 F2000.000
G1 X2.000 Y-858.380 Z0.000 F2000.000
G1 X2.000 Y-854.138 Z0.000 F2000.000
G1 X854.138 Y-2.000 Z0.000 F2000.000
G1 X849.895 Y-2.000 Z0.000 F2000.000
G1 X2.000 Y-849.895 Z0.000 F2000.000
G1 X2.000 Y-845.652 Z0.000 F2000.000
G1 X845.652 Y-2.000 Z0.000 F2000.000
G1 X841.410 Y-2.000 Z0.000 F2000.000
G1 X2.000 Y-841.410 Z0.000 F2000.000
G1 X2.000 Y-837.167 Z0.000 F2000.000
G1 X837.167 Y-2.000 Z0.000 F2000.000
G1 X832.924 Y-2.000 Z0.000 F2000.000
G1 X2.000 Y-832.924 Z0.000 F2000.000
G1 X2.000 Y-828.682 Z0.000 F2000.000
G1 X828.682 Y-2.000 Z0.000 F2000.000
G1 X824.439 Y-2.000 Z0.000 F2000.000
G1 X2.000 Y-824.439 Z0.000 F2000.000
G1 X2.000 Y-820.197 Z0.000 F2000.000
G1 X820.197 Y-2.000 Z0.000 F2000.000
G1 X815.954 Y-2.000 Z0.000 F2000.000
G1 X2.000 Y-815.954 Z0.000 F2000.000
G1 X2.000 Y-811.711 Z0.000 F2000.000
G1 X811.711 Y-2.000 Z0.000 F2000.000
G1 X807.469 Y-2.000 Z0.000 F2000.000
G1 X2.000 Y-807.469 Z0.000 F2000.000
G1 X2.000 Y-803.226 Z0.000 F2000.000
G1 X803.226 Y-2.000 Z0.000 F2000.000
G1 X798.983 Y-2.000 Z0.000 F2000.000
G1 X2.000 Y-798.983 Z0.000 F2000.000
G1 X2.000 Y-794.741 Z0.000 F2000.000
G1 X794.741 Y-2.000 Z0.000 F2000.000
G1 X790.498 Y-2.000 Z0.000 F2000.000
G1 X2.000 Y-790.498 Z0.000 F2000.000
G1 X2.000 Y-786.255 Z0.000 F2000.000
G1 X786.255 Y-2.000 Z0.000 F2000.000
G1 X782.013 Y-2.000 Z0.000 F2000.000
G1 X2.000 Y-782.013 Z0.000 F2000.000
G1 X2.000 Y-777.770 Z0.000 F2000.000
G1 X777.770 Y-2.000 Z0.000 F2000.000
G1 X773.527 Y-2.000 Z0.000 F2000.000
G1 X2.000 Y-773.527 Z0.000 F2000.000
G1 X2.000 Y-769.285 Z0.000 F2000.000
G1 X769.285 Y-2.000 Z0.000 F2000.000
G1 X765.042 Y-2.000 Z0.000 F2000.000
G1 X2.000 Y-765.042 Z0.000 F2000.000
G1 X2.000 Y-760.800 Z0.000 F2000.000
G1 X760.800 Y-2.000 Z0.000 F2000.000
G1 X756.557 Y-2.000 Z0.000 F2000.000
G1 X2.000 Y-756.557 Z0.000 F2000.000
G1 X2.000 Y-752.314 Z0.000 F2000.000
G1 X752.314 Y-2.000 Z0.000 F2000.000
G1 X748.072 Y-2.000 Z0.000 F2000.000
G1 X2.000 Y-748.072 Z0.000 F2000.000
G1 X2.000 Y-743.829 Z0.000 F2000.000
G1 X743.829 Y-2.000 Z0.000 F2000.000
G1 X739.586 Y-2.000 Z0.000 F2000.000
G1 X2.000 Y-739.586 Z0.000 F2000.000
G1 X2.000 Y-735.344 Z0.000 F2000.000
G1 X735.344 Y-2.000 Z0.000 F2000.000
G1 X731.101 Y-2.000 Z0.000 F2000.000
G1 X2.000 Y-731.101 Z0.000 F2000.000
G1 X2.000 Y-726.858 Z0.000 F2000.000
G1 X726.858 Y-2.000 Z0.000 F2000.000
G1 X722.616 Y-2.000 Z0.000 F2000.000
G1 X2.000 Y-722.616 Z0.000 F2000.000
G1 X2.000 Y-718.373 Z0.000 F2000.000
G1 X718.373 Y-2.000 Z0.000 F2000.000
G1 X714.131 Y-2.000 Z0.000 F2000.000
G1 X2.000 Y-714.131 Z0.000 F2000.000
G1 X2.000 Y-709.888 Z0.000 F2000.000
G1 X709.888 Y-2.000 Z0.000 F2000.000
G1 X705.645 Y-2.000 Z0.000 F2000.000
G1 X2.000 Y-705.645 Z0.000 F2000.000
G1 X2.000 Y-701.403 Z0.000 F2000.000
G1 X701.403 Y-2.000 Z0.000 F2000.000
G1 X697.160 Y-2.000 Z0.000 F2000.000
G1 X2.000 Y-697.160 Z0.000 F2000.000
G1 X2.000 Y-692.917 Z0.000 F2000.000
G1 X692.917 Y-2.000 Z0.000 F2000.000
G1 X688.675 Y-2.000 Z0.000 F2000.000
G1 X2.000 Y-688.675 Z0.000 F2000.000
G1 X2.000 Y-684.432 Z0.000 F2000.000
G1 X684.432 Y-2.000 Z0.000 F2000.000
G1 X680.189 Y-2.000 Z0.000 F2000.000
G1 X2.000 Y-680.189 Z0.000 F2000.000
G1 X2.000 Y-675.947 Z0.000 F2000.000
G1 X675.947 Y-2.000 Z0.000 F2000.000
G1 X671.704 Y-2.000 Z0.000 F2000.000
G1 X2.000 Y-671.704 Z0.000 F2000.000
G1 X2.000 Y-667.461 Z0.000 F2000.000
G1 X667.461 Y-2.000 Z0.000 F2000.000
G1 X663.219 Y-2.000 Z0.000 F2000.000
G1 X2.000 Y-663.219 Z0.000 F2000.000
G1 X2.000 Y-658.976 Z0.000 F2000.000
G1 X658.976 Y-2.000 Z0.000 F2000.000
G1 X654.734 Y-2.000 Z0.000 F2000.000
G1 X2.000 Y-654.734 Z0.000 F2000.000
G1 X2.000 Y-650.491 Z0.000 F2000.000
G1 X650.491 Y-2.000 Z0.000 F2000.000
G1 X646.248 Y-2.000 Z0.000 F2000.000
G1 X2.000 Y-646.248 Z0.000 F2000.000
G1 X2.000 Y-642.006 Z0.000 F2000.000
G1 X642.006 Y-2.000 Z0.000 F2000.000
G1 X637.763 Y-2.000 Z0.000 F2000.000
G1 X2.000 Y-637.763 Z0.000 F2000.000
G1 X2.000 Y-633.520 Z0.000 F2000.000
G1 X633.520 Y-2.000 Z0.000 F2000.000
G1 X629.278 Y-2.000 Z0.000 F2000.000
G1 X2.000 Y-629.278 Z0.000 F2000.000
G1 X2.000 Y-625.035 Z0.000 F2000.000
G1 X625.035 Y-2.000 Z0.000 F2000.000
G1 X620.792 Y-2.000 Z0.000 F2000.000
G1 X2.000 Y-620.792 Z0.000 F2000.000
G1 X2.000 Y-616.550 Z0.000 F2000.000
G1 X616.550 Y-2.000 Z0.000 F2000.000
G1 X612.307 Y-2.000 Z0.000 F2000.000
G1 X2.000 Y-612.307 Z0.000 F2000.000
G1 X2.000 Y-608.065 Z0.000 F2000.000
G1 X608.065 Y-2.000 Z0.000 F2000.000
G1 X603.822 Y-2.000 Z0.000 F2000.000
G1 X2.000 Y-603.822 Z0.000 F2000.000
G1 X2.000 Y-599.579 Z0.000 F2000.000
G1 X599.579 Y-2.000 Z0.000 F2000.000
G1 X595.337 Y-2.000 Z0.000 F2000.000
G1 X2.000 Y-595.337 Z0.000 F2000.000
G1 X2.000 Y-591.094 Z0.000 F2000.000
G1 X591.094 Y-2.000 Z0.000 F2000.000
G1 X586.851 Y-2.000 Z0.000 F2000.000
G1 X2.000 Y-586.851 Z0.000 F2000.000
G1 X2.000 Y-582.609 Z0.000 F2000.000
G1 X582.609 Y-2.000 Z0.000 F2000.000
G1 X578.366 Y-2.000 Z0.000 F2000.000
G1 X2.000 Y-578.366 Z0.000 F2000.000
G1 X2.000 Y-574.123 Z0.000 F2000.000
G1 X574.123 Y-2.000 Z0.000 F2000.000
G1 X569.881 Y-2.000 Z0.000 F2000.000
G1 X2.000 Y-569.881 Z0.000 F2000.000
G1 X2.000 Y-565.638 Z0.000 F2000.000
G1 X565.638 Y-2.000 Z0.000 F2000.000
G1 X561.395 Y-2.000 Z0.000 F2000.000
G1 X2.000 Y-561.395 Z0.000 F2000.000
G1 X2.000 Y-557.153 Z0.000 F2000.000
G1 X557.153 Y-2.000 Z0.000 F2000.000
G1 X552.910 Y-2.000 Z0.000 F2000.000
G1 X2.000 Y-552.910 Z0.000 F2000.000
G1 X2.000 Y-548.668 Z0.000 F2000.000
G1 X548.668 Y-2.000 Z0.000 F2000.000
G1 X544.425 Y-2.000 Z0.000 F2000.000
G1 X2.000 Y-544.425 Z0.000 F2000.000
G1 X2.000 Y-540.182 Z0.000 F2000.000
G1 X540.182 Y-2.000 Z0.000 F2000.000
G1 X535.940 Y-2.000 Z0.000 F2000.000
G1 X2.000 Y-535.940 Z0.000 F2000.000
G1 X2.000 Y-531.697 Z0.000 F2000.000
G1 X531.697 Y-2.000 Z0.000 F2000.000
G1 X527.454 Y-2.000 Z0.000 F2000.000
G1 X2.000 Y-527.454 Z0.000 F2000.000
G1 X2.000 Y-523.212 Z0.000 F2000.000
G1 X523.212 Y-2.000 Z0.000 F2000.000
G1 X518.969 Y-2.000 Z0.000 F2000.000
G1 X2.000 Y-518.969 Z0.000 F2000.000
G1 X2.000 Y-514.726 Z0.000 F2000.000
G1 X514.726 Y-2.000 Z0.000 F2000.000
G1 X510.484 Y-2.000 Z0.000 F2000.000
G1 X2.000 Y-510.484 Z0.000 F2000.000
G1 X2.000 Y-506.241 Z0.000 F2000.000
G1 X506.241 Y-2.000 Z0.000 F2000.000
G1 X501.998 Y-2.000 Z0.000 F2000.000
G1 X2.000 Y-501.998 Z0.000 F2000.000
G1 X2.000 Y-497.756 Z0.000 F2000.000
G1 X497.756 Y-2.000 Z0.000 F2000.000
G1 X493.513 Y-2.000 Z0.000 F2000.000
G1 X2.000 Y-493.513 Z0.000 F2000.000
G1 X2.000 Y-489.271 Z0.000 F2000.000
G1 X489.271 Y-2.000 Z0.000 F2000.000
G1 X485.028 Y-2.000 Z0.000 F2000.000
G1 X2.000 Y-485.028 Z0.000 F2000.000
G1 X2.000 Y-480.785 Z0.000 F2000.000
G1 X480.785 Y-2.000 Z0.000 F2000.000
G1 X476.543 Y-2.000 Z0.000 F2000.000
G1 X2.000 Y-476.543 Z0.000 F2000.000
G1 X2.000 Y-472.300 Z0.000 F2000.000
G1 X472.300 Y-2.000 Z0.000 F2000.000
G1 X468.057 Y-2.000 Z0.000 F2000.000
G1 X2.000 Y-468.057 Z0.000 F2000.000
G1 X2.000 Y-463.815 Z0.000 F2000.000
G1 X463.815 Y-2.000 Z0.000 F2000.000
G1 X459.572 Y-2.000 Z0.000 F2000.000
G1 X2.000 Y-459.572 Z0.000 F2000.000
G1 X2.000 Y-455.329 Z0.000 F2000.000
G1 X455.329 Y-2.000 Z0.000 F2000.000
G1 X451.087 Y-2.000 Z0.000 F2000.000
G1 X2.000 Y-451.087 Z0.000 F2000.000
G1 X2.000 Y-446.844 Z0.000 F2000.000
G1 X446.844 Y-2.000 Z0.000 F2000.000
G1 X442.602 Y-2.000 Z0.000 F2000.000
G1 X2.000 Y-442.602 Z0.000 F2000.000
G1 X2.000 Y-438.359 Z0.000 F2000.000
G1 X438.359 Y-2.000 Z0.000 F2000.000
G1 X434.116 Y-2.000 Z0.000 F2000.000
G1 X2.000 Y-434.116 Z0.000 F2000.000
G1 X2.000 Y-429.874 Z0.000 F2000.000
G1 X429.874 Y-2.000 Z0.000 F2000.000
G1 X425.631 Y-2.000 Z0.000 F2000.000
G1 X2.000 Y-425.631 Z0.000 F2000.000
G1 X2.000 Y-421.388 Z0.000 F2000.000
G1 X421.388 Y-2.000 Z0.000 F2000.000
G1 X417.146 Y-2.000 Z0.000 F2000.000
G1 X2.000 Y-417.146 Z0.000 F2000.000
G1 X2.000 Y-412.903 Z0.000 F2000.000
G1 X412.903 Y-2.000 Z0.000 F2000.000
G1 X408.660 Y-2.000 Z0.000 F2000.000
G1 X2.000 Y-408.660 Z0.000 F2000.000
G1 X2.000 Y-404.418 Z0.000 F2000.000
G1 X404.418 Y-2.000 Z0.000 F2000.000
G1 X400.175 Y-2.000 Z0.000 F2000.000
G1 X2.000 Y-400.175 Z0.000 F2000.000
G1 X2.000 Y-395.932 Z0.000 F2000.000
G1 X395.932 Y-2.000 Z0.000 F2000.000
G1 X391.690 Y-2.000 Z0.000 F2000.000
G1 X2.000 Y-391.690 Z0.000 F2000.000
G1 X2.000 Y-387.447 Z0.000 F2000.000
G1 X387.447 Y-2.000 Z0.000 F2000.000
G1 X383.205 Y-2.000 Z0.000 F2000.000
G1 X2.000 Y-383.205 Z0.000 F2000.000
G1 X2.000 Y-378.962 Z0.000 F2000.000
G1 X378.962 Y-2.000 Z0.000 F2000.000
G1 X374.719 Y-2.000 Z0.000 F2000.000
G1 X2.000 Y-374.719 Z0.000 F2000.000
G1 X2.000 Y-370.477 Z0.000 F2000.000
G1 X370.477 Y-2.000 Z0.000 F2000.000
G1 X366.234 Y-2.000 Z0.000 F2000.000
G1 X2.000 Y-366.234 Z0.000 F2000.000
G1 X2.000 Y-361.991 Z0.000 F2000.000
G1 X361.991 Y-2.000 Z0.000 F2000.000
G1 X357.749 Y-2.000 Z0.000 F2000.000
G1 X2.000 Y-357.749 Z0.000 F2000.000
G1 X2.000 Y-353.506 Z0.000 F2000.000
G1 X353.506 Y-2.000 Z0.000 F2000.000
G1 X349.263 Y-2.000 Z0.000 F2000.000
G1 X2.000 Y-349.263 Z0.000 F2000.000
G1 X2.000 Y-345.021 Z0.000 F2000.000
G1 X345.021 Y-2.000 Z0.000 F2000.000
G1 X340.778 Y-2.000 Z0.000 F2000.000
G1 X2.000 Y-340.778 Z0.000 F2000.000
G1 X2.000 Y-336.536 Z0.000 F2000.000
G1 X336.536 Y-2.000 Z0.000 F2000.000
G1 X332.293 Y-2.000 Z0.000 F2000.000
G1 X2.000 Y-332.293 Z0.000 F2000.000
G1 X2.000 Y-328.050 Z0.000 F2000.000
G1 X328.050 Y-2.000 Z0.000 F2000.000
G1 X323.808 Y-2.000 Z0.000 F2000.000
G1 X2.000 Y-323.808 Z0.000 F2000.000
G1 X2.000 Y-319.565 Z0.000 F2000.000
G1 X319.565 Y-2.000 Z0.000 F2000.000
G1 X315.322 Y-2.000 Z0.000 F2000.000
G1 X2.000 Y-315.322 Z0.000 F2000.000
G1 X2.000 Y-311.080 Z0.000 F2000.000
G1 X311.080 Y-2.000 Z0.000 F2000.000
G1 X306.837 Y-2.000 Z0.000 F2000.000
G1 X2.000 Y-306.837 Z0.000 F2000.000
G1 X2.000 Y-302.594 Z0.000 F2000.000
G1 X302.594 Y-2.000 Z0.000 F2000.000
G1 X298.352 Y-2.000 Z0.000 F2000.000
G1 X2.000 Y-298.352 Z0.000 F2000.000
G1 X2.000 Y-294.109 Z0.000 F2000.000
G1 X294.109 Y-2.000 Z0.000 F2000.000
G1 X289.866 Y-2.000 Z0.000 F2000.000
G1 X2.000 Y-289.866 Z0.000 F2000.000
G1 X2.000 Y-285.624 Z0.000 F2000.000
G1 X285.624 Y-2.000 Z0.000 F2000.000
G1 X281.381 Y-2.000 Z0.000 F2000.000
G1 X2.000 Y-281.381 Z0.000 F2000.000
G1 X2.000 Y-277.139 Z0.000 F2000.000
G1 X277.139 Y-2.000 Z0.000 F2000.000
G1 X272.896 Y-2.000 Z0.000 F2000.000
G1 X2.000 Y-272.896 Z0.000 F2000.000
G1 X2.000 Y-268.653 Z0.000 F2000.000
G1 X268.653 Y-2.000 Z0.000 F2000.000
G1 X264.411 Y-2.000 Z0.000 F2000.000
G1 X2.000 Y-264.411 Z0.000 F2000.000
G1 X2.000 Y-260.168 Z0.000 F2000.000
G1 X260.168 Y-2.000 Z0.000 F2000.000
G1 X255.925 Y-2.000 Z0.000 F2000.000
G1 X2.000 Y-255.925 Z0.000 F2000.000
G1 X2.000 Y-251.683 Z0.000 F2000.000
G1 X251.683 Y-2.000 Z0.000 F2000.000
G1 X247.440 Y-2.000 Z0.000 F2000.000
G1 X2.000 Y-247.440 Z0.000 F2000.000
G1 X2.000 Y-243.197 Z0.000 F2000.000
G1 X243.197 Y-2.000 Z0.000 F2000.000
G1 X238.955 Y-2.000 Z0.000 F2000.000
G1 X2.000 Y-238.955 Z0.000 F2000.000
G1 X2.000 Y-234.712 Z0.000 F2000.000
G1 X234.712 Y-2.000 Z0.000 F2000.000
G1 X230.469 Y-2.000 Z0.000 F2000.000
G1 X2.000 Y-230.469 Z0.000 F2000.000
G1 X2.000 Y-226.227 Z0.000 F2000.000
G1 X226.227 Y-2.000 Z0.000 F2000.000
G1 X221.984 Y-2.000 Z0.000 F2000.000
G1 X2.000 Y-221.984 Z0.000 F2000.000
G1 X2.000 Y-217.742 Z0.000 F2000.000
G1 X217.742 Y-2.000 Z0.000 F2000.000
G1 X213.499 Y-2.000 Z0.000 F2000.000
G1 X2.000 Y-213.499 Z0.000 F2000.000
G1 X2.000 Y-209.256 Z0.000 F2000.000
G1 X209.256 Y-2.000 Z0.000 F2000.000
G1 X205.014 Y-2.000 Z0.000 F2000.000
G1 X2.000 Y-205.014 Z0.000 F2000.000
G1 X2.000 Y-200.771 Z0.000 F2000.000
G1 X200.771 Y-2.000 Z0.000 F2000.000
G1 X196.528 Y-2.000 Z0.000 F2000.000
G1 X2.000 Y-196.528 Z0.000 F2000.000
G1 X2.000 Y-192.286 Z0.000 F2000.000
G1 X192.286 Y-2.000 Z0.000 F2000.000
G1 X188.043 Y-2.000 Z0.000 F2000.000
G1 X2.000 Y-188.043 Z0.000 F2000.000
G1 X2.000 Y-183.800 Z0.000 F2000.000
G1 X183.800 Y-2.000 Z0.000 F2000.000
G1 X179.558 Y-2.000 Z0.000 F2000.000
G1 X2.000 Y-179.558 Z0.000 F2000.000
G1 X2.000 Y-175.315 Z0.000 F2000.000
G1 X175.315 Y-2.000 Z0.000 F2000.000
G1 X171.073 Y-2.000 Z0.000 F2000.000
G1 X2.000 Y-171.073 Z0.000 F2000.000
G1 X2.000 Y-166.830 Z0.000 F2000.000
G1 X166.830 Y-2.000 Z0.000 F2000.000
G1 X162.587 Y-2.000 Z0.000 F2000.000
G1 X2.000 Y-162.587 Z0.000 F2000.000
G1 X2.000 Y-158.345 Z0.000 F2000.000
G1 X158.345 Y-2.000 Z0.000 F2000.000
G1 X154.102 Y-2.000 Z0.000 F2000.000
G1 X2.000 Y-154.102 Z0.000 F2000.000
G1 X2.000 Y-149.859 Z0.000 F2000.000
G1 X149.859 Y-2.000 Z0.000 F2000.000
G1 X145.617 Y-2.000 Z0.000 F2000.000
G1 X2.000 Y-145.617 Z0.000 F2000.000
G1 X2.000 Y-141.374 Z0.000 F2000.000
G1 X141.374 Y-2.000 Z0.000 F2000.000
G1 X137.131 Y-2.000 Z0.000 F2000.000
G1 X2.000 Y-137.131 Z0.000 F2000.000
G1 X2.000 Y-132.889 Z0.000 F2000.000
G1 X132.889 Y-2.000 Z0.000 F2000.000
G1 X128.646 Y-2.000 Z0.000 F2000.000
G1 X2.000 Y-128.646 Z0.000 F2000.000
G1 X2.000 Y-124.403 Z0.000 F2000.000
G1 X124.403 Y-2.000 Z0.000 F2000.000
G1 X120.161 Y-2.000 Z0.000 F2000.000
G1 X2.000 Y-120.161 Z0.000 F2000.000
G1 X2.000 Y-115.918 Z0.000 F2000.000
G1 X115.918 Y-2.000 Z0.000 F2000.000
G1 X111.676 Y-2.000 Z0.000 F2000.000
G1 X2.000 Y-111.676 Z0.000 F2000.000
G1 X2.000 Y-107.433 Z0.000 F2000.000
G1 X107.433 Y-2.000 Z0.000 F2000.000
G1 X103.190 Y-2.000 Z0.000 F2000.000
G1 X2.000 Y-103.190 Z0.000 F2000.000
G1 X2.000 Y-98.948 Z0.000 F2000.000
G1 X98.948 Y-2.000 Z0.000 F2000.000
G1 X94.705 Y-2.000 Z0.000 F2000.000
G1 X2.000 Y-94.705 Z0.000 F2000.000
G1 X2.000 Y-90.462 Z0.000 F2000.000
G1 X90.462 Y-2.000 Z0.000 F2000.000
G1 X86.220 Y-2.000 Z0.000 F2000.000
G1 X2.000 Y-86.220 Z0.000 F2000.000
G1 X2.000 Y-81.977 Z0.000 F2000.000
G1 X81.977 Y-2.000 Z0.000 F2000.000
G1 X77.734 Y-2.000 Z0.000 F2000.000
G1 X2.000 Y-77.734 Z0.000 F2000.000
G1 X2.000 Y-73.492 Z0.000 F2000.000
G1 X73.492 Y-2.000 Z0.000 F2000.000
G1 X69.249 Y-2.000 Z0.000 F2000.000
G1 X2.000 Y-69.249 Z0.000 F2000.000
G1 X2.000 Y-65.006 Z0.000 F2000.000
G1 X65.006 Y-2.000 Z0.000 F2000.000
G1 X60.764 Y-2.000 Z0.000 F2000.000
G1 X2.000 Y-60.764 Z0.000 F2000.000
G1 X2.000 Y-56.521 Z0.000 F2000.000
G1 X56.521 Y-2.000 Z0.000 F2000.000
G1 X52.279 Y-2.000 Z0.000 F2000.000
G1 X2.000 Y-52.279 Z0.000 F2000.000
G1 X2.000 Y-48.036 Z0.000 F2000.000
G1 X48.036 Y-2.000 Z0.000 F2000.000
G1 X43.793 Y-2.000 Z0.000 F2000.000
G1 X2.000 Y-43.793 Z0.000 F2000.000
G1 X2.000 Y-39.551 Z0.000 F2000.000
G1 X39.551 Y-2.000 Z0.000 F2000.000
G1 X35.308 Y-2.000 Z0.000 F2000.000
G1 X2.000 Y-35.308 Z0.000 F2000.000
G1 X2.000 Y-31.065 Z0.000 F2000.000
G1 X31.065 Y-2.000 Z0.000 F2000.000
G1 X26.823 Y-2.000 Z0.000 F2000.000
G1 X2.000 Y-26.823 Z0.000 F2000.000
G1 X2.000 Y-22.580 Z0.000 F2000.000
G1 X22.580 Y-2.000 Z0.000 F2000.000
G1 X18.337 Y-2.000 Z0.000 F2000.000
G1 X2.000 Y-18.337 Z0.000 F2000.000
G1 X2.000 Y-14.095 Z0.000 F2000.000
G1 X14.095 Y-2.000 Z0.000 F2000.000
G1 X9.852 Y-2.000 Z0.000 F2000.000
G1 X2.000 Y-9.852 Z0.000 F2000.000
G1 X2.000 Y-5.610 Z0.000 F2000.000
G1 X5.610 Y-2.000 Z0.000 F2000.000
G1 X2.000 Y-2.000 Z0.000 F2000.000
G1 X2.000 Y-5.610 Z0.000 F2000.000
G0 Z6.000
G0 Z6.000
(finish operation: MillFace)
(begin operation: Helix)
(machine: not set, mm/min)
(Helix)
(helix cut operation)
G0 Z6.000
G0 Z6.000
G0 X101.600 Y-101.600 Z6.000
G0 X101.600 Y-101.600 Z1.000
G0 X102.569 Y-101.600
G1 Z1.000 F2000.000
G2 X100.631 Y-101.600 Z-1.283 I-0.969 J0.000 F2000.000
G2 X102.569 Y-101.600 Z-3.567 I0.969 J0.000 F2000.000
G2 X100.631 Y-101.600 Z-5.850 I-0.969 J0.000 F2000.000
G2 X102.569 Y-101.600 Z-8.133 I0.969 J0.000 F2000.000
G2 X100.631 Y-101.600 Z-10.417 I-0.969 J0.000 F2000.000
G2 X102.569 Y-101.600 Z-12.700 I0.969 J0.000 F2000.000
G2 X100.631 Y-101.600 Z-12.700 I-0.969 J0.000 F2000.000
G2 X102.569 Y-101.600 Z-12.700 I0.969 J0.000 F2000.000
G0 X101.600 Y-101.600 Z-12.700
G0 Z1.000
G0 Z6.000
G0 X101.600 Y-228.600 Z6.000
G0 X101.600 Y-228.600 Z1.000
G0 X102.569 Y-228.600
G1 Z1.000 F2000.000
G2 X100.631 Y-228.600 Z-1.283 I-0.969 J0.000 F2000.000
G2 X102.569 Y-228.600 Z-3.567 I0.969 J0.000 F2000.000
G2 X100.631 Y-228.600 Z-5.850 I-0.969 J0.000 F2000.000
G2 X102.569 Y-228.600 Z-8.133 I0.969 J0.000 F2000.000
G2 X100.631 Y-228.600 Z-10.417 I-0.969 J0.000 F2000.000
G2 X102.569 Y-228.600 Z-12.700 I0.969 J0.000 F2000.000
G2 X100.631 Y-228.600 Z-12.700 I-0.969 J0.000 F2000.000
G2 X102.569 Y-228.600 Z-12.700 I0.969 J0.000 F2000.000
G0 X101.600 Y-228.600 Z-12.700
G0 Z1.000
G0 Z6.000
G0 X101.600 Y-355.600 Z6.000
G0 X101.600 Y-355.600 Z1.000
G0 X102.569 Y-355.600
G1 Z1.000 F2000.000
G2 X100.631 Y-355.600 Z-1.283 I-0.969 J0.000 F2000.000
G2 X102.569 Y-355.600 Z-3.567 I0.969 J0.000 F2000.000
G2 X100.631 Y-355.600 Z-5.850 I-0.969 J0.000 F2000.000
G2 X102.569 Y-355.600 Z-8.133 I0.969 J0.000 F2000.000
G2 X100.631 Y-355.600 Z-10.417 I-0.969 J0.000 F2000.000
G2 X102.569 Y-355.600 Z-12.700 I0.969 J0.000 F2000.000
G2 X100.631 Y-355.600 Z-12.700 I-0.969 J0.000 F2000.000
G2 X102.569 Y-355.600 Z-12.700 I0.969 J0.000 F2000.000
G0 X101.600 Y-355.600 Z-12.700
G0 Z1.000
G0 Z6.000
G0 X101.600 Y-482.600 Z6.000
G0 X101.600 Y-482.600 Z1.000
G0 X102.569 Y-482.600
G1 Z1.000 F2000.000
G2 X100.631 Y-482.600 Z-1.283 I-0.969 J0.000 F2000.000
G2 X102.569 Y-482.600 Z-3.567 I0.969 J0.000 F2000.000
G2 X100.631 Y-482.600 Z-5.850 I-0.969 J0.000 F2000.000
G2 X102.569 Y-482.600 Z-8.133 I0.969 J0.000 F2000.000
G2 X100.631 Y-482.600 Z-10.417 I-0.969 J0.000 F2000.000
G2 X102.569 Y-482.600 Z-12.700 I0.969 J0.000 F2000.000
G2 X100.631 Y-482.600 Z-12.700 I-0.969 J0.000 F2000.000
G2 X102.569 Y-482.600 Z-12.700 I0.969 J0.000 F2000.000
G0 X101.600 Y-482.600 Z-12.700
G0 Z1.000
G0 Z6.000
G0 X101.600 Y-609.600 Z6.000
G0 X101.600 Y-609.600 Z1.000
G0 X102.569 Y-609.600
G1 Z1.000 F2000.000
G2 X100.631 Y-609.600 Z-1.283 I-0.969 J0.000 F2000.000
G2 X102.569 Y-609.600 Z-3.567 I0.969 J0.000 F2000.000
G2 X100.631 Y-609.600 Z-5.850 I-0.969 J0.000 F2000.000
G2 X102.569 Y-609.600 Z-8.133 I0.969 J0.000 F2000.000
G2 X100.631 Y-609.600 Z-10.417 I-0.969 J0.000 F2000.000
G2 X102.569 Y-609.600 Z-12.700 I0.969 J0.000 F2000.000
G2 X100.631 Y-609.600 Z-12.700 I-0.969 J0.000 F2000.000
G2 X102.569 Y-609.600 Z-12.700 I0.969 J0.000 F2000.000
G0 X101.600 Y-609.600 Z-12.700
G0 Z1.000
G0 Z6.000
G0 X101.600 Y-736.600 Z6.000
G0 X101.600 Y-736.600 Z1.000
G0 X102.569 Y-736.600
G1 Z1.000 F2000.000
G2 X100.631 Y-736.600 Z-1.283 I-0.969 J0.000 F2000.000
G2 X102.569 Y-736.600 Z-3.567 I0.969 J0.000 F2000.000
G2 X100.631 Y-736.600 Z-5.850 I-0.969 J0.000 F2000.000
G2 X102.569 Y-736.600 Z-8.133 I0.969 J0.000 F2000.000
G2 X100.631 Y-736.600 Z-10.417 I-0.969 J0.000 F2000.000
G2 X102.569 Y-736.600 Z-12.700 I0.969 J0.000 F2000.000
G2 X100.631 Y-736.600 Z-12.700 I-0.969 J0.000 F2000.000
G2 X102.569 Y-736.600 Z-12.700 I0.969 J0.000 F2000.000
G0 X101.600 Y-736.600 Z-12.700
G0 Z1.000
G0 Z6.000
G0 X101.600 Y-863.600 Z6.000
G0 X101.600 Y-863.600 Z1.000
G0 X102.569 Y-863.600
G1 Z1.000 F2000.000
G2 X100.631 Y-863.600 Z-1.283 I-0.969 J0.000 F2000.000
G2 X102.569 Y-863.600 Z-3.567 I0.969 J0.000 F2000.000
G2 X100.631 Y-863.600 Z-5.850 I-0.969 J0.000 F2000.000
G2 X102.569 Y-863.600 Z-8.133 I0.969 J0.000 F2000.000
G2 X100.631 Y-863.600 Z-10.417 I-0.969 J0.000 F2000.000
G2 X102.569 Y-863.600 Z-12.700 I0.969 J0.000 F2000.000
G2 X100.631 Y-863.600 Z-12.700 I-0.969 J0.000 F2000.000
G2 X102.569 Y-863.600 Z-12.700 I0.969 J0.000 F2000.000
G0 X101.600 Y-863.600 Z-12.700
G0 Z1.000
G0 Z6.000
G0 X101.600 Y-990.600 Z6.000
G0 X101.600 Y-990.600 Z1.000
G0 X102.569 Y-990.600
G1 Z1.000 F2000.000
G2 X100.631 Y-990.600 Z-1.283 I-0.969 J0.000 F2000.000
G2 X102.569 Y-990.600 Z-3.567 I0.969 J0.000 F2000.000
G2 X100.631 Y-990.600 Z-5.850 I-0.969 J0.000 F2000.000
G2 X102.569 Y-990.600 Z-8.133 I0.969 J0.000 F2000.000
G2 X100.631 Y-990.600 Z-10.417 I-0.969 J0.000 F2000.000
G2 X102.569 Y-990.600 Z-12.700 I0.969 J0.000 F2000.000
G2 X100.631 Y-990.600 Z-12.700 I-0.969 J0.000 F2000.000
G2 X102.569 Y-990.600 Z-12.700 I0.969 J0.000 F2000.000
G0 X101.600 Y-990.600 Z-12.700
G0 Z1.000
G0 Z6.000
G0 X101.600 Y-1117.600 Z6.000
G0 X101.600 Y-1117.600 Z1.000
G0 X102.569 Y-1117.600
G1 Z1.000 F2000.000
G2 X100.631 Y-1117.600 Z-1.283 I-0.969 J0.000 F2000.000
G2 X102.569 Y-1117.600 Z-3.567 I0.969 J0.000 F2000.000
G2 X100.631 Y-1117.600 Z-5.850 I-0.969 J0.000 F2000.000
G2 X102.569 Y-1117.600 Z-8.133 I0.969 J0.000 F2000.000
G2 X100.631 Y-1117.600 Z-10.417 I-0.969 J0.000 F2000.000
G2 X102.569 Y-1117.600 Z-12.700 I0.969 J0.000 F2000.000
G2 X100.631 Y-1117.600 Z-12.700 I-0.969 J0.000 F2000.000
G2 X102.569 Y-1117.600 Z-12.700 I0.969 J0.000 F2000.000
G0 X101.600 Y-1117.600 Z-12.700
G0 Z1.000
G0 Z6.000
G0 X228.600 Y-1117.600 Z6.000
G0 X228.600 Y-1117.600 Z1.000
G0 X229.569 Y-1117.600
G1 Z1.000 F2000.000
G2 X227.631 Y-1117.600 Z-1.283 I-0.969 J0.000 F2000.000
G2 X229.569 Y-1117.600 Z-3.567 I0.969 J0.000 F2000.000
G2 X227.631 Y-1117.600 Z-5.850 I-0.969 J0.000 F2000.000
G2 X229.569 Y-1117.600 Z-8.133 I0.969 J0.000 F2000.000
G2 X227.631 Y-1117.600 Z-10.417 I-0.969 J0.000 F2000.000
G2 X229.569 Y-1117.600 Z-12.700 I0.969 J0.000 F2000.000
G2 X227.631 Y-1117.600 Z-12.700 I-0.969 J0.000 F2000.000
G2 X229.569 Y-1117.600 Z-12.700 I0.969 J0.000 F2000.000
G0 X228.600 Y-1117.600 Z-12.700
G0 Z1.000
G0 Z6.000
G0 X355.600 Y-1117.600 Z6.000
G0 X355.600 Y-1117.600 Z1.000
G0 X356.569 Y-1117.600
G1 Z1.000 F2000.000
G2 X354.631 Y-1117.600 Z-1.283 I-0.969 J0.000 F2000.000
G2 X356.569 Y-1117.600 Z-3.567 I0.969 J0.000 F2000.000
G2 X354.631 Y-1117.600 Z-5.850 I-0.969 J0.000 F2000.000
G2 X356.569 Y-1117.600 Z-8.133 I0.969 J0.000 F2000.000
G2 X354.631 Y-1117.600 Z-10.417 I-0.969 J0.000 F2000.000
G2 X356.569 Y-1117.600 Z-12.700 I0.969 J0.000 F2000.000
G2 X354.631 Y-1117.600 Z-12.700 I-0.969 J0.000 F2000.000
G2 X356.569 Y-1117.600 Z-12.700 I0.969 J0.000 F2000.000
G0 X355.600 Y-1117.600 Z-12.700
G0 Z1.000
G0 Z6.000
G0 X355.600 Y-990.600 Z6.000
G0 X355.600 Y-990.600 Z1.000
G0 X356.569 Y-990.600
G1 Z1.000 F2000.000
G2 X354.631 Y-990.600 Z-1.283 I-0.969 J0.000 F2000.000
G2 X356.569 Y-990.600 Z-3.567 I0.969 J0.000 F2000.000
G2 X354.631 Y-990.600 Z-5.850 I-0.969 J0.000 F2000.000
G2 X356.569 Y-990.600 Z-8.133 I0.969 J0.000 F2000.000
G2 X354.631 Y-990.600 Z-10.417 I-0.969 J0.000 F2000.000
G2 X356.569 Y-990.600 Z-12.700 I0.969 J0.000 F2000.000
G2 X354.631 Y-990.600 Z-12.700 I-0.969 J0.000 F2000.000
G2 X356.569 Y-990.600 Z-12.700 I0.969 J0.000 F2000.000
G0 X355.600 Y-990.600 Z-12.700
G0 Z1.000
G0 Z6.000
G0 X355.600 Y-863.600 Z6.000
G0 X355.600 Y-863.600 Z1.000
G0 X356.569 Y-863.600
G1 Z1.000 F2000.000
G2 X354.631 Y-863.600 Z-1.283 I-0.969 J0.000 F2000.000
G2 X356.569 Y-863.600 Z-3.567 I0.969 J0.000 F2000.000
G2 X354.631 Y-863.600 Z-5.850 I-0.969 J0.000 F2000.000
G2 X356.569 Y-863.600 Z-8.133 I0.969 J0.000 F2000.000
G2 X354.631 Y-863.600 Z-10.417 I-0.969 J0.000 F2000.000
G2 X356.569 Y-863.600 Z-12.700 I0.969 J0.000 F2000.000
G2 X354.631 Y-863.600 Z-12.700 I-0.969 J0.000 F2000.000
G2 X356.569 Y-863.600 Z-12.700 I0.969 J0.000 F2000.000
G0 X355.600 Y-863.600 Z-12.700
G0 Z1.000
G0 Z6.000
G0 X228.600 Y-863.600 Z6.000
G0 X228.600 Y-863.600 Z1.000
G0 X229.569 Y-863.600
G1 Z1.000 F2000.000
G2 X227.631 Y-863.600 Z-1.283 I-0.969 J0.000 F2000.000
G2 X229.569 Y-863.600 Z-3.567 I0.969 J0.000 F2000.000
G2 X227.631 Y-863.600 Z-5.850 I-0.969 J0.000 F2000.000
G2 X229.569 Y-863.600 Z-8.133 I0.969 J0.000 F2000.000
G2 X227.631 Y-863.600 Z-10.417 I-0.969 J0.000 F2000.000
G2 X229.569 Y-863.600 Z-12.700 I0.969 J0.000 F2000.000
G2 X227.631 Y-863.600 Z-12.700 I-0.969 J0.000 F2000.000
G2 X229.569 Y-863.600 Z-12.700 I0.969 J0.000 F2000.000
G0 X228.600 Y-863.600 Z-12.700
G0 Z1.000
G0 Z6.000
G0 X228.600 Y-736.600 Z6.000
G0 X228.600 Y-736.600 Z1.000
G0 X229.569 Y-736.600
G1 Z1.000 F2000.000
G2 X227.631 Y-736.600 Z-1.283 I-0.969 J0.000 F2000.000
G2 X229.569 Y-736.600 Z-3.567 I0.969 J0.000 F2000.000
G2 X227.631 Y-736.600 Z-5.850 I-0.969 J0.000 F2000.000
G2 X229.569 Y-736.600 Z-8.133 I0.969 J0.000 F2000.000
G2 X227.631 Y-736.600 Z-10.417 I-0.969 J0.000 F2000.000
G2 X229.569 Y-736.600 Z-12.700 I0.969 J0.000 F2000.000
G2 X227.631 Y-736.600 Z-12.700 I-0.969 J0.000 F2000.000
G2 X229.569 Y-736.600 Z-12.700 I0.969 J0.000 F2000.000
G0 X228.600 Y-736.600 Z-12.700
G0 Z1.000
G0 Z6.000
G0 X355.600 Y-736.600 Z6.000
G0 X355.600 Y-736.600 Z1.000
G0 X356.569 Y-736.600
G1 Z1.000 F2000.000
G2 X354.631 Y-736.600 Z-1.283 I-0.969 J0.000 F2000.000
G2 X356.569 Y-736.600 Z-3.567 I0.969 J0.000 F2000.000
G2 X354.631 Y-736.600 Z-5.850 I-0.969 J0.000 F2000.000
G2 X356.569 Y-736.600 Z-8.133 I0.969 J0.000 F2000.000
G2 X354.631 Y-736.600 Z-10.417 I-0.969 J0.000 F2000.000
G2 X356.569 Y-736.600 Z-12.700 I0.969 J0.000 F2000.000
G2 X354.631 Y-736.600 Z-12.700 I-0.969 J0.000 F2000.000
G2 X356.569 Y-736.600 Z-12.700 I0.969 J0.000 F2000.000
G0 X355.600 Y-736.600 Z-12.700
G0 Z1.000
G0 Z6.000
G0 X355.600 Y-609.600 Z6.000
G0 X355.600 Y-609.600 Z1.000
G0 X356.569 Y-609.600
G1 Z1.000 F2000.000
G2 X354.631 Y-609.600 Z-1.283 I-0.969 J0.000 F2000.000
G2 X356.569 Y-609.600 Z-3.567 I0.969 J0.000 F2000.000
G2 X354.631 Y-609.600 Z-5.850 I-0.969 J0.000 F2000.000
G2 X356.569 Y-609.600 Z-8.133 I0.969 J0.000 F2000.000
G2 X354.631 Y-609.600 Z-10.417 I-0.969 J0.000 F2000.000
G2 X356.569 Y-609.600 Z-12.700 I0.969 J0.000 F2000.000
G2 X354.631 Y-609.600 Z-12.700 I-0.969 J0.000 F2000.000
G2 X356.569 Y-609.600 Z-12.700 I0.969 J0.000 F2000.000
G0 X355.600 Y-609.600 Z-12.700
G0 Z1.000
G0 Z6.000
G0 X355.600 Y-482.600 Z6.000
G0 X355.600 Y-482.600 Z1.000
G0 X356.569 Y-482.600
G1 Z1.000 F2000.000
G2 X354.631 Y-482.600 Z-1.283 I-0.969 J0.000 F2000.000
G2 X356.569 Y-482.600 Z-3.567 I0.969 J0.000 F2000.000
G2 X354.631 Y-482.600 Z-5.850 I-0.969 J0.000 F2000.000
G2 X356.569 Y-482.600 Z-8.133 I0.969 J0.000 F2000.000
G2 X354.631 Y-482.600 Z-10.417 I-0.969 J0.000 F2000.000
G2 X356.569 Y-482.600 Z-12.700 I0.969 J0.000 F2000.000
G2 X354.631 Y-482.600 Z-12.700 I-0.969 J0.000 F2000.000
G2 X356.569 Y-482.600 Z-12.700 I0.969 J0.000 F2000.000
G0 X355.600 Y-482.600 Z-12.700
G0 Z1.000
G0 Z6.000
G0 X228.600 Y-482.600 Z6.000
G0 X228.600 Y-482.600 Z1.000
G0 X229.569 Y-482.600
G1 Z1.000 F2000.000
G2 X227.631 Y-482.600 Z-1.283 I-0.969 J0.000 F2000.000
G2 X229.569 Y-482.600 Z-3.567 I0.969 J0.000 F2000.000
G2 X227.631 Y-482.600 Z-5.850 I-0.969 J0.000 F2000.000
G2 X229.569 Y-482.600 Z-8.133 I0.969 J0.000 F2000.000
G2 X227.631 Y-482.600 Z-10.417 I-0.969 J0.000 F2000.000
G2 X229.569 Y-482.600 Z-12.700 I0.969 J0.000 F2000.000
G2 X227.631 Y-482.600 Z-12.700 I-0.969 J0.000 F2000.000
G2 X229.569 Y-482.600 Z-12.700 I0.969 J0.000 F2000.000
G0 X228.600 Y-482.600 Z-12.700
G0 Z1.000
G0 Z6.000
G0 X228.600 Y-355.600 Z6.000
G0 X228.600 Y-355.600 Z1.000
G0 X229.569 Y-355.600
G1 Z1.000 F2000.000
G2 X227.631 Y-355.600 Z-1.283 I-0.969 J0.000 F2000.000
G2 X229.569 Y-355.600 Z-3.567 I0.969 J0.000 F2000.000
G2 X227.631 Y-355.600 Z-5.850 I-0.969 J0.000 F2000.000
G2 X229.569 Y-355.600 Z-8.133 I0.969 J0.000 F2000.000
G2 X227.631 Y-355.600 Z-10.417 I-0.969 J0.000 F2000.000
G2 X229.569 Y-355.600 Z-12.700 I0.969 J0.000 F2000.000
G2 X227.631 Y-355.600 Z-12.700 I-0.969 J0.000 F2000.000
G2 X229.569 Y-355.600 Z-12.700 I0.969 J0.000 F2000.000
G0 X228.600 Y-355.600 Z-12.700
G0 Z1.000
G0 Z6.000
G0 X355.600 Y-355.600 Z6.000
G0 X355.600 Y-355.600 Z1.000
G0 X356.569 Y-355.600
G1 Z1.000 F2000.000
G2 X354.631 Y-355.600 Z-1.283 I-0.969 J0.000 F2000.000
G2 X356.569 Y-355.600 Z-3.567 I0.969 J0.000 F2000.000
G2 X354.631 Y-355.600 Z-5.850 I-0.969 J0.000 F2000.000
G2 X356.569 Y-355.600 Z-8.133 I0.969 J0.000 F2000.000
G2 X354.631 Y-355.600 Z-10.417 I-0.969 J0.000 F2000.000
G2 X356.569 Y-355.600 Z-12.700 I0.969 J0.000 F2000.000
G2 X354.631 Y-355.600 Z-12.700 I-0.969 J0.000 F2000.000
G2 X356.569 Y-355.600 Z-12.700 I0.969 J0.000 F2000.000
G0 X355.600 Y-355.600 Z-12.700
G0 Z1.000
G0 Z6.000
G0 X355.600 Y-228.600 Z6.000
G0 X355.600 Y-228.600 Z1.000
G0 X356.569 Y-228.600
G1 Z1.000 F2000.000
G2 X354.631 Y-228.600 Z-1.283 I-0.969 J0.000 F2000.000
G2 X356.569 Y-228.600 Z-3.567 I0.969 J0.000 F2000.000
G2 X354.631 Y-228.600 Z-5.850 I-0.969 J0.000 F2000.000
G2 X356.569 Y-228.600 Z-8.133 I0.969 J0.000 F2000.000
G2 X354.631 Y-228.600 Z-10.417 I-0.969 J0.000 F2000.000
G2 X356.569 Y-228.600 Z-12.700 I0.969 J0.000 F2000.000
G2 X354.631 Y-228.600 Z-12.700 I-0.969 J0.000 F2000.000
G2 X356.569 Y-228.600 Z-12.700 I0.969 J0.000 F2000.000
G0 X355.600 Y-228.600 Z-12.700
G0 Z1.000
G0 Z6.000
G0 X355.600 Y-101.600 Z6.000
G0 X355.600 Y-101.600 Z1.000
G0 X356.569 Y-101.600
G1 Z1.000 F2000.000
G2 X354.631 Y-101.600 Z-1.283 I-0.969 J0.000 F2000.000
G2 X356.569 Y-101.600 Z-3.567 I0.969 J0.000 F2000.000
G2 X354.631 Y-101.600 Z-5.850 I-0.969 J0.000 F2000.000
G2 X356.569 Y-101.600 Z-8.133 I0.969 J0.000 F2000.000
G2 X354.631 Y-101.600 Z-10.417 I-0.969 J0.000 F2000.000
G2 X356.569 Y-101.600 Z-12.700 I0.969 J0.000 F2000.000
G2 X354.631 Y-101.600 Z-12.700 I-0.969 J0.000 F2000.000
G2 X356.569 Y-101.600 Z-12.700 I0.969 J0.000 F2000.000
G0 X355.600 Y-101.600 Z-12.700
G0 Z1.000
G0 Z6.000
G0 X228.600 Y-101.600 Z6.000
G0 X228.600 Y-101.600 Z1.000
G0 X229.569 Y-101.600
G1 Z1.000 F2000.000
G2 X227.631 Y-101.600 Z-1.283 I-0.969 J0.000 F2000.000
G2 X229.569 Y-101.600 Z-3.567 I0.969 J0.000 F2000.000
G2 X227.631 Y-101.600 Z-5.850 I-0.969 J0.000 F2000.000
G2 X229.569 Y-101.600 Z-8.133 I0.969 J0.000 F2000.000
G2 X227.631 Y-101.600 Z-10.417 I-0.969 J0.000 F2000.000
G2 X229.569 Y-101.600 Z-12.700 I0.969 J0.000 F2000.000
G2 X227.631 Y-101.600 Z-12.700 I-0.969 J0.000 F2000.000
G2 X229.569 Y-101.600 Z-12.700 I0.969 J0.000 F2000.000
G0 X228.600 Y-101.600 Z-12.700
G0 Z1.000
G0 Z6.000
G0 X228.600 Y-50.800 Z6.000
G0 X228.600 Y-50.800 Z1.000
G0 X231.600 Y-50.800
G1 Z1.000 F2000.000
G2 X225.600 Y-50.800 Z-1.283 I-3.000 J0.000 F2000.000
G2 X231.600 Y-50.800 Z-3.567 I3.000 J0.000 F2000.000
G2 X225.600 Y-50.800 Z-5.850 I-3.000 J0.000 F2000.000
G2 X231.600 Y-50.800 Z-8.133 I3.000 J0.000 F2000.000
G2 X225.600 Y-50.800 Z-10.417 I-3.000 J0.000 F2000.000
G2 X231.600 Y-50.800 Z-12.700 I3.000 J0.000 F2000.000
G2 X225.600 Y-50.800 Z-12.700 I-3.000 J0.000 F2000.000
G2 X231.600 Y-50.800 Z-12.700 I3.000 J0.000 F2000.000
G0 X228.600 Y-50.800 Z-12.700
G0 Z1.000
G0 X233.362 Y-50.800
G1 Z1.000 F2000.000
G2 X223.838 Y-50.800 Z-1.283 I-4.762 J0.000 F2000.000
G2 X233.362 Y-50.800 Z-3.567 I4.762 J0.000 F2000.000
G2 X223.838 Y-50.800 Z-5.850 I-4.762 J0.000 F2000.000
G2 X233.362 Y-50.800 Z-8.133 I4.762 J0.000 F2000.000
G2 X223.838 Y-50.800 Z-10.417 I-4.762 J0.000 F2000.000
G2 X233.362 Y-50.800 Z-12.700 I4.762 J0.000 F2000.000
G2 X223.838 Y-50.800 Z-12.700 I-4.762 J0.000 F2000.000
G2 X233.362 Y-50.800 Z-12.700 I4.762 J0.000 F2000.000
G0 X228.600 Y-50.800 Z-12.700
G0 Z1.000
G0 X235.125 Y-50.800
G1 Z1.000 F2000.000
G2 X222.075 Y-50.800 Z-1.283 I-6.525 J0.000 F2000.000
G2 X235.125 Y-50.800 Z-3.567 I6.525 J0.000 F2000.000
G2 X222.075 Y-50.800 Z-5.850 I-6.525 J0.000 F2000.000
G2 X235.125 Y-50.800 Z-8.133 I6.525 J0.000 F2000.000
G2 X222.075 Y-50.800 Z-10.417 I-6.525 J0.000 F2000.000
G2 X235.125 Y-50.800 Z-12.700 I6.525 J0.000 F2000.000
G2 X222.075 Y-50.800 Z-12.700 I-6.525 J0.000 F2000.000
G2 X235.125 Y-50.800 Z-12.700 I6.525 J0.000 F2000.000
G0 X228.600 Y-50.800 Z-12.700
G0 Z1.000
G0 Z6.000
G0 X228.600 Y-50.800 Z6.000
G0 X228.600 Y-50.800 Z1.000
G0 X231.600 Y-50.800
G1 Z1.000 F2000.000
G2 X225.600 Y-50.800 Z-1.283 I-3.000 J0.000 F2000.000
G2 X231.600 Y-50.800 Z-3.567 I3.000 J0.000 F2000.000
G2 X225.600 Y-50.800 Z-5.850 I-3.000 J0.000 F2000.000
G2 X231.600 Y-50.800 Z-8.133 I3.000 J0.000 F2000.000
G2 X225.600 Y-50.800 Z-10.417 I-3.000 J0.000 F2000.000
G2 X231.600 Y-50.800 Z-12.700 I3.000 J0.000 F2000.000
G2 X225.600 Y-50.800 Z-12.700 I-3.000 J0.000 F2000.000
G2 X231.600 Y-50.800 Z-12.700 I3.000 J0.000 F2000.000
G0 X228.600 Y-50.800 Z-12.700
G0 Z1.000
G0 X234.069 Y-50.800
G1 Z1.000 F2000.000
G2 X223.131 Y-50.800 Z-1.283 I-5.469 J0.000 F2000.000
G2 X234.069 Y-50.800 Z-3.567 I5.469 J0.000 F2000.000
G2 X223.131 Y-50.800 Z-5.850 I-5.469 J0.000 F2000.000
G2 X234.069 Y-50.800 Z-8.133 I5.469 J0.000 F2000.000
G2 X223.131 Y-50.800 Z-10.417 I-5.469 J0.000 F2000.000
G2 X234.069 Y-50.800 Z-12.700 I5.469 J0.000 F2000.000
G2 X223.131 Y-50.800 Z-12.700 I-5.469 J0.000 F2000.000
G2 X234.069 Y-50.800 Z-12.700 I5.469 J0.000 F2000.000
G0 X228.600 Y-50.800 Z-12.700
G0 Z1.000
G0 X236.537 Y-50.800
G1 Z1.000 F2000.000
G2 X220.662 Y-50.800 Z-1.283 I-7.938 J0.000 F2000.000
G2 X236.537 Y-50.800 Z-3.567 I7.938 J0.000 F2000.000
G2 X220.662 Y-50.800 Z-5.850 I-7.938 J0.000 F2000.000
G2 X236.537 Y-50.800 Z-8.133 I7.938 J0.000 F2000.000
G2 X220.662 Y-50.800 Z-10.417 I-7.938 J0.000 F2000.000
G2 X236.537 Y-50.800 Z-12.700 I7.938 J0.000 F2000.000
G2 X220.662 Y-50.800 Z-12.700 I-7.938 J0.000 F2000.000
G2 X236.537 Y-50.800 Z-12.700 I7.938 J0.000 F2000.000
G0 X228.600 Y-50.800 Z-12.700
G0 Z1.000
G0 X239.006 Y-50.800
G1 Z1.000 F2000.000
G2 X218.194 Y-50.800 Z-1.283 I-10.406 J0.000 F2000.000
G2 X239.006 Y-50.800 Z-3.567 I10.406 J0.000 F2000.000
G2 X218.194 Y-50.800 Z-5.850 I-10.406 J0.000 F2000.000
G2 X239.006 Y-50.800 Z-8.133 I10.406 J0.000 F2000.000
G2 X218.194 Y-50.800 Z-10.417 I-10.406 J0.000 F2000.000
G2 X239.006 Y-50.800 Z-12.700 I10.406 J0.000 F2000.000
G2 X218.194 Y-50.800 Z-12.700 I-10.406 J0.000 F2000.000
G2 X239.006 Y-50.800 Z-12.700 I10.406 J0.000 F2000.000
G0 X228.600 Y-50.800 Z-12.700
G0 Z1.000
G0 X241.475 Y-50.800
G1 Z1.000 F2000.000
G2 X215.725 Y-50.800 Z-1.283 I-12.875 J0.000 F2000.000
G2 X241.475 Y-50.800 Z-3.567 I12.875 J0.000 F2000.000
G2 X215.725 Y-50.800 Z-5.850 I-12.875 J0.000 F2000.000
G2 X241.475 Y-50.800 Z-8.133 I12.875 J0.000 F2000.000
G2 X215.725 Y-50.800 Z-10.417 I-12.875 J0.000 F2000.000
G2 X241.475 Y-50.800 Z-12.700 I12.875 J0.000 F2000.000
G2 X215.725 Y-50.800 Z-12.700 I-12.875 J0.000 F2000.000
G2 X241.475 Y-50.800 Z-12.700 I12.875 J0.000 F2000.000
G0 X228.600 Y-50.800 Z-12.700
G0 Z1.000
G0 Z6.000
G0 X482.600 Y-101.600 Z6.000
G0 X482.600 Y-101.600 Z1.000
G0 X483.569 Y-101.600
G1 Z1.000 F2000.000
G2 X481.631 Y-101.600 Z-1.283 I-0.969 J0.000 F2000.000
G2 X483.569 Y-101.600 Z-3.567 I0.969 J0.000 F2000.000
G2 X481.631 Y-101.600 Z-5.850 I-0.969 J0.000 F2000.000
G2 X483.569 Y-101.600 Z-8.133 I0.969 J0.000 F2000.000
G2 X481.631 Y-101.600 Z-10.417 I-0.969 J0.000 F2000.000
G2 X483.569 Y-101.600 Z-12.700 I0.969 J0.000 F2000.000
G2 X481.631 Y-101.600 Z-12.700 I-0.969 J0.000 F2000.000
G2 X483.569 Y-101.600 Z-12.700 I0.969 J0.000 F2000.000
G0 X482.600 Y-101.600 Z-12.700
G0 Z1.000
G0 Z6.000
G0 X482.600 Y-228.600 Z6.000
G0 X482.600 Y-228.600 Z1.000
G0 X483.569 Y-228.600
G1 Z1.000 F2000.000
G2 X481.631 Y-228.600 Z-1.283 I-0.969 J0.000 F2000.000
G2 X483.569 Y-228.600 Z-3.567 I0.969 J0.000 F2000.000
G2 X481.631 Y-228.600 Z-5.850 I-0.969 J0.000 F2000.000
G2 X483.569 Y-228.600 Z-8.133 I0.969 J0.000 F2000.000
G2 X481.631 Y-228.600 Z-10.417 I-0.969 J0.000 F2000.000
G2 X483.569 Y-228.600 Z-12.700 I0.969 J0.000 F2000.000
G2 X481.631 Y-228.600 Z-12.700 I-0.969 J0.000 F2000.000
G2 X483.569 Y-228.600 Z-12.700 I0.969 J0.000 F2000.000
G0 X482.600 Y-228.600 Z-12.700
G0 Z1.000
G0 Z6.000
G0 X482.600 Y-355.600 Z6.000
G0 X482.600 Y-355.600 Z1.000
G0 X483.569 Y-355.600
G1 Z1.000 F2000.000
G2 X481.631 Y-355.600 Z-1.283 I-0.969 J0.000 F2000.000
G2 X483.569 Y-355.600 Z-3.567 I0.969 J0.000 F2000.000
G2 X481.631 Y-355.600 Z-5.850 I-0.969 J0.000 F2000.000
G2 X483.569 Y-355.600 Z-8.133 I0.969 J0.000 F2000.000
G2 X481.631 Y-355.600 Z-10.417 I-0.969 J0.000 F2000.000
G2 X483.569 Y-355.600 Z-12.700 I0.969 J0.000 F2000.000
G2 X481.631 Y-355.600 Z-12.700 I-0.969 J0.000 F2000.000
G2 X483.569 Y-355.600 Z-12.700 I0.969 J0.000 F2000.000
G0 X482.600 Y-355.600 Z-12.700
G0 Z1.000
G0 Z6.000
G0 X482.600 Y-482.600 Z6.000
G0 X482.600 Y-482.600 Z1.000
G0 X483.569 Y-482.600
G1 Z1.000 F2000.000
G2 X481.631 Y-482.600 Z-1.283 I-0.969 J0.000 F2000.000
G2 X483.569 Y-482.600 Z-3.567 I0.969 J0.000 F2000.000
G2 X481.631 Y-482.600 Z-5.850 I-0.969 J0.000 F2000.000
G2 X483.569 Y-482.600 Z-8.133 I0.969 J0.000 F2000.000
G2 X481.631 Y-482.600 Z-10.417 I-0.969 J0.000 F2000.000
G2 X483.569 Y-482.600 Z-12.700 I0.969 J0.000 F2000.000
G2 X481.631 Y-482.600 Z-12.700 I-0.969 J0.000 F2000.000
G2 X483.569 Y-482.600 Z-12.700 I0.969 J0.000 F2000.000
G0 X482.600 Y-482.600 Z-12.700
G0 Z1.000
G0 Z6.000
G0 X482.600 Y-609.600 Z6.000
G0 X482.600 Y-609.600 Z1.000
G0 X483.569 Y-609.600
G1 Z1.000 F2000.000
G2 X481.631 Y-609.600 Z-1.283 I-0.969 J0.000 F2000.000
G2 X483.569 Y-609.600 Z-3.567 I0.969 J0.000 F2000.000
G2 X481.631 Y-609.600 Z-5.850 I-0.969 J0.000 F2000.000
G2 X483.569 Y-609.600 Z-8.133 I0.969 J0.000 F2000.000
G2 X481.631 Y-609.600 Z-10.417 I-0.969 J0.000 F2000.000
G2 X483.569 Y-609.600 Z-12.700 I0.969 J0.000 F2000.000
G2 X481.631 Y-609.600 Z-12.700 I-0.969 J0.000 F2000.000
G2 X483.569 Y-609.600 Z-12.700 I0.969 J0.000 F2000.000
G0 X482.600 Y-609.600 Z-12.700
G0 Z1.000
G0 Z6.000
G0 X482.600 Y-736.600 Z6.000
G0 X482.600 Y-736.600 Z1.000
G0 X483.569 Y-736.600
G1 Z1.000 F2000.000
G2 X481.631 Y-736.600 Z-1.283 I-0.969 J0.000 F2000.000
G2 X483.569 Y-736.600 Z-3.567 I0.969 J0.000 F2000.000
G2 X481.631 Y-736.600 Z-5.850 I-0.969 J0.000 F2000.000
G2 X483.569 Y-736.600 Z-8.133 I0.969 J0.000 F2000.000
G2 X481.631 Y-736.600 Z-10.417 I-0.969 J0.000 F2000.000
G2 X483.569 Y-736.600 Z-12.700 I0.969 J0.000 F2000.000
G2 X481.631 Y-736.600 Z-12.700 I-0.969 J0.000 F2000.000
G2 X483.569 Y-736.600 Z-12.700 I0.969 J0.000 F2000.000
G0 X482.600 Y-736.600 Z-12.700
G0 Z1.000
G0 Z6.000
G0 X482.600 Y-863.600 Z6.000
G0 X482.600 Y-863.600 Z1.000
G0 X483.569 Y-863.600
G1 Z1.000 F2000.000
G2 X481.631 Y-863.600 Z-1.283 I-0.969 J0.000 F2000.000
G2 X483.569 Y-863.600 Z-3.567 I0.969 J0.000 F2000.000
G2 X481.631 Y-863.600 Z-5.850 I-0.969 J0.000 F2000.000
G2 X483.569 Y-863.600 Z-8.133 I0.969 J0.000 F2000.000
G2 X481.631 Y-863.600 Z-10.417 I-0.969 J0.000 F2000.000
G2 X483.569 Y-863.600 Z-12.700 I0.969 J0.000 F2000.000
G2 X481.631 Y-863.600 Z-12.700 I-0.969 J0.000 F2000.000
G2 X483.569 Y-863.600 Z-12.700 I0.969 J0.000 F2000.000
G0 X482.600 Y-863.600 Z-12.700
G0 Z1.000
G0 Z6.000
G0 X482.600 Y-990.600 Z6.000
G0 X482.600 Y-990.600 Z1.000
G0 X483.569 Y-990.600
G1 Z1.000 F2000.000
G2 X481.631 Y-990.600 Z-1.283 I-0.969 J0.000 F2000.000
G2 X483.569 Y-990.600 Z-3.567 I0.969 J0.000 F2000.000
G2 X481.631 Y-990.600 Z-5.850 I-0.969 J0.000 F2000.000
G2 X483.569 Y-990.600 Z-8.133 I0.969 J0.000 F2000.000
G2 X481.631 Y-990.600 Z-10.417 I-0.969 J0.000 F2000.000
G2 X483.569 Y-990.600 Z-12.700 I0.969 J0.000 F2000.000
G2 X481.631 Y-990.600 Z-12.700 I-0.969 J0.000 F2000.000
G2 X483.569 Y-990.600 Z-12.700 I0.969 J0.000 F2000.000
G0 X482.600 Y-990.600 Z-12.700
G0 Z1.000
G0 Z6.000
G0 X482.600 Y-1117.600 Z6.000
G0 X482.600 Y-1117.600 Z1.000
G0 X483.569 Y-1117.600
G1 Z1.000 F2000.000
G2 X481.631 Y-1117.600 Z-1.283 I-0.969 J0.000 F2000.000
G2 X483.569 Y-1117.600 Z-3.567 I0.969 J0.000 F2000.000
G2 X481.631 Y-1117.600 Z-5.850 I-0.969 J0.000 F2000.000
G2 X483.569 Y-1117.600 Z-8.133 I0.969 J0.000 F2000.000
G2 X481.631 Y-1117.600 Z-10.417 I-0.969 J0.000 F2000.000
G2 X483.569 Y-1117.600 Z-12.700 I0.969 J0.000 F2000.000
G2 X481.631 Y-1117.600 Z-12.700 I-0.969 J0.000 F2000.000
G2 X483.569 Y-1117.600 Z-12.700 I0.969 J0.000 F2000.000
G0 X482.600 Y-1117.600 Z-12.700
G0 Z1.000
G0 Z6.000
G0 X609.600 Y-1117.600 Z6.000
G0 X609.600 Y-1117.600 Z1.000
G0 X610.569 Y-1117.600
G1 Z1.000 F2000.000
G2 X608.631 Y-1117.600 Z-1.283 I-0.969 J0.000 F2000.000
G2 X610.569 Y-1117.600 Z-3.567 I0.969 J0.000 F2000.000
G2 X608.631 Y-1117.600 Z-5.850 I-0.969 J0.000 F2000.000
G2 X610.569 Y-1117.600 Z-8.133 I0.969 J0.000 F2000.000
G2 X608.631 Y-1117.600 Z-10.417 I-0.969 J0.000 F2000.000
G2 X610.569 Y-1117.600 Z-12.700 I0.969 J0.000 F2000.000
G2 X608.631 Y-1117.600 Z-12.700 I-0.969 J0.000 F2000.000
G2 X610.569 Y-1117.600 Z-12.700 I0.969 J0.000 F2000.000
G0 X609.600 Y-1117.600 Z-12.700
G0 Z1.000
G0 Z6.000
G0 X736.600 Y-1117.600 Z6.000
G0 X736.600 Y-1117.600 Z1.000
G0 X737.569 Y-1117.600
G1 Z1.000 F2000.000
G2 X735.631 Y-1117.600 Z-1.283 I-0.969 J0.000 F2000.000
G2 X737.569 Y-1117.600 Z-3.567 I0.969 J0.000 F2000.000
G2 X735.631 Y-1117.600 Z-5.850 I-0.969 J0.000 F2000.000
G2 X737.569 Y-1117.600 Z-8.133 I0.969 J0.000 F2000.000
G2 X735.631 Y-1117.600 Z-10.417 I-0.969 J0.000 F2000.000
G2 X737.569 Y-1117.600 Z-12.700 I0.969 J0.000 F2000.000
G2 X735.631 Y-1117.600 Z-12.700 I-0.969 J0.000 F2000.000
G2 X737.569 Y-1117.600 Z-12.700 I0.969 J0.000 F2000.000
G0 X736.600 Y-1117.600 Z-12.700
G0 Z1.000
G0 Z6.000
G0 X736.600 Y-990.600 Z6.000
G0 X736.600 Y-990.600 Z1.000
G0 X737.569 Y-990.600
G1 Z1.000 F2000.000
G2 X735.631 Y-990.600 Z-1.283 I-0.969 J0.000 F2000.000
G2 X737.569 Y-990.600 Z-3.567 I0.969 J0.000 F2000.000
G2 X735.631 Y-990.600 Z-5.850 I-0.969 J0.000 F2000.000
G2 X737.569 Y-990.600 Z-8.133 I0.969 J0.000 F2000.000
G2 X735.631 Y-990.600 Z-10.417 I-0.969 J0.000 F2000.000
G2 X737.569 Y-990.600 Z-12.700 I0.969 J0.000 F2000.000
G2 X735.631 Y-990.600 Z-12.700 I-0.969 J0.000 F2000.000
G2 X737.569 Y-990.600 Z-12.700 I0.969 J0.000 F2000.000
G0 X736.600 Y-990.600 Z-12.700
G0 Z1.000
G0 Z6.000
G0 X736.600 Y-863.600 Z6.000
G0 X736.600 Y-863.600 Z1.000
G0 X737.569 Y-863.600
G1 Z1.000 F2000.000
G2 X735.631 Y-863.600 Z-1.283 I-0.969 J0.000 F2000.000
G2 X737.569 Y-863.600 Z-3.567 I0.969 J0.000 F2000.000
G2 X735.631 Y-863.600 Z-5.850 I-0.969 J0.000 F2000.000
G2 X737.569 Y-863.600 Z-8.133 I0.969 J0.000 F2000.000
G2 X735.631 Y-863.600 Z-10.417 I-0.969 J0.000 F2000.000
G2 X737.569 Y-863.600 Z-12.700 I0.969 J0.000 F2000.000
G2 X735.631 Y-863.600 Z-12.700 I-0.969 J0.000 F2000.000
G2 X737.569 Y-863.600 Z-12.700 I0.969 J0.000 F2000.000
G0 X736.600 Y-863.600 Z-12.700
G0 Z1.000
G0 Z6.000
G0 X609.600 Y-863.600 Z6.000
G0 X609.600 Y-863.600 Z1.000
G0 X610.569 Y-863.600
G1 Z1.000 F2000.000
G2 X608.631 Y-863.600 Z-1.283 I-0.969 J0.000 F2000.000
G2 X610.569 Y-863.600 Z-3.567 I0.969 J0.000 F2000.000
G2 X608.631 Y-863.600 Z-5.850 I-0.969 J0.000 F2000.000
G2 X610.569 Y-863.600 Z-8.133 I0.969 J0.000 F2000.000
G2 X608.631 Y-863.600 Z-10.417 I-0.969 J0.000 F2000.000
G2 X610.569 Y-863.600 Z-12.700 I0.969 J0.000 F2000.000
G2 X608.631 Y-863.600 Z-12.700 I-0.969 J0.000 F2000.000
G2 X610.569 Y-863.600 Z-12.700 I0.969 J0.000 F2000.000
G0 X609.600 Y-863.600 Z-12.700
G0 Z1.000
G0 Z6.000
G0 X609.600 Y-736.600 Z6.000
G0 X609.600 Y-736.600 Z1.000
G0 X610.569 Y-736.600
G1 Z1.000 F2000.000
G2 X608.631 Y-736.600 Z-1.283 I-0.969 J0.000 F2000.000
G2 X610.569 Y-736.600 Z-3.567 I0.969 J0.000 F2000.000
G2 X608.631 Y-736.600 Z-5.850 I-0.969 J0.000 F2000.000
G2 X610.569 Y-736.600 Z-8.133 I0.969 J0.000 F2000.000
G2 X608.631 Y-736.600 Z-10.417 I-0.969 J0.000 F2000.000
G2 X610.569 Y-736.600 Z-12.700 I0.969 J0.000 F2000.000
G2 X608.631 Y-736.600 Z-12.700 I-0.969 J0.000 F2000.000
G2 X610.569 Y-736.600 Z-12.700 I0.969 J0.000 F2000.000
G0 X609.600 Y-736.600 Z-12.700
G0 Z1.000
G0 Z6.000
G0 X736.600 Y-736.600 Z6.000
G0 X736.600 Y-736.600 Z1.000
G0 X737.569 Y-736.600
G1 Z1.000 F2000.000
G2 X735.631 Y-736.600 Z-1.283 I-0.969 J0.000 F2000.000
G2 X737.569 Y-736.600 Z-3.567 I0.969 J0.000 F2000.000
G2 X735.631 Y-736.600 Z-5.850 I-0.969 J0.000 F2000.000
G2 X737.569 Y-736.600 Z-8.133 I0.969 J0.000 F2000.000
G2 X735.631 Y-736.600 Z-10.417 I-0.969 J0.000 F2000.000
G2 X737.569 Y-736.600 Z-12.700 I0.969 J0.000 F2000.000
G2 X735.631 Y-736.600 Z-12.700 I-0.969 J0.000 F2000.000
G2 X737.569 Y-736.600 Z-12.700 I0.969 J0.000 F2000.000
G0 X736.600 Y-736.600 Z-12.700
G0 Z1.000
G0 Z6.000
G0 X736.600 Y-609.600 Z6.000
G0 X736.600 Y-609.600 Z1.000
G0 X737.569 Y-609.600
G1 Z1.000 F2000.000
G2 X735.631 Y-609.600 Z-1.283 I-0.969 J0.000 F2000.000
G2 X737.569 Y-609.600 Z-3.567 I0.969 J0.000 F2000.000
G2 X735.631 Y-609.600 Z-5.850 I-0.969 J0.000 F2000.000
G2 X737.569 Y-609.600 Z-8.133 I0.969 J0.000 F2000.000
G2 X735.631 Y-609.600 Z-10.417 I-0.969 J0.000 F2000.000
G2 X737.569 Y-609.600 Z-12.700 I0.969 J0.000 F2000.000
G2 X735.631 Y-609.600 Z-12.700 I-0.969 J0.000 F2000.000
G2 X737.569 Y-609.600 Z-12.700 I0.969 J0.000 F2000.000
G0 X736.600 Y-609.600 Z-12.700
G0 Z1.000
G0 Z6.000
G0 X736.600 Y-482.600 Z6.000
G0 X736.600 Y-482.600 Z1.000
G0 X737.569 Y-482.600
G1 Z1.000 F2000.000
G2 X735.631 Y-482.600 Z-1.283 I-0.969 J0.000 F2000.000
G2 X737.569 Y-482.600 Z-3.567 I0.969 J0.000 F2000.000
G2 X735.631 Y-482.600 Z-5.850 I-0.969 J0.000 F2000.000
G2 X737.569 Y-482.600 Z-8.133 I0.969 J0.000 F2000.000
G2 X735.631 Y-482.600 Z-10.417 I-0.969 J0.000 F2000.000
G2 X737.569 Y-482.600 Z-12.700 I0.969 J0.000 F2000.000
G2 X735.631 Y-482.600 Z-12.700 I-0.969 J0.000 F2000.000
G2 X737.569 Y-482.600 Z-12.700 I0.969 J0.000 F2000.000
G0 X736.600 Y-482.600 Z-12.700
G0 Z1.000
G0 Z6.000
G0 X609.600 Y-482.600 Z6.000
G0 X609.600 Y-482.600 Z1.000
G0 X610.569 Y-482.600
G1 Z1.000 F2000.000
G2 X608.631 Y-482.600 Z-1.283 I-0.969 J0.000 F2000.000
G2 X610.569 Y-482.600 Z-3.567 I0.969 J0.000 F2000.000
G2 X608.631 Y-482.600 Z-5.850 I-0.969 J0.000 F2000.000
G2 X610.569 Y-482.600 Z-8.133 I0.969 J0.000 F2000.000
G2 X608.631 Y-482.600 Z-10.417 I-0.969 J0.000 F2000.000
G2 X610.569 Y-482.600 Z-12.700 I0.969 J0.000 F2000.000
G2 X608.631 Y-482.600 Z-12.700 I-0.969 J0.000 F2000.000
G2 X610.569 Y-482.600 Z-12.700 I0.969 J0.000 F2000.000
G0 X609.600 Y-482.600 Z-12.700
G0 Z1.000
G0 Z6.000
G0 X609.600 Y-355.600 Z6.000
G0 X609.600 Y-355.600 Z1.000
G0 X610.569 Y-355.600
G1 Z1.000 F2000.000
G2 X608.631 Y-355.600 Z-1.283 I-0.969 J0.000 F2000.000
G2 X610.569 Y-355.600 Z-3.567 I0.969 J0.000 F2000.000
G2 X608.631 Y-355.600 Z-5.850 I-0.969 J0.000 F2000.000
G2 X610.569 Y-355.600 Z-8.133 I0.969 J0.000 F2000.000
G2 X608.631 Y-355.600 Z-10.417 I-0.969 J0.000 F2000.000
G2 X610.569 Y-355.600 Z-12.700 I0.969 J0.000 F2000.000
G2 X608.631 Y-355.600 Z-12.700 I-0.969 J0.000 F2000.000
G2 X610.569 Y-355.600 Z-12.700 I0.969 J0.000 F2000.000
G0 X609.600 Y-355.600 Z-12.700
G0 Z1.000
G0 Z6.000
G0 X736.600 Y-355.600 Z6.000
G0 X736.600 Y-355.600 Z1.000
G0 X737.569 Y-355.600
G1 Z1.000 F2000.000
G2 X735.631 Y-355.600 Z-1.283 I-0.969 J0.000 F2000.000
G2 X737.569 Y-355.600 Z-3.567 I0.969 J0.000 F2000.000
G2 X735.631 Y-355.600 Z-5.850 I-0.969 J0.000 F2000.000
G2 X737.569 Y-355.600 Z-8.133 I0.969 J0.000 F2000.000
G2 X735.631 Y-355.600 Z-10.417 I-0.969 J0.000 F2000.000
G2 X737.569 Y-355.600 Z-12.700 I0.969 J0.000 F2000.000
G2 X735.631 Y-355.600 Z-12.700 I-0.969 J0.000 F2000.000
G2 X737.569 Y-355.600 Z-12.700 I0.969 J0.000 F2000.000
G0 X736.600 Y-355.600 Z-12.700
G0 Z1.000
G0 Z6.000
G0 X736.600 Y-228.600 Z6.000
G0 X736.600 Y-228.600 Z1.000
G0 X737.569 Y-228.600
G1 Z1.000 F2000.000
G2 X735.631 Y-228.600 Z-1.283 I-0.969 J0.000 F2000.000
G2 X737.569 Y-228.600 Z-3.567 I0.969 J0.000 F2000.000
G2 X735.631 Y-228.600 Z-5.850 I-0.969 J0.000 F2000.000
G2 X737.569 Y-228.600 Z-8.133 I0.969 J0.000 F2000.000
G2 X735.631 Y-228.600 Z-10.417 I-0.969 J0.000 F2000.000
G2 X737.569 Y-228.600 Z-12.700 I0.969 J0.000 F2000.000
G2 X735.631 Y-228.600 Z-12.700 I-0.969 J0.000 F2000.000
G2 X737.569 Y-228.600 Z-12.700 I0.969 J0.000 F2000.000
G0 X736.600 Y-228.600 Z-12.700
G0 Z1.000
G0 Z6.000
G0 X736.600 Y-101.600 Z6.000
G0 X736.600 Y-101.600 Z1.000
G0 X737.569 Y-101.600
G1 Z1.000 F2000.000
G2 X735.631 Y-101.600 Z-1.283 I-0.969 J0.000 F2000.000
G2 X737.569 Y-101.600 Z-3.567 I0.969 J0.000 F2000.000
G2 X735.631 Y-101.600 Z-5.850 I-0.969 J0.000 F2000.000
G2 X737.569 Y-101.600 Z-8.133 I0.969 J0.000 F2000.000
G2 X735.631 Y-101.600 Z-10.417 I-0.969 J0.000 F2000.000
G2 X737.569 Y-101.600 Z-12.700 I0.969 J0.000 F2000.000
G2 X735.631 Y-101.600 Z-12.700 I-0.969 J0.000 F2000.000
G2 X737.569 Y-101.600 Z-12.700 I0.969 J0.000 F2000.000
G0 X736.600 Y-101.600 Z-12.700
G0 Z1.000
G0 Z6.000
G0 X609.600 Y-101.600 Z6.000
G0 X609.600 Y-101.600 Z1.000
G0 X610.569 Y-101.600
G1 Z1.000 F2000.000
G2 X608.631 Y-101.600 Z-1.283 I-0.969 J0.000 F2000.000
G2 X610.569 Y-101.600 Z-3.567 I0.969 J0.000 F2000.000
G2 X608.631 Y-101.600 Z-5.850 I-0.969 J0.000 F2000.000
G2 X610.569 Y-101.600 Z-8.133 I0.969 J0.000 F2000.000
G2 X608.631 Y-101.600 Z-10.417 I-0.969 J0.000 F2000.000
G2 X610.569 Y-101.600 Z-12.700 I0.969 J0.000 F2000.000
G2 X608.631 Y-101.600 Z-12.700 I-0.969 J0.000 F2000.000
G2 X610.569 Y-101.600 Z-12.700 I0.969 J0.000 F2000.000
G0 X609.600 Y-101.600 Z-12.700
G0 Z1.000
G0 Z6.000
G0 X609.600 Y-50.800 Z6.000
G0 X609.600 Y-50.800 Z1.000
G0 X612.600 Y-50.800
G1 Z1.000 F2000.000
G2 X606.600 Y-50.800 Z-1.283 I-3.000 J0.000 F2000.000
G2 X612.600 Y-50.800 Z-3.567 I3.000 J0.000 F2000.000
G2 X606.600 Y-50.800 Z-5.850 I-3.000 J0.000 F2000.000
G2 X612.600 Y-50.800 Z-8.133 I3.000 J0.000 F2000.000
G2 X606.600 Y-50.800 Z-10.417 I-3.000 J0.000 F2000.000
G2 X612.600 Y-50.800 Z-12.700 I3.000 J0.000 F2000.000
G2 X606.600 Y-50.800 Z-12.700 I-3.000 J0.000 F2000.000
G2 X612.600 Y-50.800 Z-12.700 I3.000 J0.000 F2000.000
G0 X609.600 Y-50.800 Z-12.700
G0 Z1.000
G0 X615.069 Y-50.800
G1 Z1.000 F2000.000
G2 X604.131 Y-50.800 Z-1.283 I-5.469 J0.000 F2000.000
G2 X615.069 Y-50.800 Z-3.567 I5.469 J0.000 F2000.000
G2 X604.131 Y-50.800 Z-5.850 I-5.469 J0.000 F2000.000
G2 X615.069 Y-50.800 Z-8.133 I5.469 J0.000 F2000.000
G2 X604.131 Y-50.800 Z-10.417 I-5.469 J0.000 F2000.000
G2 X615.069 Y-50.800 Z-12.700 I5.469 J0.000 F2000.000
G2 X604.131 Y-50.800 Z-12.700 I-5.469 J0.000 F2000.000
G2 X615.069 Y-50.800 Z-12.700 I5.469 J0.000 F2000.000
G0 X609.600 Y-50.800 Z-12.700
G0 Z1.000
G0 X617.538 Y-50.800
G1 Z1.000 F2000.000
G2 X601.663 Y-50.800 Z-1.283 I-7.938 J0.000 F2000.000
G2 X617.538 Y-50.800 Z-3.567 I7.938 J0.000 F2000.000
G2 X601.663 Y-50.800 Z-5.850 I-7.938 J0.000 F2000.000
G2 X617.538 Y-50.800 Z-8.133 I7.938 J0.000 F2000.000
G2 X601.663 Y-50.800 Z-10.417 I-7.938 J0.000 F2000.000
G2 X617.538 Y-50.800 Z-12.700 I7.938 J0.000 F2000.000
G2 X601.663 Y-50.800 Z-12.700 I-7.938 J0.000 F2000.000
G2 X617.538 Y-50.800 Z-12.700 I7.938 J0.000 F2000.000
G0 X609.600 Y-50.800 Z-12.700
G0 Z1.000
G0 X620.006 Y-50.800
G1 Z1.000 F2000.000
G2 X599.194 Y-50.800 Z-1.283 I-10.406 J0.000 F2000.000
G2 X620.006 Y-50.800 Z-3.567 I10.406 J0.000 F2000.000
G2 X599.194 Y-50.800 Z-5.850 I-10.406 J0.000 F2000.000
G2 X620.006 Y-50.800 Z-8.133 I10.406 J0.000 F2000.000
G2 X599.194 Y-50.800 Z-10.417 I-10.406 J0.000 F2000.000
G2 X620.006 Y-50.800 Z-12.700 I10.406 J0.000 F2000.000
G2 X599.194 Y-50.800 Z-12.700 I-10.406 J0.000 F2000.000
G2 X620.006 Y-50.800 Z-12.700 I10.406 J0.000 F2000.000
G0 X609.600 Y-50.800 Z-12.700
G0 Z1.000
G0 X622.475 Y-50.800
G1 Z1.000 F2000.000
G2 X596.725 Y-50.800 Z-1.283 I-12.875 J0.000 F2000.000
G2 X622.475 Y-50.800 Z-3.567 I12.875 J0.000 F2000.000
G2 X596.725 Y-50.800 Z-5.850 I-12.875 J0.000 F2000.000
G2 X622.475 Y-50.800 Z-8.133 I12.875 J0.000 F2000.000
G2 X596.725 Y-50.800 Z-10.417 I-12.875 J0.000 F2000.000
G2 X622.475 Y-50.800 Z-12.700 I12.875 J0.000 F2000.000
G2 X596.725 Y-50.800 Z-12.700 I-12.875 J0.000 F2000.000
G2 X622.475 Y-50.800 Z-12.700 I12.875 J0.000 F2000.000
G0 X609.600 Y-50.800 Z-12.700
G0 Z1.000
G0 Z6.000
G0 X609.600 Y-50.800 Z6.000
G0 X609.600 Y-50.800 Z1.000
G0 X612.600 Y-50.800
G1 Z1.000 F2000.000
G2 X606.600 Y-50.800 Z-1.283 I-3.000 J0.000 F2000.000
G2 X612.600 Y-50.800 Z-3.567 I3.000 J0.000 F2000.000
G2 X606.600 Y-50.800 Z-5.850 I-3.000 J0.000 F2000.000
G2 X612.600 Y-50.800 Z-8.133 I3.000 J0.000 F2000.000
G2 X606.600 Y-50.800 Z-10.417 I-3.000 J0.000 F2000.000
G2 X612.600 Y-50.800 Z-12.700 I3.000 J0.000 F2000.000
G2 X606.600 Y-50.800 Z-12.700 I-3.000 J0.000 F2000.000
G2 X612.600 Y-50.800 Z-12.700 I3.000 J0.000 F2000.000
G0 X609.600 Y-50.800 Z-12.700
G0 Z1.000
G0 X614.363 Y-50.800
G1 Z1.000 F2000.000
G2 X604.837 Y-50.800 Z-1.283 I-4.762 J0.000 F2000.000
G2 X614.363 Y-50.800 Z-3.567 I4.762 J0.000 F2000.000
G2 X604.837 Y-50.800 Z-5.850 I-4.762 J0.000 F2000.000
G2 X614.363 Y-50.800 Z-8.133 I4.762 J0.000 F2000.000
G2 X604.837 Y-50.800 Z-10.417 I-4.762 J0.000 F2000.000
G2 X614.363 Y-50.800 Z-12.700 I4.762 J0.000 F2000.000
G2 X604.837 Y-50.800 Z-12.700 I-4.762 J0.000 F2000.000
G2 X614.363 Y-50.800 Z-12.700 I4.762 J0.000 F2000.000
G0 X609.600 Y-50.800 Z-12.700
G0 Z1.000
G0 X616.125 Y-50.800
G1 Z1.000 F2000.000
G2 X603.075 Y-50.800 Z-1.283 I-6.525 J0.000 F2000.000
G2 X616.125 Y-50.800 Z-3.567 I6.525 J0.000 F2000.000
G2 X603.075 Y-50.800 Z-5.850 I-6.525 J0.000 F2000.000
G2 X616.125 Y-50.800 Z-8.133 I6.525 J0.000 F2000.000
G2 X603.075 Y-50.800 Z-10.417 I-6.525 J0.000 F2000.000
G2 X616.125 Y-50.800 Z-12.700 I6.525 J0.000 F2000.000
G2 X603.075 Y-50.800 Z-12.700 I-6.525 J0.000 F2000.000
G2 X616.125 Y-50.800 Z-12.700 I6.525 J0.000 F2000.000
G0 X609.600 Y-50.800 Z-12.700
G0 Z1.000
G0 Z6.000
G0 X863.600 Y-101.600 Z6.000
G0 X863.600 Y-101.600 Z1.000
G0 X864.569 Y-101.600
G1 Z1.000 F2000.000
G2 X862.631 Y-101.600 Z-1.283 I-0.969 J0.000 F2000.000
G2 X864.569 Y-101.600 Z-3.567 I0.969 J0.000 F2000.000
G2 X862.631 Y-101.600 Z-5.850 I-0.969 J0.000 F2000.000
G2 X864.569 Y-101.600 Z-8.133 I0.969 J0.000 F2000.000
G2 X862.631 Y-101.600 Z-10.417 I-0.969 J0.000 F2000.000
G2 X864.569 Y-101.600 Z-12.700 I0.969 J0.000 F2000.000
G2 X862.631 Y-101.600 Z-12.700 I-0.969 J0.000 F2000.000
G2 X864.569 Y-101.600 Z-12.700 I0.969 J0.000 F2000.000
G0 X863.600 Y-101.600 Z-12.700
G0 Z1.000
G0 Z6.000
G0 X863.600 Y-228.600 Z6.000
G0 X863.600 Y-228.600 Z1.000
G0 X864.569 Y-228.600
G1 Z1.000 F2000.000
G2 X862.631 Y-228.600 Z-1.283 I-0.969 J0.000 F2000.000
G2 X864.569 Y-228.600 Z-3.567 I0.969 J0.000 F2000.000
G2 X862.631 Y-228.600 Z-5.850 I-0.969 J0.000 F2000.000
G2 X864.569 Y-228.600 Z-8.133 I0.969 J0.000 F2000.000
G2 X862.631 Y-228.600 Z-10.417 I-0.969 J0.000 F2000.000
G2 X864.569 Y-228.600 Z-12.700 I0.969 J0.000 F2000.000
G2 X862.631 Y-228.600 Z-12.700 I-0.969 J0.000 F2000.000
G2 X864.569 Y-228.600 Z-12.700 I0.969 J0.000 F2000.000
G0 X863.600 Y-228.600 Z-12.700
G0 Z1.000
G0 Z6.000
G0 X863.600 Y-355.600 Z6.000
G0 X863.600 Y-355.600 Z1.000
G0 X864.569 Y-355.600
G1 Z1.000 F2000.000
G2 X862.631 Y-355.600 Z-1.283 I-0.969 J0.000 F2000.000
G2 X864.569 Y-355.600 Z-3.567 I0.969 J0.000 F2000.000
G2 X862.631 Y-355.600 Z-5.850 I-0.969 J0.000 F2000.000
G2 X864.569 Y-355.600 Z-8.133 I0.969 J0.000 F2000.000
G2 X862.631 Y-355.600 Z-10.417 I-0.969 J0.000 F2000.000
G2 X864.569 Y-355.600 Z-12.700 I0.969 J0.000 F2000.000
G2 X862.631 Y-355.600 Z-12.700 I-0.969 J0.000 F2000.000
G2 X864.569 Y-355.600 Z-12.700 I0.969 J0.000 F2000.000
G0 X863.600 Y-355.600 Z-12.700
G0 Z1.000
G0 Z6.000
G0 X863.600 Y-482.600 Z6.000
G0 X863.600 Y-482.600 Z1.000
G0 X864.569 Y-482.600
G1 Z1.000 F2000.000
G2 X862.631 Y-482.600 Z-1.283 I-0.969 J0.000 F2000.000
G2 X864.569 Y-482.600 Z-3.567 I0.969 J0.000 F2000.000
G2 X862.631 Y-482.600 Z-5.850 I-0.969 J0.000 F2000.000
G2 X864.569 Y-482.600 Z-8.133 I0.969 J0.000 F2000.000
G2 X862.631 Y-482.600 Z-10.417 I-0.969 J0.000 F2000.000
G2 X864.569 Y-482.600 Z-12.700 I0.969 J0.000 F2000.000
G2 X862.631 Y-482.600 Z-12.700 I-0.969 J0.000 F2000.000
G2 X864.569 Y-482.600 Z-12.700 I0.969 J0.000 F2000.000
G0 X863.600 Y-482.600 Z-12.700
G0 Z1.000
G0 Z6.000
G0 X863.600 Y-609.600 Z6.000
G0 X863.600 Y-609.600 Z1.000
G0 X864.569 Y-609.600
G1 Z1.000 F2000.000
G2 X862.631 Y-609.600 Z-1.283 I-0.969 J0.000 F2000.000
G2 X864.569 Y-609.600 Z-3.567 I0.969 J0.000 F2000.000
G2 X862.631 Y-609.600 Z-5.850 I-0.969 J0.000 F2000.000
G2 X864.569 Y-609.600 Z-8.133 I0.969 J0.000 F2000.000
G2 X862.631 Y-609.600 Z-10.417 I-0.969 J0.000 F2000.000
G2 X864.569 Y-609.600 Z-12.700 I0.969 J0.000 F2000.000
G2 X862.631 Y-609.600 Z-12.700 I-0.969 J0.000 F2000.000
G2 X864.569 Y-609.600 Z-12.700 I0.969 J0.000 F2000.000
G0 X863.600 Y-609.600 Z-12.700
G0 Z1.000
G0 Z6.000
G0 X863.600 Y-736.600 Z6.000
G0 X863.600 Y-736.600 Z1.000
G0 X864.569 Y-736.600
G1 Z1.000 F2000.000
G2 X862.631 Y-736.600 Z-1.283 I-0.969 J0.000 F2000.000
G2 X864.569 Y-736.600 Z-3.567 I0.969 J0.000 F2000.000
G2 X862.631 Y-736.600 Z-5.850 I-0.969 J0.000 F2000.000
G2 X864.569 Y-736.600 Z-8.133 I0.969 J0.000 F2000.000
G2 X862.631 Y-736.600 Z-10.417 I-0.969 J0.000 F2000.000
G2 X864.569 Y-736.600 Z-12.700 I0.969 J0.000 F2000.000
G2 X862.631 Y-736.600 Z-12.700 I-0.969 J0.000 F2000.000
G2 X864.569 Y-736.600 Z-12.700 I0.969 J0.000 F2000.000
G0 X863.600 Y-736.600 Z-12.700
G0 Z1.000
G0 Z6.000
G0 X863.600 Y-863.600 Z6.000
G0 X863.600 Y-863.600 Z1.000
G0 X864.569 Y-863.600
G1 Z1.000 F2000.000
G2 X862.631 Y-863.600 Z-1.283 I-0.969 J0.000 F2000.000
G2 X864.569 Y-863.600 Z-3.567 I0.969 J0.000 F2000.000
G2 X862.631 Y-863.600 Z-5.850 I-0.969 J0.000 F2000.000
G2 X864.569 Y-863.600 Z-8.133 I0.969 J0.000 F2000.000
G2 X862.631 Y-863.600 Z-10.417 I-0.969 J0.000 F2000.000
G2 X864.569 Y-863.600 Z-12.700 I0.969 J0.000 F2000.000
G2 X862.631 Y-863.600 Z-12.700 I-0.969 J0.000 F2000.000
G2 X864.569 Y-863.600 Z-12.700 I0.969 J0.000 F2000.000
G0 X863.600 Y-863.600 Z-12.700
G0 Z1.000
G0 Z6.000
G0 X863.600 Y-990.600 Z6.000
G0 X863.600 Y-990.600 Z1.000
G0 X864.569 Y-990.600
G1 Z1.000 F2000.000
G2 X862.631 Y-990.600 Z-1.283 I-0.969 J0.000 F2000.000
G2 X864.569 Y-990.600 Z-3.567 I0.969 J0.000 F2000.000
G2 X862.631 Y-990.600 Z-5.850 I-0.969 J0.000 F2000.000
G2 X864.569 Y-990.600 Z-8.133 I0.969 J0.000 F2000.000
G2 X862.631 Y-990.600 Z-10.417 I-0.969 J0.000 F2000.000
G2 X864.569 Y-990.600 Z-12.700 I0.969 J0.000 F2000.000
G2 X862.631 Y-990.600 Z-12.700 I-0.969 J0.000 F2000.000
G2 X864.569 Y-990.600 Z-12.700 I0.969 J0.000 F2000.000
G0 X863.600 Y-990.600 Z-12.700
G0 Z1.000
G0 Z6.000
G0 X863.600 Y-1117.600 Z6.000
G0 X863.600 Y-1117.600 Z1.000
G0 X864.569 Y-1117.600
G1 Z1.000 F2000.000
G2 X862.631 Y-1117.600 Z-1.283 I-0.969 J0.000 F2000.000
G2 X864.569 Y-1117.600 Z-3.567 I0.969 J0.000 F2000.000
G2 X862.631 Y-1117.600 Z-5.850 I-0.969 J0.000 F2000.000
G2 X864.569 Y-1117.600 Z-8.133 I0.969 J0.000 F2000.000
G2 X862.631 Y-1117.600 Z-10.417 I-0.969 J0.000 F2000.000
G2 X864.569 Y-1117.600 Z-12.700 I0.969 J0.000 F2000.000
G2 X862.631 Y-1117.600 Z-12.700 I-0.969 J0.000 F2000.000
G2 X864.569 Y-1117.600 Z-12.700 I0.969 J0.000 F2000.000
G0 X863.600 Y-1117.600 Z-12.700
G0 Z1.000
G0 Z6.000
G0 X990.600 Y-1117.600 Z6.000
G0 X990.600 Y-1117.600 Z1.000
G0 X991.569 Y-1117.600
G1 Z1.000 F2000.000
G2 X989.631 Y-1117.600 Z-1.283 I-0.969 J0.000 F2000.000
G2 X991.569 Y-1117.600 Z-3.567 I0.969 J0.000 F2000.000
G2 X989.631 Y-1117.600 Z-5.850 I-0.969 J0.000 F2000.000
G2 X991.569 Y-1117.600 Z-8.133 I0.969 J0.000 F2000.000
G2 X989.631 Y-1117.600 Z-10.417 I-0.969 J0.000 F2000.000
G2 X991.569 Y-1117.600 Z-12.700 I0.969 J0.000 F2000.000
G2 X989.631 Y-1117.600 Z-12.700 I-0.969 J0.000 F2000.000
G2 X991.569 Y-1117.600 Z-12.700 I0.969 J0.000 F2000.000
G0 X990.600 Y-1117.600 Z-12.700
G0 Z1.000
G0 Z6.000
G0 X1117.600 Y-1117.600 Z6.000
G0 X1117.600 Y-1117.600 Z1.000
G0 X1118.569 Y-1117.600
G1 Z1.000 F2000.000
G2 X1116.631 Y-1117.600 Z-1.283 I-0.969 J0.000 F2000.000
G2 X1118.569 Y-1117.600 Z-3.567 I0.969 J0.000 F2000.000
G2 X1116.631 Y-1117.600 Z-5.850 I-0.969 J0.000 F2000.000
G2 X1118.569 Y-1117.600 Z-8.133 I0.969 J0.000 F2000.000
G2 X1116.631 Y-1117.600 Z-10.417 I-0.969 J0.000 F2000.000
G2 X1118.569 Y-1117.600 Z-12.700 I0.969 J0.000 F2000.000
G2 X1116.631 Y-1117.600 Z-12.700 I-0.969 J0.000 F2000.000
G2 X1118.569 Y-1117.600 Z-12.700 I0.969 J0.000 F2000.000
G0 X1117.600 Y-1117.600 Z-12.700
G0 Z1.000
G0 Z6.000
G0 X1117.600 Y-990.600 Z6.000
G0 X1117.600 Y-990.600 Z1.000
G0 X1118.569 Y-990.600
G1 Z1.000 F2000.000
G2 X1116.631 Y-990.600 Z-1.283 I-0.969 J0.000 F2000.000
G2 X1118.569 Y-990.600 Z-3.567 I0.969 J0.000 F2000.000
G2 X1116.631 Y-990.600 Z-5.850 I-0.969 J0.000 F2000.000
G2 X1118.569 Y-990.600 Z-8.133 I0.969 J0.000 F2000.000
G2 X1116.631 Y-990.600 Z-10.417 I-0.969 J0.000 F2000.000
G2 X1118.569 Y-990.600 Z-12.700 I0.969 J0.000 F2000.000
G2 X1116.631 Y-990.600 Z-12.700 I-0.969 J0.000 F2000.000
G2 X1118.569 Y-990.600 Z-12.700 I0.969 J0.000 F2000.000
G0 X1117.600 Y-990.600 Z-12.700
G0 Z1.000
G0 Z6.000
G0 X1117.600 Y-863.600 Z6.000
G0 X1117.600 Y-863.600 Z1.000
G0 X1118.569 Y-863.600
G1 Z1.000 F2000.000
G2 X1116.631 Y-863.600 Z-1.283 I-0.969 J0.000 F2000.000
G2 X1118.569 Y-863.600 Z-3.567 I0.969 J0.000 F2000.000
G2 X1116.631 Y-863.600 Z-5.850 I-0.969 J0.000 F2000.000
G2 X1118.569 Y-863.600 Z-8.133 I0.969 J0.000 F2000.000
G2 X1116.631 Y-863.600 Z-10.417 I-0.969 J0.000 F2000.000
G2 X1118.569 Y-863.600 Z-12.700 I0.969 J0.000 F2000.000
G2 X1116.631 Y-863.600 Z-12.700 I-0.969 J0.000 F2000.000
G2 X1118.569 Y-863.600 Z-12.700 I0.969 J0.000 F2000.000
G0 X1117.600 Y-863.600 Z-12.700
G0 Z1.000
G0 Z6.000
G0 X990.600 Y-863.600 Z6.000
G0 X990.600 Y-863.600 Z1.000
G0 X991.569 Y-863.600
G1 Z1.000 F2000.000
G2 X989.631 Y-863.600 Z-1.283 I-0.969 J0.000 F2000.000
G2 X991.569 Y-863.600 Z-3.567 I0.969 J0.000 F2000.000
G2 X989.631 Y-863.600 Z-5.850 I-0.969 J0.000 F2000.000
G2 X991.569 Y-863.600 Z-8.133 I0.969 J0.000 F2000.000
G2 X989.631 Y-863.600 Z-10.417 I-0.969 J0.000 F2000.000
G2 X991.569 Y-863.600 Z-12.700 I0.969 J0.000 F2000.000
G2 X989.631 Y-863.600 Z-12.700 I-0.969 J0.000 F2000.000
G2 X991.569 Y-863.600 Z-12.700 I0.969 J0.000 F2000.000
G0 X990.600 Y-863.600 Z-12.700
G0 Z1.000
G0 Z6.000
G0 X990.600 Y-736.600 Z6.000
G0 X990.600 Y-736.600 Z1.000
G0 X991.569 Y-736.600
G1 Z1.000 F2000.000
G2 X989.631 Y-736.600 Z-1.283 I-0.969 J0.000 F2000.000
G2 X991.569 Y-736.600 Z-3.567 I0.969 J0.000 F2000.000
G2 X989.631 Y-736.600 Z-5.850 I-0.969 J0.000 F2000.000
G2 X991.569 Y-736.600 Z-8.133 I0.969 J0.000 F2000.000
G2 X989.631 Y-736.600 Z-10.417 I-0.969 J0.000 F2000.000
G2 X991.569 Y-736.600 Z-12.700 I0.969 J0.000 F2000.000
G2 X989.631 Y-736.600 Z-12.700 I-0.969 J0.000 F2000.000
G2 X991.569 Y-736.600 Z-12.700 I0.969 J0.000 F2000.000
G0 X990.600 Y-736.600 Z-12.700
G0 Z1.000
G0 Z6.000
G0 X1117.600 Y-736.600 Z6.000
G0 X1117.600 Y-736.600 Z1.000
G0 X1118.569 Y-736.600
G1 Z1.000 F2000.000
G2 X1116.631 Y-736.600 Z-1.283 I-0.969 J0.000 F2000.000
G2 X1118.569 Y-736.600 Z-3.567 I0.969 J0.000 F2000.000
G2 X1116.631 Y-736.600 Z-5.850 I-0.969 J0.000 F2000.000
G2 X1118.569 Y-736.600 Z-8.133 I0.969 J0.000 F2000.000
G2 X1116.631 Y-736.600 Z-10.417 I-0.969 J0.000 F2000.000
G2 X1118.569 Y-736.600 Z-12.700 I0.969 J0.000 F2000.000
G2 X1116.631 Y-736.600 Z-12.700 I-0.969 J0.000 F2000.000
G2 X1118.569 Y-736.600 Z-12.700 I0.969 J0.000 F2000.000
G0 X1117.600 Y-736.600 Z-12.700
G0 Z1.000
G0 Z6.000
G0 X1117.600 Y-609.600 Z6.000
G0 X1117.600 Y-609.600 Z1.000
G0 X1118.569 Y-609.600
G1 Z1.000 F2000.000
G2 X1116.631 Y-609.600 Z-1.283 I-0.969 J0.000 F2000.000
G2 X1118.569 Y-609.600 Z-3.567 I0.969 J0.000 F2000.000
G2 X1116.631 Y-609.600 Z-5.850 I-0.969 J0.000 F2000.000
G2 X1118.569 Y-609.600 Z-8.133 I0.969 J0.000 F2000.000
G2 X1116.631 Y-609.600 Z-10.417 I-0.969 J0.000 F2000.000
G2 X1118.569 Y-609.600 Z-12.700 I0.969 J0.000 F2000.000
G2 X1116.631 Y-609.600 Z-12.700 I-0.969 J0.000 F2000.000
G2 X1118.569 Y-609.600 Z-12.700 I0.969 J0.000 F2000.000
G0 X1117.600 Y-609.600 Z-12.700
G0 Z1.000
G0 Z6.000
G0 X1117.600 Y-482.600 Z6.000
G0 X1117.600 Y-482.600 Z1.000
G0 X1118.569 Y-482.600
G1 Z1.000 F2000.000
G2 X1116.631 Y-482.600 Z-1.283 I-0.969 J0.000 F2000.000
G2 X1118.569 Y-482.600 Z-3.567 I0.969 J0.000 F2000.000
G2 X1116.631 Y-482.600 Z-5.850 I-0.969 J0.000 F2000.000
G2 X1118.569 Y-482.600 Z-8.133 I0.969 J0.000 F2000.000
G2 X1116.631 Y-482.600 Z-10.417 I-0.969 J0.000 F2000.000
G2 X1118.569 Y-482.600 Z-12.700 I0.969 J0.000 F2000.000
G2 X1116.631 Y-482.600 Z-12.700 I-0.969 J0.000 F2000.000
G2 X1118.569 Y-482.600 Z-12.700 I0.969 J0.000 F2000.000
G0 X1117.600 Y-482.600 Z-12.700
G0 Z1.000
G0 Z6.000
G0 X990.600 Y-482.600 Z6.000
G0 X990.600 Y-482.600 Z1.000
G0 X991.569 Y-482.600
G1 Z1.000 F2000.000
G2 X989.631 Y-482.600 Z-1.283 I-0.969 J0.000 F2000.000
G2 X991.569 Y-482.600 Z-3.567 I0.969 J0.000 F2000.000
G2 X989.631 Y-482.600 Z-5.850 I-0.969 J0.000 F2000.000
G2 X991.569 Y-482.600 Z-8.133 I0.969 J0.000 F2000.000
G2 X989.631 Y-482.600 Z-10.417 I-0.969 J0.000 F2000.000
G2 X991.569 Y-482.600 Z-12.700 I0.969 J0.000 F2000.000
G2 X989.631 Y-482.600 Z-12.700 I-0.969 J0.000 F2000.000
G2 X991.569 Y-482.600 Z-12.700 I0.969 J0.000 F2000.000
G0 X990.600 Y-482.600 Z-12.700
G0 Z1.000
G0 Z6.000
G0 X990.600 Y-355.600 Z6.000
G0 X990.600 Y-355.600 Z1.000
G0 X991.569 Y-355.600
G1 Z1.000 F2000.000
G2 X989.631 Y-355.600 Z-1.283 I-0.969 J0.000 F2000.000
G2 X991.569 Y-355.600 Z-3.567 I0.969 J0.000 F2000.000
G2 X989.631 Y-355.600 Z-5.850 I-0.969 J0.000 F2000.000
G2 X991.569 Y-355.600 Z-8.133 I0.969 J0.000 F2000.000
G2 X989.631 Y-355.600 Z-10.417 I-0.969 J0.000 F2000.000
G2 X991.569 Y-355.600 Z-12.700 I0.969 J0.000 F2000.000
G2 X989.631 Y-355.600 Z-12.700 I-0.969 J0.000 F2000.000
G2 X991.569 Y-355.600 Z-12.700 I0.969 J0.000 F2000.000
G0 X990.600 Y-355.600 Z-12.700
G0 Z1.000
G0 Z6.000
G0 X1117.600 Y-355.600 Z6.000
G0 X1117.600 Y-355.600 Z1.000
G0 X1118.569 Y-355.600
G1 Z1.000 F2000.000
G2 X1116.631 Y-355.600 Z-1.283 I-0.969 J0.000 F2000.000
G2 X1118.569 Y-355.600 Z-3.567 I0.969 J0.000 F2000.000
G2 X1116.631 Y-355.600 Z-5.850 I-0.969 J0.000 F2000.000
G2 X1118.569 Y-355.600 Z-8.133 I0.969 J0.000 F2000.000
G2 X1116.631 Y-355.600 Z-10.417 I-0.969 J0.000 F2000.000
G2 X1118.569 Y-355.600 Z-12.700 I0.969 J0.000 F2000.000
G2 X1116.631 Y-355.600 Z-12.700 I-0.969 J0.000 F2000.000
G2 X1118.569 Y-355.600 Z-12.700 I0.969 J0.000 F2000.000
G0 X1117.600 Y-355.600 Z-12.700
G0 Z1.000
G0 Z6.000
G0 X1117.600 Y-228.600 Z6.000
G0 X1117.600 Y-228.600 Z1.000
G0 X1118.569 Y-228.600
G1 Z1.000 F2000.000
G2 X1116.631 Y-228.600 Z-1.283 I-0.969 J0.000 F2000.000
G2 X1118.569 Y-228.600 Z-3.567 I0.969 J0.000 F2000.000
G2 X1116.631 Y-228.600 Z-5.850 I-0.969 J0.000 F2000.000
G2 X1118.569 Y-228.600 Z-8.133 I0.969 J0.000 F2000.000
G2 X1116.631 Y-228.600 Z-10.417 I-0.969 J0.000 F2000.000
G2 X1118.569 Y-228.600 Z-12.700 I0.969 J0.000 F2000.000
G2 X1116.631 Y-228.600 Z-12.700 I-0.969 J0.000 F2000.000
G2 X1118.569 Y-228.600 Z-12.700 I0.969 J0.000 F2000.000
G0 X1117.600 Y-228.600 Z-12.700
G0 Z1.000
G0 Z6.000
G0 X1117.600 Y-101.600 Z6.000
G0 X1117.600 Y-101.600 Z1.000
G0 X1118.569 Y-101.600
G1 Z1.000 F2000.000
G2 X1116.631 Y-101.600 Z-1.283 I-0.969 J0.000 F2000.000
G2 X1118.569 Y-101.600 Z-3.567 I0.969 J0.000 F2000.000
G2 X1116.631 Y-101.600 Z-5.850 I-0.969 J0.000 F2000.000
G2 X1118.569 Y-101.600 Z-8.133 I0.969 J0.000 F2000.000
G2 X1116.631 Y-101.600 Z-10.417 I-0.969 J0.000 F2000.000
G2 X1118.569 Y-101.600 Z-12.700 I0.969 J0.000 F2000.000
G2 X1116.631 Y-101.600 Z-12.700 I-0.969 J0.000 F2000.000
G2 X1118.569 Y-101.600 Z-12.700 I0.969 J0.000 F2000.000
G0 X1117.600 Y-101.600 Z-12.700
G0 Z1.000
G0 Z6.000
G0 X990.600 Y-101.600 Z6.000
G0 X990.600 Y-101.600 Z1.000
G0 X991.569 Y-101.600
G1 Z1.000 F2000.000
G2 X989.631 Y-101.600 Z-1.283 I-0.969 J0.000 F2000.000
G2 X991.569 Y-101.600 Z-3.567 I0.969 J0.000 F2000.000
G2 X989.631 Y-101.600 Z-5.850 I-0.969 J0.000 F2000.000
G2 X991.569 Y-101.600 Z-8.133 I0.969 J0.000 F2000.000
G2 X989.631 Y-101.600 Z-10.417 I-0.969 J0.000 F2000.000
G2 X991.569 Y-101.600 Z-12.700 I0.969 J0.000 F2000.000
G2 X989.631 Y-101.600 Z-12.700 I-0.969 J0.000 F2000.000
G2 X991.569 Y-101.600 Z-12.700 I0.969 J0.000 F2000.000
G0 X990.600 Y-101.600 Z-12.700
G0 Z1.000
G0 Z6.000
G0 X990.600 Y-50.800 Z6.000
G0 X990.600 Y-50.800 Z1.000
G0 X993.600 Y-50.800
G1 Z1.000 F2000.000
G2 X987.600 Y-50.800 Z-1.283 I-3.000 J0.000 F2000.000
G2 X993.600 Y-50.800 Z-3.567 I3.000 J0.000 F2000.000
G2 X987.600 Y-50.800 Z-5.850 I-3.000 J0.000 F2000.000
G2 X993.600 Y-50.800 Z-8.133 I3.000 J0.000 F2000.000
G2 X987.600 Y-50.800 Z-10.417 I-3.000 J0.000 F2000.000
G2 X993.600 Y-50.800 Z-12.700 I3.000 J0.000 F2000.000
G2 X987.600 Y-50.800 Z-12.700 I-3.000 J0.000 F2000.000
G2 X993.600 Y-50.800 Z-12.700 I3.000 J0.000 F2000.000
G0 X990.600 Y-50.800 Z-12.700
G0 Z1.000
G0 X996.069 Y-50.800
G1 Z1.000 F2000.000
G2 X985.131 Y-50.800 Z-1.283 I-5.469 J0.000 F2000.000
G2 X996.069 Y-50.800 Z-3.567 I5.469 J0.000 F2000.000
G2 X985.131 Y-50.800 Z-5.850 I-5.469 J0.000 F2000.000
G2 X996.069 Y-50.800 Z-8.133 I5.469 J0.000 F2000.000
G2 X985.131 Y-50.800 Z-10.417 I-5.469 J0.000 F2000.000
G2 X996.069 Y-50.800 Z-12.700 I5.469 J0.000 F2000.000
G2 X985.131 Y-50.800 Z-12.700 I-5.469 J0.000 F2000.000
G2 X996.069 Y-50.800 Z-12.700 I5.469 J0.000 F2000.000
G0 X990.600 Y-50.800 Z-12.700
G0 Z1.000
G0 X998.538 Y-50.800
G1 Z1.000 F2000.000
G2 X982.663 Y-50.800 Z-1.283 I-7.938 J0.000 F2000.000
G2 X998.538 Y-50.800 Z-3.567 I7.938 J0.000 F2000.000
G2 X982.663 Y-50.800 Z-5.850 I-7.938 J0.000 F2000.000
G2 X998.538 Y-50.800 Z-8.133 I7.938 J0.000 F2000.000
G2 X982.663 Y-50.800 Z-10.417 I-7.938 J0.000 F2000.000
G2 X998.538 Y-50.800 Z-12.700 I7.938 J0.000 F2000.000
G2 X982.663 Y-50.800 Z-12.700 I-7.938 J0.000 F2000.000
G2 X998.538 Y-50.800 Z-12.700 I7.938 J0.000 F2000.000
G0 X990.600 Y-50.800 Z-12.700
G0 Z1.000
G0 X1001.006 Y-50.800
G1 Z1.000 F2000.000
G2 X980.194 Y-50.800 Z-1.283 I-10.406 J0.000 F2000.000
G2 X1001.006 Y-50.800 Z-3.567 I10.406 J0.000 F2000.000
G2 X980.194 Y-50.800 Z-5.850 I-10.406 J0.000 F2000.000
G2 X1001.006 Y-50.800 Z-8.133 I10.406 J0.000 F2000.000
G2 X980.194 Y-50.800 Z-10.417 I-10.406 J0.000 F2000.000
G2 X1001.006 Y-50.800 Z-12.700 I10.406 J0.000 F2000.000
G2 X980.194 Y-50.800 Z-12.700 I-10.406 J0.000 F2000.000
G2 X1001.006 Y-50.800 Z-12.700 I10.406 J0.000 F2000.000
G0 X990.600 Y-50.800 Z-12.700
G0 Z1.000
G0 X1003.475 Y-50.800
G1 Z1.000 F2000.000
G2 X977.725 Y-50.800 Z-1.283 I-12.875 J0.000 F2000.000
G2 X1003.475 Y-50.800 Z-3.567 I12.875 J0.000 F2000.000
G2 X977.725 Y-50.800 Z-5.850 I-12.875 J0.000 F2000.000
G2 X1003.475 Y-50.800 Z-8.133 I12.875 J0.000 F2000.000
G2 X977.725 Y-50.800 Z-10.417 I-12.875 J0.000 F2000.000
G2 X1003.475 Y-50.800 Z-12.700 I12.875 J0.000 F2000.000
G2 X977.725 Y-50.800 Z-12.700 I-12.875 J0.000 F2000.000
G2 X1003.475 Y-50.800 Z-12.700 I12.875 J0.000 F2000.000
G0 X990.600 Y-50.800 Z-12.700
G0 Z1.000
G0 Z6.000
G0 X990.600 Y-50.800 Z6.000
G0 X990.600 Y-50.800 Z1.000
G0 X993.600 Y-50.800
G1 Z1.000 F2000.000
G2 X987.600 Y-50.800 Z-1.283 I-3.000 J0.000 F2000.000
G2 X993.600 Y-50.800 Z-3.567 I3.000 J0.000 F2000.000
G2 X987.600 Y-50.800 Z-5.850 I-3.000 J0.000 F2000.000
G2 X993.600 Y-50.800 Z-8.133 I3.000 J0.000 F2000.000
G2 X987.600 Y-50.800 Z-10.417 I-3.000 J0.000 F2000.000
G2 X993.600 Y-50.800 Z-12.700 I3.000 J0.000 F2000.000
G2 X987.600 Y-50.800 Z-12.700 I-3.000 J0.000 F2000.000
G2 X993.600 Y-50.800 Z-12.700 I3.000 J0.000 F2000.000
G0 X990.600 Y-50.800 Z-12.700
G0 Z1.000
G0 X995.363 Y-50.800
G1 Z1.000 F2000.000
G2 X985.837 Y-50.800 Z-1.283 I-4.762 J0.000 F2000.000
G2 X995.363 Y-50.800 Z-3.567 I4.762 J0.000 F2000.000
G2 X985.837 Y-50.800 Z-5.850 I-4.762 J0.000 F2000.000
G2 X995.363 Y-50.800 Z-8.133 I4.762 J0.000 F2000.000
G2 X985.837 Y-50.800 Z-10.417 I-4.762 J0.000 F2000.000
G2 X995.363 Y-50.800 Z-12.700 I4.762 J0.000 F2000.000
G2 X985.837 Y-50.800 Z-12.700 I-4.762 J0.000 F2000.000
G2 X995.363 Y-50.800 Z-12.700 I4.762 J0.000 F2000.000
G0 X990.600 Y-50.800 Z-12.700
G0 Z1.000
G0 X997.125 Y-50.800
G1 Z1.000 F2000.000
