(Exported by FreeCAD)
(Post Processor: linuxcnc_post)
(Output Time:2024-05-26 20:29:49.241425)
(begin preamble)
G17 G54 G40 G49 G80 G90
G21
(begin operation: Fixture)
(machine units: mm/min)
G54 
(finish operation: Fixture)
(begin operation: 12mm_Endmill003)
(machine units: mm/min)
(12mm_Endmill003) 
M5
M6 T2 
G43 H2 
(finish operation: 12mm_Endmill003)
(begin operation: Adaptive)
(machine units: mm/min)
(Adaptive) 
(Helix to depth: -15.000000) 
G0 Z2.000 
G0 X16.057 Y78.889 Z2.000 
G0 X16.057 Y78.889 Z-0.000 
G1 X16.057 Y78.889 Z-3.000 F800.000 
G1 X16.057 Y78.889 Z-3.000 F800.000 
G1 X16.646 Y79.543 Z-3.077 F800.000 
G1 X17.096 Y80.299 Z-3.155 F800.000 
G1 X17.390 Y81.129 Z-3.232 F800.000 
G1 X17.517 Y82.000 Z-3.309 F800.000 
G1 X17.471 Y82.879 Z-3.387 F800.000 
G1 X17.254 Y83.732 Z-3.464 F800.000 
G1 X16.875 Y84.527 Z-3.541 F800.000 
G1 X16.349 Y85.232 Z-3.618 F800.000 
G1 X15.695 Y85.821 Z-3.696 F800.000 
G1 X14.938 Y86.271 Z-3.773 F800.000 
G1 X14.109 Y86.565 Z-3.850 F800.000 
G1 X13.238 Y86.692 Z-3.928 F800.000 
G1 X12.359 Y86.646 Z-4.005 F800.000 
G1 X11.505 Y86.429 Z-4.082 F800.000 
G1 X10.711 Y86.050 Z-4.160 F800.000 
G1 X10.006 Y85.524 Z-4.237 F800.000 
G1 X9.417 Y84.870 Z-4.314 F800.000 
G1 X8.966 Y84.113 Z-4.391 F800.000 
G1 X8.672 Y83.284 Z-4.469 F800.000 
G1 X8.546 Y82.413 Z-4.546 F800.000 
G1 X8.592 Y81.534 Z-4.623 F800.000 
G1 X8.808 Y80.680 Z-4.701 F800.000 
G1 X9.187 Y79.886 Z-4.778 F800.000 
G1 X9.714 Y79.181 Z-4.855 F800.000 
G1 X10.368 Y78.592 Z-4.933 F800.000 
G1 X11.124 Y78.141 Z-5.010 F800.000 
G1 X11.954 Y77.847 Z-5.087 F800.000 
G1 X12.825 Y77.721 Z-5.164 F800.000 
G1 X13.704 Y77.767 Z-5.242 F800.000 
G1 X14.557 Y77.983 Z-5.319 F800.000 
G1 X15.352 Y78.362 Z-5.396 F800.000 
G1 X16.057 Y78.889 Z-5.474 F800.000 
G1 X16.646 Y79.543 Z-5.551 F800.000 
G1 X17.096 Y80.299 Z-5.628 F800.000 
G1 X17.390 Y81.129 Z-5.706 F800.000 
G1 X17.517 Y82.000 Z-5.783 F800.000 
G1 X17.471 Y82.879 Z-5.860 F800.000 
G1 X17.254 Y83.732 Z-5.937 F800.000 
G1 X16.875 Y84.527 Z-6.015 F800.000 
G1 X16.349 Y85.232 Z-6.092 F800.000 
G1 X15.695 Y85.821 Z-6.169 F800.000 
G1 X14.938 Y86.271 Z-6.247 F800.000 
G1 X14.109 Y86.565 Z-6.324 F800.000 
G1 X13.238 Y86.692 Z-6.401 F800.000 
G1 X12.359 Y86.646 Z-6.479 F800.000 
G1 X11.505 Y86.429 Z-6.556 F800.000 
G1 X10.711 Y86.050 Z-6.633 F800.000 
G1 X10.006 Y85.524 Z-6.711 F800.000 
G1 X9.417 Y84.870 Z-6.788 F800.000 
G1 X8.966 Y84.113 Z-6.865 F800.000 
G1 X8.672 Y83.284 Z-6.942 F800.000 
G1 X8.546 Y82.413 Z-7.020 F800.000 
G1 X8.592 Y81.534 Z-7.097 F800.000 
G1 X8.808 Y80.680 Z-7.174 F800.000 
G1 X9.187 Y79.886 Z-7.252 F800.000 
G1 X9.714 Y79.181 Z-7.329 F800.000 
G1 X10.368 Y78.592 Z-7.406 F800.000 
G1 X11.124 Y78.141 Z-7.484 F800.000 
G1 X11.954 Y77.847 Z-7.561 F800.000 
G1 X12.825 Y77.721 Z-7.638 F800.000 
G1 X13.704 Y77.767 Z-7.715 F800.000 
G1 X14.557 Y77.983 Z-7.793 F800.000 
G1 X15.352 Y78.362 Z-7.870 F800.000 
G1 X16.057 Y78.889 Z-7.947 F800.000 
G1 X16.646 Y79.543 Z-8.025 F800.000 
G1 X17.096 Y80.299 Z-8.102 F800.000 
G1 X17.390 Y81.129 Z-8.179 F800.000 
G1 X17.517 Y82.000 Z-8.257 F800.000 
G1 X17.471 Y82.879 Z-8.334 F800.000 
G1 X17.254 Y83.732 Z-8.411 F800.000 
G1 X16.875 Y84.527 Z-8.488 F800.000 
G1 X16.349 Y85.232 Z-8.566 F800.000 
G1 X15.695 Y85.821 Z-8.643 F800.000 
G1 X14.938 Y86.271 Z-8.720 F800.000 
G1 X14.109 Y86.565 Z-8.798 F800.000 
G1 X13.238 Y86.692 Z-8.875 F800.000 
G1 X12.359 Y86.646 Z-8.952 F800.000 
G1 X11.505 Y86.429 Z-9.030 F800.000 
G1 X10.711 Y86.050 Z-9.107 F800.000 
G1 X10.006 Y85.524 Z-9.184 F800.000 
G1 X9.417 Y84.870 Z-9.262 F800.000 
G1 X8.966 Y84.113 Z-9.339 F800.000 
G1 X8.672 Y83.284 Z-9.416 F800.000 
G1 X8.546 Y82.413 Z-9.493 F800.000 
G1 X8.592 Y81.534 Z-9.571 F800.000 
G1 X8.808 Y80.680 Z-9.648 F800.000 
G1 X9.187 Y79.886 Z-9.725 F800.000 
G1 X9.714 Y79.181 Z-9.803 F800.000 
G1 X10.368 Y78.592 Z-9.880 F800.000 
G1 X11.124 Y78.141 Z-9.957 F800.000 
G1 X11.954 Y77.847 Z-10.035 F800.000 
G1 X12.825 Y77.721 Z-10.112 F800.000 
G1 X13.704 Y77.767 Z-10.189 F800.000 
G1 X14.557 Y77.983 Z-10.266 F800.000 
G1 X15.352 Y78.362 Z-10.344 F800.000 
G1 X16.057 Y78.889 Z-10.421 F800.000 
G1 X16.646 Y79.543 Z-10.498 F800.000 
G1 X17.096 Y80.299 Z-10.576 F800.000 
G1 X17.390 Y81.129 Z-10.653 F800.000 
G1 X17.517 Y82.000 Z-10.730 F800.000 
G1 X17.471 Y82.879 Z-10.808 F800.000 
G1 X17.254 Y83.732 Z-10.885 F800.000 
G1 X16.875 Y84.527 Z-10.962 F800.000 
G1 X16.349 Y85.232 Z-11.039 F800.000 
G1 X15.695 Y85.821 Z-11.117 F800.000 
G1 X14.938 Y86.271 Z-11.194 F800.000 
G1 X14.109 Y86.565 Z-11.271 F800.000 
G1 X13.238 Y86.692 Z-11.349 F800.000 
G1 X12.359 Y86.646 Z-11.426 F800.000 
G1 X11.505 Y86.429 Z-11.503 F800.000 
G1 X10.711 Y86.050 Z-11.581 F800.000 
G1 X10.006 Y85.524 Z-11.658 F800.000 
G1 X9.417 Y84.870 Z-11.735 F800.000 
G1 X8.966 Y84.113 Z-11.812 F800.000 
G1 X8.672 Y83.284 Z-11.890 F800.000 
G1 X8.546 Y82.413 Z-11.967 F800.000 
G1 X8.592 Y81.534 Z-12.044 F800.000 
G1 X8.808 Y80.680 Z-12.122 F800.000 
G1 X9.187 Y79.886 Z-12.199 F800.000 
G1 X9.714 Y79.181 Z-12.276 F800.000 
G1 X10.368 Y78.592 Z-12.354 F800.000 
G1 X11.124 Y78.141 Z-12.431 F800.000 
G1 X11.954 Y77.847 Z-12.508 F800.000 
G1 X12.825 Y77.721 Z-12.586 F800.000 
G1 X13.704 Y77.767 Z-12.663 F800.000 
G1 X14.557 Y77.983 Z-12.740 F800.000 
G1 X15.352 Y78.362 Z-12.817 F800.000 
G1 X16.057 Y78.889 Z-12.895 F800.000 
G1 X16.646 Y79.543 Z-12.972 F800.000 
G1 X17.096 Y80.299 Z-13.049 F800.000 
G1 X17.390 Y81.129 Z-13.127 F800.000 
G1 X17.517 Y82.000 Z-13.204 F800.000 
G1 X17.471 Y82.879 Z-13.281 F800.000 
G1 X17.254 Y83.732 Z-13.359 F800.000 
G1 X16.875 Y84.527 Z-13.436 F800.000 
G1 X16.349 Y85.232 Z-13.513 F800.000 
G1 X15.695 Y85.821 Z-13.590 F800.000 
G1 X14.938 Y86.271 Z-13.668 F800.000 
G1 X14.109 Y86.565 Z-13.745 F800.000 
G1 X13.238 Y86.692 Z-13.822 F800.000 
G1 X12.359 Y86.646 Z-13.900 F800.000 
G1 X11.505 Y86.429 Z-13.977 F800.000 
G1 X10.711 Y86.050 Z-14.054 F800.000 
G1 X10.006 Y85.524 Z-14.132 F800.000 
G1 X9.417 Y84.870 Z-14.209 F800.000 
G1 X8.966 Y84.113 Z-14.286 F800.000 
G1 X8.672 Y83.284 Z-14.363 F800.000 
G1 X8.546 Y82.413 Z-14.441 F800.000 
G1 X8.592 Y81.534 Z-14.518 F800.000 
G1 X8.808 Y80.680 Z-14.595 F800.000 
G1 X9.187 Y79.886 Z-14.673 F800.000 
G1 X9.714 Y79.181 Z-14.750 F800.000 
G1 X10.368 Y78.592 Z-14.827 F800.000 
G1 X11.124 Y78.141 Z-14.905 F800.000 
G1 X11.954 Y77.847 Z-14.982 F800.000 
G1 X12.825 Y77.721 Z-15.000 F800.000 
G1 X13.704 Y77.767 Z-15.000 F800.000 
G1 X14.557 Y77.983 Z-15.000 F800.000 
G1 X15.352 Y78.362 Z-15.000 F800.000 
G1 X16.057 Y78.889 Z-15.000 F800.000 
G1 X16.646 Y79.543 Z-15.000 F800.000 
G1 X17.096 Y80.299 Z-15.000 F800.000 
G1 X17.390 Y81.129 Z-15.000 F800.000 
G1 X17.517 Y82.000 Z-15.000 F800.000 
G1 X17.471 Y82.879 Z-15.000 F800.000 
G1 X17.254 Y83.732 Z-15.000 F800.000 
G1 X16.875 Y84.527 Z-15.000 F800.000 
G1 X16.349 Y85.232 Z-15.000 F800.000 
G1 X15.695 Y85.821 Z-15.000 F800.000 
G1 X14.938 Y86.271 Z-15.000 F800.000 
G1 X14.109 Y86.565 Z-15.000 F800.000 
G1 X13.238 Y86.692 Z-15.000 F800.000 
G1 X12.359 Y86.646 Z-15.000 F800.000 
G1 X11.505 Y86.429 Z-15.000 F800.000 
G1 X10.711 Y86.050 Z-15.000 F800.000 
G1 X10.006 Y85.524 Z-15.000 F800.000 
G1 X9.417 Y84.870 Z-15.000 F800.000 
G1 X8.966 Y84.113 Z-15.000 F800.000 
G1 X8.672 Y83.284 Z-15.000 F800.000 
G1 X8.546 Y82.413 Z-15.000 F800.000 
G1 X8.592 Y81.534 Z-15.000 F800.000 
G1 X8.808 Y80.680 Z-15.000 F800.000 
G1 X9.187 Y79.886 Z-15.000 F800.000 
G1 X9.714 Y79.181 Z-15.000 F800.000 
G1 X10.368 Y78.592 Z-15.000 F800.000 
G1 X11.124 Y78.141 Z-15.000 F800.000 
G1 X11.954 Y77.847 Z-15.000 F800.000 
(Adaptive - depth: -15.000000) 
G1 X13.031 Y77.706 F800.000 
G1 X13.175 Y77.562 F800.000 
G1 X13.525 Y77.388 F800.000 
G1 X13.994 Y77.269 F800.000 
G1 X14.463 Y77.231 F800.000 
G1 X15.250 Y77.362 F800.000 
G1 X15.769 Y77.550 F800.000 
G1 X16.069 Y77.700 F800.000 
G1 X16.756 Y78.138 F800.000 
G1 X17.325 Y78.650 F800.000 
G1 X17.750 Y79.169 F800.000 
G1 X17.950 Y79.494 F800.000 
G1 X18.306 Y80.206 F800.000 
G1 X18.550 Y80.963 F800.000 
G1 X18.637 Y81.425 F800.000 
G1 X18.675 Y81.819 F800.000 
G1 X18.688 Y82.244 F800.000 
G1 X18.656 Y82.831 F800.000 
G1 X18.550 Y83.456 F800.000 
G1 X18.406 Y83.975 F800.000 
G1 X18.244 Y84.431 F800.000 
G1 X18.006 Y84.919 F800.000 
G1 X17.731 Y85.369 F800.000 
G1 X17.425 Y85.787 F800.000 
G1 X17.069 Y86.181 F800.000 
G1 X16.681 Y86.537 F800.000 
G1 X16.262 Y86.856 F800.000 
G1 X15.812 Y87.131 F800.000 
G1 X15.338 Y87.362 F800.000 
G1 X14.844 Y87.550 F800.000 
G1 X14.238 Y87.719 F800.000 
G1 X13.137 Y87.825 F800.000 
G1 X12.137 Y87.763 F800.000 
G1 X11.438 Y87.600 F800.000 
G1 X10.681 Y87.325 F800.000 
G1 X9.969 Y86.956 F800.000 
G1 X9.550 Y86.669 F800.000 
G1 X9.225 Y86.394 F800.000 
G1 X8.912 Y86.094 F800.000 
G1 X8.531 Y85.656 F800.000 
G1 X8.175 Y85.144 F800.000 
G1 X7.919 Y84.675 F800.000 
G1 X7.725 Y84.244 F800.000 
G1 X7.394 Y83.138 F800.000 
G1 X7.269 Y82.037 F800.000 
G1 X7.325 Y81.138 F800.000 
G1 X7.644 Y79.956 F800.000 
G1 X8.019 Y79.250 F800.000 
G1 X8.488 Y78.600 F800.000 
G1 X8.794 Y78.250 F800.000 
G1 X9.100 Y77.950 F800.000 
G1 X9.506 Y77.612 F800.000 
G1 X9.994 Y77.263 F800.000 
G1 X10.562 Y76.900 F800.000 
G1 X11.262 Y76.537 F800.000 
G1 X11.881 Y76.263 F800.000 
G1 X12.569 Y76.075 F800.000 
G1 X13.000 Y75.981 F800.000 
G1 X13.575 Y75.912 F800.000 
G1 X14.125 Y75.906 F800.000 
G1 X15.012 Y75.987 F800.000 
G1 X16.219 Y76.331 F800.000 
G1 X16.825 Y76.612 F800.000 
G1 X18.144 Y77.688 F800.000 
G1 X19.069 Y78.769 F800.000 
G1 X19.312 Y79.188 F800.000 
G1 X19.625 Y79.994 F800.000 
G1 X19.850 Y80.931 F800.000 
G1 X19.981 Y82.006 F800.000 
G1 X19.969 Y82.800 F800.000 
G1 X19.881 Y83.487 F800.000 
G1 X19.781 Y83.944 F800.000 
G1 X19.644 Y84.406 F800.000 
G1 X19.425 Y84.969 F800.000 
G1 X19.137 Y85.537 F800.000 
G1 X18.844 Y86.025 F800.000 
G1 X18.488 Y86.519 F800.000 
G1 X18.094 Y86.975 F800.000 
G1 X17.669 Y87.394 F800.000 
G1 X17.206 Y87.781 F800.000 
G1 X16.219 Y88.294 F800.000 
G1 X15.181 Y88.675 F800.000 
G1 X14.081 Y88.900 F800.000 
G1 X12.481 Y88.969 F800.000 
G1 X11.681 Y88.900 F800.000 
G1 X10.981 Y88.756 F800.000 
G1 X9.725 Y88.263 F800.000 
G1 X8.838 Y87.713 F800.000 
G1 X8.062 Y87.069 F800.000 
G1 X7.456 Y86.394 F800.000 
G1 X6.631 Y85.069 F800.000 
G1 X6.412 Y84.600 F800.000 
G1 X6.144 Y83.500 F800.000 
G1 X6.150 Y80.500 F800.000 
G1 X6.275 Y79.600 F800.000 
G1 X6.381 Y79.200 F800.000 
G1 X7.062 Y77.950 F800.000 
G1 X7.662 Y77.150 F800.000 
G1 X8.244 Y76.600 F800.000 
G1 X8.869 Y76.100 F800.000 
G1 X9.469 Y75.694 F800.000 
G1 X9.988 Y75.381 F800.000 
G1 X10.675 Y75.069 F800.000 
G1 X11.200 Y74.869 F800.000 
G1 X11.800 Y74.688 F800.000 
G1 X12.419 Y74.550 F800.000 
G1 X13.113 Y74.456 F800.000 
G1 X14.325 Y74.406 F800.000 
G1 X14.981 Y74.463 F800.000 
G1 X15.250 Y74.556 F800.000 
G1 X15.425 Y74.644 F800.000 
G1 X16.369 Y75.719 F800.000 
G1 X16.369 Y75.719 F800.000 
G1 X16.506 Y75.919 F800.000 
G1 X16.625 Y76.175 F800.000 
G1 X16.719 Y76.444 F800.000 
G0 X16.781 Y76.569 
G0 X16.850 Y76.681 
G1 X16.931 Y76.794 F800.000 
G1 X17.175 Y77.075 F800.000 
G1 X17.369 Y77.213 F800.000 
G1 X17.812 Y77.394 F800.000 
G1 X18.231 Y77.656 F800.000 
G1 X18.231 Y77.656 F800.000 
G1 X20.281 Y79.625 F800.000 
G1 X20.581 Y80.000 F800.000 
G1 X20.769 Y80.331 F800.000 
G1 X21.087 Y81.544 F800.000 
G1 X21.156 Y82.200 F800.000 
G1 X21.181 Y82.994 F800.000 
G1 X21.113 Y83.787 F800.000 
G1 X21.000 Y84.356 F800.000 
G1 X20.869 Y84.819 F800.000 
G1 X20.700 Y85.312 F800.000 
G1 X20.425 Y85.963 F800.000 
G1 X20.094 Y86.588 F800.000 
G1 X19.738 Y87.112 F800.000 
G1 X19.413 Y87.531 F800.000 
G1 X18.994 Y87.981 F800.000 
G1 X17.869 Y88.806 F800.000 
G1 X17.694 Y88.906 F800.000 
G1 X17.119 Y89.119 F800.000 
G1 X9.919 Y89.094 F800.000 
G1 X9.019 Y88.938 F800.000 
G1 X8.162 Y88.544 F800.000 
G1 X7.306 Y87.950 F800.000 
G1 X6.406 Y87.088 F800.000 
G1 X6.281 Y86.919 F800.000 
G1 X6.150 Y86.638 F800.000 
G1 X6.125 Y86.537 F800.000 
G1 X6.125 Y86.537 F800.000 
G1 X6.169 Y86.169 F800.000 
G1 X6.250 Y85.938 F800.000 
G1 X6.381 Y85.737 F800.000 
G0 X6.463 Y85.656 
G0 X6.862 Y85.406 
G0 X18.731 Y79.600 
G1 X18.875 Y79.537 F800.000 
G1 X19.225 Y79.369 F800.000 
G1 X19.450 Y79.306 F800.000 
G1 X19.694 Y79.312 F800.000 
G1 X19.925 Y79.369 F800.000 
G1 X20.144 Y79.469 F800.000 
G1 X20.356 Y79.606 F800.000 
G1 X20.356 Y79.606 F800.000 
G1 X21.375 Y80.487 F800.000 
G1 X21.744 Y80.925 F800.000 
G1 X21.925 Y81.263 F800.000 
G1 X22.175 Y82.188 F800.000 
G1 X22.269 Y83.031 F800.000 
G1 X22.288 Y83.825 F800.000 
G1 X22.212 Y84.619 F800.000 
G1 X22.087 Y85.237 F800.000 
G1 X21.944 Y85.719 F800.000 
G1 X21.769 Y86.206 F800.000 
G1 X21.500 Y86.812 F800.000 
G1 X21.163 Y87.425 F800.000 
G1 X20.825 Y87.944 F800.000 
G1 X19.894 Y88.844 F800.000 
G1 X19.725 Y88.956 F800.000 
G1 X19.356 Y89.125 F800.000 
G1 X18.456 Y89.125 F800.000 
G1 X18.456 Y89.125 F800.000 
G1 X18.087 Y89.062 F800.000 
G1 X17.856 Y88.975 F800.000 
G1 X17.756 Y88.919 F800.000 
G1 X17.688 Y88.844 F800.000 
G0 X17.644 Y88.756 
G0 X17.637 Y88.662 
G0 X17.675 Y88.450 
G0 X20.456 Y81.056 
G1 X20.512 Y80.912 F800.000 
G1 X20.625 Y80.656 F800.000 
G1 X20.694 Y80.550 F800.000 
G1 X20.775 Y80.475 F800.000 
G1 X20.875 Y80.431 F800.000 
G1 X20.981 Y80.419 F800.000 
G1 X21.212 Y80.450 F800.000 
G1 X21.438 Y80.544 F800.000 
G1 X21.656 Y80.662 F800.000 
G1 X21.656 Y80.662 F800.000 
G1 X22.525 Y81.412 F800.000 
G1 X22.831 Y81.781 F800.000 
G1 X22.975 Y82.025 F800.000 
G1 X23.188 Y82.675 F800.000 
G1 X23.350 Y83.800 F800.000 
G1 X23.381 Y84.594 F800.000 
G1 X23.306 Y85.388 F800.000 
G1 X23.206 Y85.931 F800.000 
G1 X23.087 Y86.419 F800.000 
G1 X22.869 Y87.037 F800.000 
G1 X22.631 Y87.556 F800.000 
G1 X22.356 Y88.056 F800.000 
G1 X21.762 Y88.725 F800.000 
G1 X21.531 Y88.925 F800.000 
G1 X21.169 Y89.106 F800.000 
G1 X21.069 Y89.125 F800.000 
G1 X20.769 Y89.125 F800.000 
G1 X20.769 Y89.125 F800.000 
G1 X20.400 Y89.062 F800.000 
G1 X20.169 Y88.975 F800.000 
G1 X20.069 Y88.919 F800.000 
G1 X19.994 Y88.844 F800.000 
G0 X19.950 Y88.750 
G0 X19.931 Y88.650 
G0 X19.962 Y88.319 
G0 X21.500 Y81.844 
G1 X21.538 Y81.700 F800.000 
G1 X21.613 Y81.431 F800.000 
G1 X21.669 Y81.319 F800.000 
G1 X21.744 Y81.237 F800.000 
G1 X21.837 Y81.194 F800.000 
G1 X21.944 Y81.175 F800.000 
G1 X22.169 Y81.200 F800.000 
G1 X22.394 Y81.281 F800.000 
G1 X22.613 Y81.394 F800.000 
G1 X22.613 Y81.394 F800.000 
G1 X23.519 Y82.100 F800.000 
G1 X23.956 Y82.600 F800.000 
G1 X24.156 Y83.031 F800.000 
G1 X24.438 Y84.344 F800.000 
G1 X24.494 Y85.325 F800.000 
G1 X24.425 Y86.119 F800.000 
G1 X24.300 Y86.725 F800.000 
G1 X24.169 Y87.162 F800.000 
G1 X23.994 Y87.594 F800.000 
G1 X23.775 Y88.050 F800.000 
G1 X23.150 Y88.831 F800.000 
G1 X23.000 Y88.956 F800.000 
G1 X22.731 Y89.100 F800.000 
G1 X22.631 Y89.125 F800.000 
G1 X22.431 Y89.125 F800.000 
G1 X22.431 Y89.125 F800.000 
G1 X22.062 Y89.062 F800.000 
G1 X21.831 Y88.975 F800.000 
G1 X21.731 Y88.919 F800.000 
G1 X21.656 Y88.838 F800.000 
G0 X21.606 Y88.750 
G0 X21.587 Y88.650 
G0 X21.606 Y88.312 
G0 X22.681 Y82.719 
G1 X22.712 Y82.575 F800.000 
G1 X22.781 Y82.300 F800.000 
G1 X22.831 Y82.188 F800.000 
G1 X22.900 Y82.106 F800.000 
G1 X22.994 Y82.056 F800.000 
G1 X23.100 Y82.031 F800.000 
G1 X23.212 Y82.031 F800.000 
G1 X23.444 Y82.081 F800.000 
G1 X23.781 Y82.231 F800.000 
G1 X23.781 Y82.231 F800.000 
G1 X24.625 Y82.856 F800.000 
G1 X24.956 Y83.206 F800.000 
G1 X25.156 Y83.531 F800.000 
G1 X25.481 Y84.737 F800.000 
G1 X25.538 Y85.206 F800.000 
G1 X25.569 Y86.000 F800.000 
G1 X25.481 Y86.794 F800.000 
G1 X25.356 Y87.287 F800.000 
G1 X25.231 Y87.662 F800.000 
G1 X24.856 Y88.350 F800.000 
G1 X24.425 Y88.900 F800.000 
G1 X24.075 Y89.100 F800.000 
G1 X23.975 Y89.125 F800.000 
G1 X23.875 Y89.125 F800.000 
G1 X23.875 Y89.125 F800.000 
G1 X23.506 Y89.062 F800.000 
G1 X23.275 Y88.975 F800.000 
G1 X23.175 Y88.919 F800.000 
G1 X23.100 Y88.838 F800.000 
G0 X23.044 Y88.750 
G0 X23.019 Y88.650 
G0 X23.025 Y88.312 
G0 X23.712 Y83.425 
G1 X23.731 Y83.294 F800.000 
G1 X23.794 Y82.938 F800.000 
G1 X23.837 Y82.844 F800.000 
G1 X23.906 Y82.775 F800.000 
G1 X23.994 Y82.731 F800.000 
G1 X24.094 Y82.713 F800.000 
G1 X24.319 Y82.725 F800.000 
G1 X24.550 Y82.800 F800.000 
G1 X24.781 Y82.900 F800.000 
G1 X24.781 Y82.900 F800.000 
G1 X25.650 Y83.506 F800.000 
G1 X26.044 Y83.919 F800.000 
G1 X26.194 Y84.162 F800.000 
G1 X26.469 Y84.987 F800.000 
G1 X26.587 Y85.737 F800.000 
G1 X26.606 Y86.531 F800.000 
G1 X26.494 Y87.319 F800.000 
G1 X26.300 Y87.919 F800.000 
G1 X25.906 Y88.594 F800.000 
G1 X25.650 Y88.906 F800.000 
G1 X25.400 Y89.069 F800.000 
G1 X25.306 Y89.112 F800.000 
G1 X25.006 Y89.125 F800.000 
G1 X25.006 Y89.125 F800.000 
G1 X24.637 Y89.062 F800.000 
G1 X24.406 Y88.975 F800.000 
G1 X24.306 Y88.912 F800.000 
G1 X24.225 Y88.838 F800.000 
G0 X24.175 Y88.750 
G0 X24.150 Y88.650 
G0 X24.156 Y88.306 
G0 X24.725 Y84.088 
G1 X24.738 Y83.963 F800.000 
G1 X24.800 Y83.606 F800.000 
G1 X24.844 Y83.513 F800.000 
G1 X24.913 Y83.444 F800.000 
G1 X25.000 Y83.400 F800.000 
G1 X25.100 Y83.375 F800.000 
G1 X25.331 Y83.381 F800.000 
G1 X25.562 Y83.444 F800.000 
G1 X25.794 Y83.537 F800.000 
G1 X25.794 Y83.537 F800.000 
G1 X26.519 Y83.994 F800.000 
G1 X26.950 Y84.381 F800.000 
G1 X27.131 Y84.606 F800.000 
G1 X27.294 Y84.950 F800.000 
G1 X27.519 Y85.794 F800.000 
G1 X27.569 Y86.263 F800.000 
G1 X27.569 Y87.056 F800.000 
G1 X27.419 Y87.838 F800.000 
G1 X27.069 Y88.537 F800.000 
G1 X26.762 Y88.925 F800.000 
G1 X26.506 Y89.081 F800.000 
G1 X26.413 Y89.119 F800.000 
G1 X25.812 Y89.125 F800.000 
G1 X25.812 Y89.125 F800.000 
G1 X25.444 Y89.062 F800.000 
G1 X25.212 Y88.975 F800.000 
G1 X25.113 Y88.912 F800.000 
G1 X25.038 Y88.838 F800.000 
G0 X24.988 Y88.750 
G0 X24.969 Y88.650 
G0 X24.994 Y88.306 
G0 X25.706 Y84.719 
G1 X25.731 Y84.594 F800.000 
G1 X25.819 Y84.244 F800.000 
G1 X25.869 Y84.150 F800.000 
G1 X25.938 Y84.075 F800.000 
G1 X26.025 Y84.031 F800.000 
G1 X26.131 Y84.006 F800.000 
G1 X26.363 Y84.006 F800.000 
G1 X26.831 Y84.144 F800.000 
G1 X26.831 Y84.144 F800.000 
G1 X27.562 Y84.600 F800.000 
G1 X27.988 Y84.987 F800.000 
G1 X28.106 Y85.144 F800.000 
G1 X28.288 Y85.581 F800.000 
G1 X28.462 Y86.425 F800.000 
G1 X28.481 Y86.800 F800.000 
G1 X28.438 Y87.594 F800.000 
G1 X28.238 Y88.294 F800.000 
G1 X27.850 Y88.881 F800.000 
G1 X27.700 Y89.013 F800.000 
G1 X27.519 Y89.106 F800.000 
G1 X27.419 Y89.125 F800.000 
G1 X26.919 Y89.125 F800.000 
G1 X26.919 Y89.125 F800.000 
G1 X26.550 Y89.062 F800.000 
G1 X26.319 Y88.975 F800.000 
G1 X26.219 Y88.919 F800.000 
G1 X26.144 Y88.838 F800.000 
G0 X26.094 Y88.750 
G0 X26.075 Y88.650 
G0 X26.106 Y88.306 
G0 X26.756 Y85.319 
G1 X26.788 Y85.181 F800.000 
G1 X26.856 Y84.912 F800.000 
G1 X26.913 Y84.800 F800.000 
G1 X26.988 Y84.713 F800.000 
G1 X27.075 Y84.650 F800.000 
G1 X27.181 Y84.619 F800.000 
G1 X27.413 Y84.606 F800.000 
G1 X27.644 Y84.650 F800.000 
G1 X27.881 Y84.731 F800.000 
G1 X27.881 Y84.731 F800.000 
G1 X28.462 Y85.062 F800.000 
G1 X28.825 Y85.375 F800.000 
G1 X29.000 Y85.600 F800.000 
G1 X29.181 Y86.050 F800.000 
G1 X29.331 Y86.800 F800.000 
G1 X29.344 Y87.175 F800.000 
G1 X29.269 Y87.969 F800.000 
G1 X29.087 Y88.425 F800.000 
G1 X28.819 Y88.844 F800.000 
G1 X28.675 Y88.981 F800.000 
G1 X28.506 Y89.088 F800.000 
G1 X28.413 Y89.125 F800.000 
G1 X28.113 Y89.125 F800.000 
G1 X28.113 Y89.125 F800.000 
G1 X27.744 Y89.062 F800.000 
G1 X27.512 Y88.975 F800.000 
G1 X27.413 Y88.912 F800.000 
G1 X27.337 Y88.838 F800.000 
G0 X27.288 Y88.750 
G0 X27.262 Y88.650 
G0 X27.269 Y88.300 
G0 X27.663 Y85.756 
G1 X27.681 Y85.619 F800.000 
G1 X27.738 Y85.350 F800.000 
G1 X27.781 Y85.231 F800.000 
G1 X27.850 Y85.144 F800.000 
G1 X27.938 Y85.081 F800.000 
G1 X28.038 Y85.050 F800.000 
G1 X28.269 Y85.037 F800.000 
G1 X28.500 Y85.081 F800.000 
G1 X28.738 Y85.162 F800.000 
G1 X28.738 Y85.162 F800.000 
G1 X29.325 Y85.500 F800.000 
G1 X29.550 Y85.675 F800.000 
G1 X29.806 Y85.963 F800.000 
G1 X29.969 Y86.306 F800.000 
G1 X30.087 Y86.775 F800.000 
G1 X30.137 Y87.431 F800.000 
G1 X30.006 Y88.312 F800.000 
G1 X29.837 Y88.662 F800.000 
G1 X29.669 Y88.906 F800.000 
G1 X29.512 Y89.031 F800.000 
G1 X29.331 Y89.125 F800.000 
G1 X28.731 Y89.125 F800.000 
G1 X28.731 Y89.125 F800.000 
G1 X28.363 Y89.062 F800.000 
G1 X28.131 Y88.975 F800.000 
G1 X28.031 Y88.912 F800.000 
G1 X27.956 Y88.838 F800.000 
G0 X27.913 Y88.750 
G0 X27.894 Y88.650 
G0 X27.938 Y88.300 
G0 X28.438 Y86.231 
G1 X28.469 Y86.100 F800.000 
G1 X28.544 Y85.831 F800.000 
G1 X28.600 Y85.713 F800.000 
G1 X28.675 Y85.625 F800.000 
G1 X28.769 Y85.562 F800.000 
G1 X28.875 Y85.519 F800.000 
G1 X29.106 Y85.494 F800.000 
G1 X29.350 Y85.525 F800.000 
G1 X29.594 Y85.588 F800.000 
G1 X29.594 Y85.588 F800.000 
G1 X30.106 Y85.856 F800.000 
G1 X30.406 Y86.088 F800.000 
G1 X30.594 Y86.300 F800.000 
G1 X30.725 Y86.556 F800.000 
G1 X30.863 Y87.112 F800.000 
G1 X30.887 Y87.581 F800.000 
G1 X30.819 Y88.144 F800.000 
G1 X30.688 Y88.513 F800.000 
G1 X30.488 Y88.856 F800.000 
G1 X30.350 Y89.000 F800.000 
G1 X30.175 Y89.100 F800.000 
G1 X30.075 Y89.125 F800.000 
G1 X29.875 Y89.125 F800.000 
G1 X29.875 Y89.125 F800.000 
G1 X29.506 Y89.062 F800.000 
G1 X29.275 Y88.975 F800.000 
G1 X29.175 Y88.919 F800.000 
G1 X29.100 Y88.838 F800.000 
G0 X29.050 Y88.750 
G0 X29.025 Y88.650 
G0 X29.050 Y88.312 
G0 X29.350 Y86.638 
G1 X29.375 Y86.506 F800.000 
G1 X29.438 Y86.237 F800.000 
G1 X29.488 Y86.125 F800.000 
G1 X29.556 Y86.031 F800.000 
G1 X29.644 Y85.969 F800.000 
G1 X29.750 Y85.925 F800.000 
G1 X29.981 Y85.900 F800.000 
G1 X30.225 Y85.931 F800.000 
G1 X30.469 Y85.994 F800.000 
G1 X30.469 Y85.994 F800.000 
G1 X30.969 Y86.281 F800.000 
G1 X31.188 Y86.463 F800.000 
G1 X31.356 Y86.688 F800.000 
G1 X31.481 Y87.056 F800.000 
G1 X31.556 Y87.619 F800.000 
G1 X31.525 Y88.088 F800.000 
G1 X31.425 Y88.463 F800.000 
G1 X31.256 Y88.819 F800.000 
G1 X31.200 Y88.900 F800.000 
G1 X31.044 Y89.031 F800.000 
G1 X30.863 Y89.125 F800.000 
G1 X30.663 Y89.125 F800.000 
G1 X30.663 Y89.125 F800.000 
G1 X30.294 Y89.062 F800.000 
G1 X30.062 Y88.975 F800.000 
G1 X29.962 Y88.912 F800.000 
G1 X29.887 Y88.838 F800.000 
G0 X29.837 Y88.750 
G0 X29.812 Y88.644 
G0 X30.031 Y86.938 
G1 X30.050 Y86.806 F800.000 
G1 X30.106 Y86.531 F800.000 
G1 X30.150 Y86.419 F800.000 
G1 X30.219 Y86.325 F800.000 
G1 X30.306 Y86.256 F800.000 
G1 X30.406 Y86.213 F800.000 
G1 X30.637 Y86.188 F800.000 
G1 X30.881 Y86.213 F800.000 
G1 X31.125 Y86.275 F800.000 
G1 X31.125 Y86.275 F800.000 
G1 X31.475 Y86.431 F800.000 
G1 X31.788 Y86.650 F800.000 
G1 X31.988 Y86.856 F800.000 
G1 X32.044 Y86.938 F800.000 
G1 X32.138 Y87.213 F800.000 
G1 X32.219 Y87.775 F800.000 
G1 X32.194 Y88.150 F800.000 
G1 X32.119 Y88.431 F800.000 
G1 X31.900 Y88.869 F800.000 
G1 X31.756 Y89.006 F800.000 
G1 X31.581 Y89.106 F800.000 
G1 X31.481 Y89.125 F800.000 
G1 X31.281 Y89.125 F800.000 
G1 X31.281 Y89.125 F800.000 
G1 X30.913 Y89.062 F800.000 
G1 X30.681 Y88.975 F800.000 
G1 X30.581 Y88.912 F800.000 
G1 X30.506 Y88.838 F800.000 
G0 X30.456 Y88.750 
G0 X30.438 Y88.650 
G0 X30.462 Y88.306 
G0 X30.675 Y87.213 
G1 X30.700 Y87.075 F800.000 
G1 X30.762 Y86.806 F800.000 
G1 X30.812 Y86.694 F800.000 
G1 X30.887 Y86.600 F800.000 
G1 X30.975 Y86.531 F800.000 
G1 X31.075 Y86.487 F800.000 
G1 X31.306 Y86.463 F800.000 
G1 X31.550 Y86.487 F800.000 
G1 X31.794 Y86.550 F800.000 
G1 X31.794 Y86.550 F800.000 
G1 X32.144 Y86.706 F800.000 
G1 X32.456 Y86.931 F800.000 
G1 X32.644 Y87.150 F800.000 
G1 X32.688 Y87.237 F800.000 
G1 X32.788 Y87.706 F800.000 
G1 X32.788 Y88.175 F800.000 
G1 X32.731 Y88.456 F800.000 
G1 X32.619 Y88.731 F800.000 
G1 X32.519 Y88.900 F800.000 
G1 X32.369 Y89.025 F800.000 
G1 X32.188 Y89.119 F800.000 
G1 X31.788 Y89.125 F800.000 
G1 X31.788 Y89.125 F800.000 
G1 X31.419 Y89.062 F800.000 
G1 X31.188 Y88.975 F800.000 
G1 X31.087 Y88.919 F800.000 
G1 X31.019 Y88.844 F800.000 
G0 X30.975 Y88.750 
G0 X30.962 Y88.656 
G0 X30.988 Y88.431 
G0 X31.269 Y87.494 
G1 X31.312 Y87.362 F800.000 
G1 X31.400 Y87.106 F800.000 
G1 X31.462 Y86.987 F800.000 
G1 X31.544 Y86.900 F800.000 
G1 X31.637 Y86.831 F800.000 
G1 X31.744 Y86.787 F800.000 
G1 X31.975 Y86.750 F800.000 
G1 X32.219 Y86.769 F800.000 
G1 X32.462 Y86.819 F800.000 
G1 X32.462 Y86.819 F800.000 
G1 X32.888 Y87.044 F800.000 
G1 X33.106 Y87.231 F800.000 
G1 X33.219 Y87.388 F800.000 
G1 X33.319 Y87.756 F800.000 
G1 X33.344 Y88.131 F800.000 
G1 X33.306 Y88.412 F800.000 
G1 X33.212 Y88.688 F800.000 
G1 X33.119 Y88.862 F800.000 
G1 X32.981 Y89.006 F800.000 
G1 X32.806 Y89.112 F800.000 
G1 X32.506 Y89.125 F800.000 
G1 X32.506 Y89.125 F800.000 
G1 X32.138 Y89.062 F800.000 
G1 X31.906 Y88.975 F800.000 
G1 X31.806 Y88.912 F800.000 
G1 X31.731 Y88.838 F800.000 
G0 X31.688 Y88.744 
G0 X31.663 Y88.644 
G0 X31.794 Y87.694 
G1 X31.819 Y87.562 F800.000 
G1 X31.887 Y87.294 F800.000 
G1 X31.931 Y87.175 F800.000 
G1 X32.006 Y87.081 F800.000 
G1 X32.094 Y87.013 F800.000 
G1 X32.194 Y86.963 F800.000 
G1 X32.425 Y86.925 F800.000 
G1 X32.669 Y86.938 F800.000 
G1 X32.913 Y86.987 F800.000 
G1 X32.913 Y86.987 F800.000 
G1 X33.263 Y87.125 F800.000 
G1 X33.506 Y87.275 F800.000 
G1 X33.712 Y87.475 F800.000 
G1 X33.812 Y87.638 F800.000 
G1 X33.869 Y87.919 F800.000 
G1 X33.869 Y88.294 F800.000 
G1 X33.812 Y88.575 F800.000 
G1 X33.694 Y88.844 F800.000 
G1 X33.638 Y88.925 F800.000 
G1 X33.481 Y89.050 F800.000 
G1 X33.394 Y89.100 F800.000 
G1 X33.294 Y89.125 F800.000 
G1 X33.094 Y89.125 F800.000 
G1 X33.094 Y89.125 F800.000 
G1 X32.844 Y89.094 F800.000 
G1 X32.619 Y89.019 F800.000 
G1 X32.538 Y88.963 F800.000 
G0 X32.487 Y88.881 
G0 X32.469 Y88.787 
G0 X32.487 Y88.575 
G0 X32.663 Y87.862 
G1 X32.700 Y87.731 F800.000 
G1 X32.781 Y87.469 F800.000 
G1 X32.837 Y87.362 F800.000 
G1 X32.919 Y87.275 F800.000 
G1 X33.013 Y87.219 F800.000 
G1 X33.119 Y87.194 F800.000 
G1 X33.344 Y87.194 F800.000 
G1 X33.587 Y87.237 F800.000 
G1 X33.587 Y87.237 F800.000 
G1 X33.850 Y87.356 F800.000 
G1 X34.087 Y87.519 F800.000 
G1 X34.219 Y87.656 F800.000 
G1 X34.269 Y87.737 F800.000 
G1 X34.325 Y87.919 F800.000 
G1 X34.356 Y88.294 F800.000 
G1 X34.300 Y88.575 F800.000 
G1 X34.188 Y88.850 F800.000 
G1 X34.131 Y88.931 F800.000 
G1 X33.888 Y89.100 F800.000 
G1 X33.788 Y89.125 F800.000 
G1 X33.688 Y89.125 F800.000 
G1 X33.688 Y89.125 F800.000 
G1 X33.438 Y89.088 F800.000 
G1 X33.212 Y89.013 F800.000 
G1 X33.131 Y88.950 F800.000 
G0 X33.081 Y88.869 
G0 X33.056 Y88.775 
G0 X33.062 Y88.550 
G0 X33.156 Y88.050 
G1 X33.181 Y87.919 F800.000 
G1 X33.250 Y87.650 F800.000 
G1 X33.300 Y87.537 F800.000 
G1 X33.375 Y87.450 F800.000 
G1 X33.462 Y87.394 F800.000 
G1 X33.569 Y87.362 F800.000 
G1 X33.800 Y87.356 F800.000 
G1 X34.038 Y87.400 F800.000 
G1 X34.038 Y87.400 F800.000 
G1 X34.400 Y87.544 F800.000 
G1 X34.625 Y87.713 F800.000 
G1 X34.744 Y87.862 F800.000 
G1 X34.788 Y87.950 F800.000 
G1 X34.819 Y88.325 F800.000 
G1 X34.763 Y88.606 F800.000 
G1 X34.650 Y88.875 F800.000 
G1 X34.587 Y88.950 F800.000 
G1 X34.425 Y89.069 F800.000 
G1 X34.331 Y89.112 F800.000 
G1 X34.231 Y89.125 F800.000 
G1 X34.231 Y89.125 F800.000 
G1 X33.981 Y89.088 F800.000 
G1 X33.862 Y89.056 F800.000 
G1 X33.756 Y89.013 F800.000 
G1 X33.681 Y88.950 F800.000 
G0 X33.638 Y88.869 
G0 X33.625 Y88.769 
G0 X33.663 Y88.544 
G0 X33.737 Y88.294 
G1 X33.788 Y88.162 F800.000 
G1 X33.888 Y87.906 F800.000 
G1 X33.956 Y87.794 F800.000 
G1 X34.038 Y87.706 F800.000 
G1 X34.138 Y87.644 F800.000 
G1 X34.244 Y87.606 F800.000 
G1 X34.481 Y87.588 F800.000 
G1 X34.725 Y87.612 F800.000 
G1 X34.725 Y87.612 F800.000 
G1 X35.044 Y87.838 F800.000 
G1 X35.163 Y87.981 F800.000 
G1 X35.206 Y88.069 F800.000 
G1 X35.231 Y88.350 F800.000 
G1 X35.212 Y88.537 F800.000 
G1 X35.119 Y88.819 F800.000 
G1 X35.075 Y88.906 F800.000 
G1 X34.837 Y89.088 F800.000 
G1 X34.744 Y89.125 F800.000 
G1 X34.644 Y89.125 F800.000 
G1 X34.644 Y89.125 F800.000 
G1 X34.394 Y89.088 F800.000 
G1 X34.275 Y89.056 F800.000 
G1 X34.169 Y89.013 F800.000 
G1 X34.087 Y88.950 F800.000 
G0 X34.038 Y88.862 
G0 X34.019 Y88.763 
G0 X34.031 Y88.525 
G0 X34.056 Y88.400 
G1 X34.087 Y88.263 F800.000 
G1 X34.156 Y87.994 F800.000 
G1 X34.212 Y87.875 F800.000 
G1 X34.281 Y87.787 F800.000 
G1 X34.375 Y87.719 F800.000 
G1 X34.481 Y87.681 F800.000 
G1 X34.712 Y87.662 F800.000 
G1 X34.956 Y87.688 F800.000 
G1 X34.956 Y87.688 F800.000 
G1 X35.231 Y87.787 F800.000 
G1 X35.456 Y87.956 F800.000 
G1 X35.575 Y88.100 F800.000 
G1 X35.619 Y88.188 F800.000 
G1 X35.638 Y88.281 F800.000 
G1 X35.625 Y88.562 F800.000 
G1 X35.531 Y88.838 F800.000 
G1 X35.481 Y88.925 F800.000 
G1 X35.325 Y89.056 F800.000 
G1 X35.237 Y89.106 F800.000 
G1 X35.138 Y89.125 F800.000 
G1 X35.038 Y89.125 F800.000 
G1 X35.038 Y89.125 F800.000 
G1 X34.800 Y89.088 F800.000 
G1 X34.719 Y89.044 F800.000 
G0 X34.663 Y88.975 
G0 X34.644 Y88.894 
G0 X34.663 Y88.694 
G0 X34.719 Y88.456 
G1 X34.756 Y88.331 F800.000 
G1 X34.844 Y88.075 F800.000 
G1 X34.900 Y87.963 F800.000 
G1 X34.981 Y87.888 F800.000 
G1 X35.075 Y87.844 F800.000 
G1 X35.181 Y87.825 F800.000 
G1 X35.413 Y87.831 F800.000 
G1 X35.413 Y87.831 F800.000 
G1 X35.675 Y87.944 F800.000 
G1 X35.831 Y88.056 F800.000 
G1 X35.956 Y88.200 F800.000 
G1 X36.000 Y88.287 F800.000 
G1 X36.019 Y88.381 F800.000 
G1 X35.987 Y88.662 F800.000 
G1 X35.919 Y88.850 F800.000 
G1 X35.869 Y88.931 F800.000 
G1 X35.712 Y89.056 F800.000 
G1 X35.625 Y89.106 F800.000 
G1 X35.525 Y89.125 F800.000 
G1 X35.525 Y89.125 F800.000 
G1 X35.294 Y89.081 F800.000 
G1 X35.206 Y89.037 F800.000 
G0 X35.156 Y88.963 
G0 X35.144 Y88.862 
G0 X35.175 Y88.619 
G1 X35.206 Y88.481 F800.000 
G1 X35.294 Y88.219 F800.000 
G1 X35.356 Y88.106 F800.000 
G1 X35.431 Y88.031 F800.000 
G1 X35.531 Y87.987 F800.000 
G1 X35.638 Y87.969 F800.000 
G1 X35.869 Y87.975 F800.000 
G1 X35.869 Y87.975 F800.000 
G1 X36.044 Y88.050 F800.000 
G1 X36.200 Y88.156 F800.000 
G1 X36.325 Y88.300 F800.000 
G1 X36.369 Y88.388 F800.000 
G1 X36.381 Y88.481 F800.000 
G1 X36.325 Y88.763 F800.000 
G1 X36.237 Y88.938 F800.000 
G1 X36.081 Y89.062 F800.000 
G1 X35.994 Y89.112 F800.000 
G1 X35.894 Y89.125 F800.000 
G1 X35.894 Y89.125 F800.000 
G1 X35.663 Y89.081 F800.000 
G1 X35.575 Y89.037 F800.000 
G0 X35.531 Y88.975 
G0 X35.519 Y88.894 
G0 X35.562 Y88.694 
G1 X35.606 Y88.575 F800.000 
G1 X35.725 Y88.331 F800.000 
G1 X35.794 Y88.231 F800.000 
G1 X35.881 Y88.156 F800.000 
G1 X35.987 Y88.112 F800.000 
G1 X36.212 Y88.100 F800.000 
G1 X36.331 Y88.106 F800.000 
G1 X36.331 Y88.106 F800.000 
G1 X36.562 Y88.275 F800.000 
G1 X36.675 Y88.431 F800.000 
G1 X36.700 Y88.525 F800.000 
G1 X36.675 Y88.713 F800.000 
G1 X36.606 Y88.900 F800.000 
G1 X36.538 Y88.975 F800.000 
G1 X36.369 Y89.094 F800.000 
G1 X36.275 Y89.125 F800.000 
G1 X36.275 Y89.125 F800.000 
G1 X36.044 Y89.081 F800.000 
G1 X35.962 Y89.025 F800.000 
G0 X35.913 Y88.938 
G0 X35.906 Y88.825 
G1 X35.919 Y88.700 F800.000 
G1 X35.987 Y88.438 F800.000 
G1 X36.050 Y88.325 F800.000 
G1 X36.125 Y88.244 F800.000 
G1 X36.225 Y88.194 F800.000 
G1 X36.444 Y88.169 F800.000 
G1 X36.562 Y88.169 F800.000 
G1 X36.562 Y88.169 F800.000 
G1 X36.737 Y88.250 F800.000 
G1 X36.888 Y88.369 F800.000 
G1 X36.975 Y88.537 F800.000 
G1 X36.994 Y88.631 F800.000 
G1 X36.987 Y88.725 F800.000 
G1 X36.913 Y88.906 F800.000 
G1 X36.850 Y88.981 F800.000 
G1 X36.694 Y89.100 F800.000 
G1 X36.594 Y89.125 F800.000 
G1 X36.594 Y89.125 F800.000 
G1 X36.362 Y89.081 F800.000 
G1 X36.288 Y89.025 F800.000 
G0 X36.250 Y88.950 
G0 X36.256 Y88.844 
G1 X36.288 Y88.731 F800.000 
G1 X36.400 Y88.487 F800.000 
G1 X36.475 Y88.388 F800.000 
G1 X36.569 Y88.325 F800.000 
G1 X36.669 Y88.294 F800.000 
G1 X36.894 Y88.306 F800.000 
G1 X37.013 Y88.325 F800.000 
G1 X37.013 Y88.325 F800.000 
G1 X37.125 Y88.475 F800.000 
G1 X37.169 Y88.562 F800.000 
G1 X37.188 Y88.750 F800.000 
G1 X37.156 Y88.844 F800.000 
G1 X37.044 Y89.006 F800.000 
G1 X36.869 Y89.106 F800.000 
G1 X36.769 Y89.125 F800.000 
G1 X36.769 Y89.125 F800.000 
G1 X36.519 Y89.119 F800.000 
G1 X36.275 Y89.069 F800.000 
G1 X36.044 Y88.981 F800.000 
G1 X35.825 Y88.856 F800.000 
G0 Z2.000 
G0 X35.825 Y88.856 
G0 X10.431 Y88.800 
G1 Z-15.000 F800.000 
G1 X10.431 Y88.800 F800.000 
G1 X10.238 Y88.950 F800.000 
G1 X10.019 Y89.062 F800.000 
G1 X9.781 Y89.125 F800.000 
G1 X9.537 Y89.125 F800.000 
G1 X9.537 Y89.125 F800.000 
G1 X8.137 Y89.106 F800.000 
G1 X7.638 Y89.037 F800.000 
G1 X7.037 Y88.862 F800.000 
G1 X6.506 Y88.537 F800.000 
G1 X6.344 Y88.412 F800.000 
G1 X6.219 Y88.244 F800.000 
G1 X6.125 Y88.056 F800.000 
G1 X6.125 Y88.056 F800.000 
G1 X6.150 Y87.806 F800.000 
G1 X6.219 Y87.588 F800.000 
G1 X6.269 Y87.513 F800.000 
G0 X6.338 Y87.487 
G0 X6.419 Y87.494 
G0 X6.594 Y87.588 
G0 X7.731 Y88.475 
G1 X7.825 Y88.550 F800.000 
G1 X8.094 Y88.775 F800.000 
G1 X8.144 Y88.850 F800.000 
G1 X8.150 Y88.919 F800.000 
G1 X8.113 Y88.975 F800.000 
G1 X8.037 Y89.025 F800.000 
G1 X7.838 Y89.088 F800.000 
G1 X7.612 Y89.125 F800.000 
G1 X7.612 Y89.125 F800.000 
G1 X6.812 Y89.112 F800.000 
G1 X6.513 Y89.062 F800.000 
G1 X6.325 Y88.981 F800.000 
G1 X6.169 Y88.844 F800.000 
G1 X6.131 Y88.744 F800.000 
G1 X6.131 Y88.744 F800.000 
G1 X6.162 Y88.694 F800.000 
G1 X6.213 Y88.688 F800.000 
G1 X6.275 Y88.719 F800.000 
G1 X6.419 Y88.856 F800.000 
G1 X6.481 Y88.931 F800.000 
G1 X6.519 Y88.994 F800.000 
G1 X6.506 Y89.044 F800.000 
G1 X6.419 Y89.100 F800.000 
G1 X6.419 Y89.100 F800.000 
G1 X6.325 Y89.056 F800.000 
G1 X6.244 Y88.987 F800.000 
G1 X6.181 Y88.906 F800.000 
G1 X6.181 Y88.906 F800.000 
G1 X6.144 Y88.531 F800.000 
G1 X6.156 Y88.287 F800.000 
G1 X6.219 Y88.056 F800.000 
G0 X6.263 Y87.944 
G0 X7.287 Y86.550 
G0 X7.394 Y86.331 
G0 X7.456 Y85.981 
G0 X7.537 Y84.375 
G0 X7.406 Y82.681 
G0 X7.356 Y82.450 
G0 X6.812 Y81.369 
G1 X6.750 Y81.250 F800.000 
G1 X6.281 Y80.450 F800.000 
G1 X6.194 Y80.225 F800.000 
G1 X6.119 Y79.875 F800.000 
G1 X6.119 Y79.875 F800.000 
G1 X6.144 Y77.975 F800.000 
G1 X6.269 Y77.275 F800.000 
G1 X6.444 Y76.800 F800.000 
G1 X7.125 Y75.794 F800.000 
G1 X7.656 Y75.200 F800.000 
G1 X8.275 Y74.694 F800.000 
G1 X8.938 Y74.244 F800.000 
G1 X9.575 Y73.888 F800.000 
G1 X10.113 Y73.638 F800.000 
G1 X10.662 Y73.419 F800.000 
G1 X11.381 Y73.188 F800.000 
G1 X12.125 Y73.013 F800.000 
G1 X13.375 Y72.875 F800.000 
G1 X13.750 Y72.881 F800.000 
G1 X13.938 Y72.931 F800.000 
G1 X14.113 Y73.013 F800.000 
G1 X14.181 Y73.081 F800.000 
G1 X14.181 Y73.081 F800.000 
G1 X14.325 Y73.431 F800.000 
G1 X14.369 Y73.581 F800.000 
G1 X14.387 Y73.719 F800.000 
G1 X14.375 Y73.831 F800.000 
G0 X14.338 Y73.931 
G0 X14.269 Y74.013 
G0 X13.994 Y74.213 
G0 X7.138 Y77.981 
G1 X7.019 Y78.044 F800.000 
G1 X6.694 Y78.213 F800.000 
G1 X6.594 Y78.237 F800.000 
G1 X6.500 Y78.231 F800.000 
G1 X6.419 Y78.188 F800.000 
G1 X6.350 Y78.119 F800.000 
G1 X6.231 Y77.931 F800.000 
G1 X6.162 Y77.706 F800.000 
G1 X6.119 Y77.475 F800.000 
G1 X6.119 Y77.475 F800.000 
G1 X6.144 Y76.075 F800.000 
G1 X6.287 Y75.275 F800.000 
G1 X6.400 Y74.987 F800.000 
G1 X7.050 Y74.094 F800.000 
G1 X7.688 Y73.444 F800.000 
G1 X8.312 Y72.950 F800.000 
G1 X8.994 Y72.525 F800.000 
G1 X9.675 Y72.175 F800.000 
G1 X10.231 Y71.950 F800.000 
G1 X10.744 Y71.769 F800.000 
G1 X11.738 Y71.513 F800.000 
G1 X12.675 Y71.444 F800.000 
G1 X12.863 Y71.487 F800.000 
G1 X13.113 Y71.619 F800.000 
G1 X13.113 Y71.619 F800.000 
G1 X13.238 Y71.906 F800.000 
G1 X13.281 Y72.062 F800.000 
G1 X13.306 Y72.213 F800.000 
G1 X13.294 Y72.350 F800.000 
G0 X13.256 Y72.456 
G0 X13.194 Y72.550 
G0 X13.019 Y72.694 
G0 X7.119 Y76.056 
G1 X6.987 Y76.131 F800.000 
G1 X6.737 Y76.263 F800.000 
G1 X6.625 Y76.300 F800.000 
G1 X6.519 Y76.300 F800.000 
G1 X6.431 Y76.263 F800.000 
G1 X6.356 Y76.194 F800.000 
G1 X6.237 Y76.013 F800.000 
G1 X6.162 Y75.787 F800.000 
G1 X6.119 Y75.556 F800.000 
G1 X6.119 Y75.556 F800.000 
G1 X6.144 Y74.356 F800.000 
G1 X6.287 Y73.556 F800.000 
G1 X6.400 Y73.269 F800.000 
G1 X7.169 Y72.219 F800.000 
G1 X7.669 Y71.737 F800.000 
G1 X8.319 Y71.275 F800.000 
G1 X9.012 Y70.875 F800.000 
G1 X9.681 Y70.569 F800.000 
G1 X10.206 Y70.381 F800.000 
G1 X11.019 Y70.175 F800.000 
G1 X11.581 Y70.112 F800.000 
G1 X11.863 Y70.112 F800.000 
G1 X12.131 Y70.219 F800.000 
G1 X12.213 Y70.269 F800.000 
G1 X12.213 Y70.269 F800.000 
G1 X12.319 Y70.481 F800.000 
G1 X12.387 Y70.713 F800.000 
G1 X12.406 Y70.944 F800.000 
G1 X12.387 Y71.050 F800.000 
G0 X12.344 Y71.144 
G0 X12.275 Y71.231 
G0 X12.000 Y71.438 
G0 X7.119 Y74.362 
G1 X7.000 Y74.431 F800.000 
G1 X6.688 Y74.606 F800.000 
G1 X6.588 Y74.631 F800.000 
G1 X6.500 Y74.625 F800.000 
G1 X6.419 Y74.588 F800.000 
G1 X6.350 Y74.519 F800.000 
G1 X6.231 Y74.331 F800.000 
G1 X6.162 Y74.106 F800.000 
G1 X6.119 Y73.875 F800.000 
G1 X6.119 Y73.875 F800.000 
G1 X6.144 Y72.575 F800.000 
G1 X6.275 Y71.875 F800.000 
G1 X6.388 Y71.588 F800.000 
G1 X6.975 Y70.781 F800.000 
G1 X7.619 Y70.150 F800.000 
G1 X8.287 Y69.706 F800.000 
G1 X8.994 Y69.338 F800.000 
G1 X9.519 Y69.131 F800.000 
G1 X10.537 Y68.906 F800.000 
G1 X11.100 Y68.894 F800.000 
G1 X11.369 Y69.000 F800.000 
G1 X11.450 Y69.050 F800.000 
G1 X11.450 Y69.050 F800.000 
G1 X11.550 Y69.263 F800.000 
G1 X11.613 Y69.494 F800.000 
G1 X11.625 Y69.725 F800.000 
G1 X11.600 Y69.831 F800.000 
G0 X11.556 Y69.925 
G0 X11.400 Y70.081 
G0 X10.775 Y70.481 
G0 X7.112 Y72.681 
G1 X7.000 Y72.750 F800.000 
G1 X6.688 Y72.925 F800.000 
G1 X6.588 Y72.950 F800.000 
G1 X6.500 Y72.944 F800.000 
G1 X6.419 Y72.906 F800.000 
G1 X6.350 Y72.838 F800.000 
G1 X6.231 Y72.650 F800.000 
G1 X6.162 Y72.425 F800.000 
G1 X6.119 Y72.194 F800.000 
G1 X6.119 Y72.194 F800.000 
G1 X6.144 Y70.994 F800.000 
G1 X6.250 Y70.394 F800.000 
G1 X6.394 Y70.006 F800.000 
G1 X6.869 Y69.362 F800.000 
G1 X7.588 Y68.675 F800.000 
G1 X7.669 Y68.612 F800.000 
G1 X8.363 Y68.219 F800.000 
G1 X9.094 Y67.925 F800.000 
G1 X9.906 Y67.750 F800.000 
G1 X10.469 Y67.750 F800.000 
G1 X10.562 Y67.775 F800.000 
G1 X10.812 Y67.925 F800.000 
G1 X10.812 Y67.925 F800.000 
G1 X10.900 Y68.144 F800.000 
G1 X10.950 Y68.375 F800.000 
G1 X10.950 Y68.606 F800.000 
G1 X10.925 Y68.713 F800.000 
G0 X10.875 Y68.806 
G0 X10.713 Y68.963 
G0 X7.106 Y71.025 
G1 X6.987 Y71.094 F800.000 
G1 X6.737 Y71.219 F800.000 
G1 X6.625 Y71.256 F800.000 
G1 X6.519 Y71.256 F800.000 
G1 X6.431 Y71.219 F800.000 
G1 X6.356 Y71.150 F800.000 
G1 X6.237 Y70.969 F800.000 
G1 X6.162 Y70.744 F800.000 
G1 X6.119 Y70.513 F800.000 
G1 X6.119 Y70.513 F800.000 
G1 X6.144 Y69.513 F800.000 
G1 X6.256 Y68.912 F800.000 
G1 X6.356 Y68.625 F800.000 
G1 X6.763 Y68.056 F800.000 
G1 X7.412 Y67.444 F800.000 
G1 X7.656 Y67.263 F800.000 
G1 X8.375 Y66.912 F800.000 
G1 X9.125 Y66.700 F800.000 
G1 X9.688 Y66.656 F800.000 
G1 X9.969 Y66.688 F800.000 
G1 X10.219 Y66.831 F800.000 
G1 X10.275 Y66.906 F800.000 
G1 X10.275 Y66.906 F800.000 
G1 X10.381 Y67.244 F800.000 
G1 X10.406 Y67.481 F800.000 
G1 X10.400 Y67.594 F800.000 
G1 X10.369 Y67.700 F800.000 
G0 X10.312 Y67.794 
G0 X10.144 Y67.944 
G0 X7.112 Y69.600 
G1 X6.987 Y69.669 F800.000 
G1 X6.744 Y69.787 F800.000 
G1 X6.625 Y69.825 F800.000 
G1 X6.519 Y69.819 F800.000 
G1 X6.431 Y69.781 F800.000 
G1 X6.356 Y69.713 F800.000 
G1 X6.237 Y69.531 F800.000 
G1 X6.162 Y69.306 F800.000 
G1 X6.119 Y69.075 F800.000 
G1 X6.119 Y69.075 F800.000 
G1 X6.144 Y68.075 F800.000 
G1 X6.237 Y67.575 F800.000 
G1 X6.381 Y67.194 F800.000 
G1 X6.756 Y66.725 F800.000 
G1 X7.275 Y66.269 F800.000 
G1 X7.694 Y66.000 F800.000 
G1 X8.537 Y65.706 F800.000 
G1 X9.100 Y65.638 F800.000 
G1 X9.381 Y65.650 F800.000 
G1 X9.475 Y65.675 F800.000 
G1 X9.719 Y65.825 F800.000 
G1 X9.775 Y65.900 F800.000 
G1 X9.775 Y65.900 F800.000 
G1 X9.881 Y66.237 F800.000 
G1 X9.906 Y66.475 F800.000 
G1 X9.894 Y66.588 F800.000 
G1 X9.863 Y66.694 F800.000 
G0 X9.812 Y66.781 
G0 X9.644 Y66.931 
G0 X7.131 Y68.175 
G1 X7.019 Y68.231 F800.000 
G1 X6.694 Y68.381 F800.000 
G1 X6.594 Y68.400 F800.000 
G1 X6.506 Y68.388 F800.000 
G1 X6.425 Y68.344 F800.000 
G1 X6.350 Y68.275 F800.000 
G1 X6.231 Y68.088 F800.000 
G1 X6.162 Y67.862 F800.000 
G1 X6.119 Y67.631 F800.000 
G1 X6.119 Y67.631 F800.000 
G1 X6.131 Y66.931 F800.000 
G1 X6.231 Y66.331 F800.000 
G1 X6.344 Y66.050 F800.000 
G1 X6.513 Y65.806 F800.000 
G1 X7.013 Y65.319 F800.000 
G1 X7.513 Y64.994 F800.000 
G1 X7.862 Y64.825 F800.000 
G1 X8.238 Y64.725 F800.000 
G1 X8.800 Y64.681 F800.000 
G1 X8.988 Y64.700 F800.000 
G1 X9.075 Y64.731 F800.000 
G1 X9.306 Y64.900 F800.000 
G1 X9.306 Y64.900 F800.000 
G1 X9.381 Y65.125 F800.000 
G1 X9.419 Y65.356 F800.000 
G1 X9.406 Y65.588 F800.000 
G1 X9.369 Y65.694 F800.000 
G0 X9.312 Y65.787 
G0 X9.144 Y65.931 
G0 X7.112 Y66.975 
G1 X6.994 Y67.037 F800.000 
G1 X6.744 Y67.156 F800.000 
G1 X6.625 Y67.181 F800.000 
G1 X6.525 Y67.175 F800.000 
G1 X6.431 Y67.138 F800.000 
G1 X6.356 Y67.069 F800.000 
G1 X6.237 Y66.888 F800.000 
G1 X6.162 Y66.662 F800.000 
G1 X6.119 Y66.431 F800.000 
G1 X6.119 Y66.431 F800.000 
G1 X6.162 Y65.531 F800.000 
G1 X6.287 Y65.037 F800.000 
G1 X6.369 Y64.850 F800.000 
G1 X6.631 Y64.544 F800.000 
G1 X7.106 Y64.175 F800.000 
G1 X7.544 Y63.944 F800.000 
G1 X7.825 Y63.850 F800.000 
G1 X8.294 Y63.788 F800.000 
G1 X8.575 Y63.800 F800.000 
G1 X8.750 Y63.875 F800.000 
G1 X8.906 Y63.994 F800.000 
G1 X8.906 Y63.994 F800.000 
G1 X8.969 Y64.275 F800.000 
G1 X8.988 Y64.550 F800.000 
G1 X8.969 Y64.675 F800.000 
G1 X8.931 Y64.787 F800.000 
G0 X8.869 Y64.881 
G0 X8.694 Y65.025 
G0 X7.125 Y65.794 
G1 X7.000 Y65.850 F800.000 
G1 X6.750 Y65.963 F800.000 
G1 X6.631 Y65.987 F800.000 
G1 X6.525 Y65.981 F800.000 
G1 X6.431 Y65.938 F800.000 
G1 X6.356 Y65.875 F800.000 
G1 X6.237 Y65.688 F800.000 
G1 X6.162 Y65.463 F800.000 
G1 X6.119 Y65.231 F800.000 
G1 X6.119 Y65.231 F800.000 
G1 X6.156 Y64.531 F800.000 
G1 X6.250 Y64.131 F800.000 
G1 X6.381 Y63.856 F800.000 
G1 X6.575 Y63.631 F800.000 
G1 X6.725 Y63.494 F800.000 
G1 X7.319 Y63.138 F800.000 
G1 X7.594 Y63.044 F800.000 
G1 X7.969 Y62.994 F800.000 
G1 X8.250 Y63.000 F800.000 
G1 X8.344 Y63.025 F800.000 
G1 X8.575 Y63.194 F800.000 
G1 X8.575 Y63.194 F800.000 
G1 X8.631 Y63.425 F800.000 
G1 X8.656 Y63.663 F800.000 
G1 X8.631 Y63.894 F800.000 
G1 X8.588 Y63.994 F800.000 
G0 X8.525 Y64.088 
G0 X8.350 Y64.231 
G0 X7.119 Y64.838 
G1 X7.000 Y64.894 F800.000 
G1 X6.750 Y65.006 F800.000 
G1 X6.631 Y65.031 F800.000 
G1 X6.525 Y65.025 F800.000 
G1 X6.431 Y64.981 F800.000 
G1 X6.356 Y64.919 F800.000 
G1 X6.237 Y64.731 F800.000 
G1 X6.162 Y64.506 F800.000 
G1 X6.119 Y64.275 F800.000 
G1 X6.119 Y64.275 F800.000 
G1 X6.156 Y63.575 F800.000 
G1 X6.263 Y63.181 F800.000 
G1 X6.344 Y63.000 F800.000 
G1 X6.469 Y62.837 F800.000 
G1 X6.775 Y62.587 F800.000 
G1 X7.206 Y62.356 F800.000 
G1 X7.487 Y62.281 F800.000 
G1 X7.956 Y62.269 F800.000 
G1 X8.050 Y62.294 F800.000 
G1 X8.213 Y62.394 F800.000 
G1 X8.287 Y62.456 F800.000 
G1 X8.287 Y62.456 F800.000 
G1 X8.344 Y62.688 F800.000 
G1 X8.369 Y62.925 F800.000 
G1 X8.338 Y63.156 F800.000 
G1 X8.294 Y63.256 F800.000 
G0 X8.231 Y63.344 
G0 X8.050 Y63.481 
G0 X7.144 Y63.894 
G1 X7.031 Y63.938 F800.000 
G1 X6.700 Y64.075 F800.000 
G1 X6.600 Y64.088 F800.000 
G1 X6.506 Y64.075 F800.000 
G1 X6.425 Y64.025 F800.000 
G1 X6.350 Y63.956 F800.000 
G1 X6.231 Y63.769 F800.000 
G1 X6.162 Y63.544 F800.000 
G1 X6.119 Y63.312 F800.000 
G1 X6.119 Y63.312 F800.000 
G1 X6.156 Y62.712 F800.000 
G1 X6.231 Y62.413 F800.000 
G1 X6.362 Y62.138 F800.000 
G1 X6.425 Y62.062 F800.000 
G1 X6.744 Y61.825 F800.000 
G1 X7.013 Y61.694 F800.000 
G1 X7.294 Y61.612 F800.000 
G1 X7.575 Y61.594 F800.000 
G1 X7.763 Y61.612 F800.000 
G1 X7.931 Y61.700 F800.000 
G1 X8.006 Y61.763 F800.000 
G1 X8.062 Y61.837 F800.000 
G1 X8.062 Y61.837 F800.000 
G1 X8.119 Y62.069 F800.000 
G1 X8.131 Y62.300 F800.000 
G1 X8.106 Y62.400 F800.000 
G0 X8.050 Y62.481 
G0 X7.969 Y62.544 
G0 X7.638 Y62.675 
G0 X7.019 Y62.850 
G1 X6.888 Y62.881 F800.000 
G1 X6.619 Y62.950 F800.000 
G1 X6.500 Y62.956 F800.000 
G1 X6.394 Y62.925 F800.000 
G1 X6.312 Y62.869 F800.000 
G1 X6.244 Y62.788 F800.000 
G1 X6.162 Y62.581 F800.000 
G1 X6.119 Y62.356 F800.000 
G1 X6.119 Y62.356 F800.000 
G1 X6.175 Y61.856 F800.000 
G1 X6.269 Y61.569 F800.000 
G1 X6.375 Y61.400 F800.000 
G1 X6.444 Y61.325 F800.000 
G1 X6.694 Y61.156 F800.000 
G1 X6.963 Y61.044 F800.000 
G1 X7.244 Y60.987 F800.000 
G1 X7.525 Y60.987 F800.000 
G1 X7.619 Y61.019 F800.000 
G1 X7.775 Y61.131 F800.000 
G1 X7.844 Y61.200 F800.000 
G1 X7.844 Y61.200 F800.000 
G1 X7.888 Y61.431 F800.000 
G1 X7.894 Y61.663 F800.000 
G1 X7.856 Y61.763 F800.000 
G0 X7.800 Y61.844 
G0 X7.719 Y61.906 
G0 X7.025 Y62.131 
G1 X6.894 Y62.163 F800.000 
G1 X6.625 Y62.225 F800.000 
G1 X6.500 Y62.225 F800.000 
G1 X6.400 Y62.200 F800.000 
G1 X6.312 Y62.144 F800.000 
G1 X6.250 Y62.062 F800.000 
G1 X6.162 Y61.856 F800.000 
G1 X6.119 Y61.631 F800.000 
G1 X6.119 Y61.631 F800.000 
G1 X6.162 Y61.231 F800.000 
G1 X6.256 Y60.938 F800.000 
G1 X6.356 Y60.756 F800.000 
G1 X6.425 Y60.681 F800.000 
G1 X6.681 Y60.531 F800.000 
G1 X6.956 Y60.438 F800.000 
G1 X7.237 Y60.419 F800.000 
G1 X7.331 Y60.425 F800.000 
G1 X7.425 Y60.450 F800.000 
G1 X7.581 Y60.556 F800.000 
G1 X7.650 Y60.625 F800.000 
G1 X7.650 Y60.625 F800.000 
G1 X7.694 Y60.856 F800.000 
G1 X7.706 Y60.975 F800.000 
G1 X7.694 Y61.087 F800.000 
G1 X7.656 Y61.194 F800.000 
G0 X7.594 Y61.281 
G0 X7.506 Y61.350 
G0 X7.031 Y61.569 
G1 X6.912 Y61.619 F800.000 
G1 X6.569 Y61.737 F800.000 
G1 X6.463 Y61.744 F800.000 
G1 X6.375 Y61.719 F800.000 
G1 X6.300 Y61.669 F800.000 
G1 X6.244 Y61.587 F800.000 
G1 X6.162 Y61.381 F800.000 
G1 X6.119 Y61.156 F800.000 
G1 X6.119 Y61.156 F800.000 
G1 X6.144 Y60.656 F800.000 
G1 X6.194 Y60.456 F800.000 
G1 X6.325 Y60.181 F800.000 
G1 X6.388 Y60.106 F800.000 
G1 X6.469 Y60.044 F800.000 
G1 X6.737 Y59.931 F800.000 
G1 X7.019 Y59.888 F800.000 
G1 X7.206 Y59.894 F800.000 
G1 X7.294 Y59.931 F800.000 
G1 X7.444 Y60.050 F800.000 
G1 X7.494 Y60.131 F800.000 
G1 X7.494 Y60.131 F800.000 
G1 X7.537 Y60.362 F800.000 
G1 X7.544 Y60.481 F800.000 
G1 X7.531 Y60.594 F800.000 
G1 X7.500 Y60.694 F800.000 
G0 X7.438 Y60.769 
G0 X7.356 Y60.825 
G0 X7.031 Y60.938 
G1 X6.906 Y60.969 F800.000 
G1 X6.631 Y61.019 F800.000 
G1 X6.500 Y61.000 F800.000 
G1 X6.388 Y60.950 F800.000 
G1 X6.294 Y60.869 F800.000 
G1 X6.225 Y60.769 F800.000 
G1 X6.119 Y60.431 F800.000 
G1 X6.119 Y60.431 F800.000 
G1 X6.138 Y60.131 F800.000 
G1 X6.213 Y59.837 F800.000 
G1 X6.306 Y59.656 F800.000 
G1 X6.369 Y59.581 F800.000 
G1 X6.450 Y59.519 F800.000 
G1 X6.725 Y59.425 F800.000 
G1 X7.006 Y59.406 F800.000 
G1 X7.100 Y59.431 F800.000 
G1 X7.181 Y59.475 F800.000 
G1 X7.325 Y59.606 F800.000 
G1 X7.325 Y59.606 F800.000 
G1 X7.331 Y59.756 F800.000 
G1 X7.312 Y59.881 F800.000 
G0 X7.263 Y59.975 
G0 X7.175 Y60.038 
G0 X6.931 Y60.100 
G1 X6.800 Y60.125 F800.000 
G1 X6.519 Y60.144 F800.000 
G1 X6.400 Y60.125 F800.000 
G1 X6.300 Y60.081 F800.000 
G1 X6.231 Y60.013 F800.000 
G1 X6.181 Y59.919 F800.000 
G1 X6.119 Y59.712 F800.000 
G1 X6.119 Y59.712 F800.000 
G1 X6.188 Y59.413 F800.000 
G1 X6.275 Y59.231 F800.000 
G1 X6.400 Y59.081 F800.000 
G1 X6.581 Y59.006 F800.000 
G1 X6.862 Y58.981 F800.000 
G1 X6.956 Y58.994 F800.000 
G1 X7.119 Y59.094 F800.000 
G1 X7.188 Y59.163 F800.000 
G1 X7.231 Y59.250 F800.000 
G1 X7.231 Y59.250 F800.000 
G1 X7.237 Y59.400 F800.000 
G1 X7.213 Y59.519 F800.000 
G0 X7.156 Y59.606 
G0 X7.056 Y59.656 
G0 X6.938 Y59.681 
G1 X6.800 Y59.694 F800.000 
G1 X6.519 Y59.681 F800.000 
G1 X6.394 Y59.638 F800.000 
G1 X6.287 Y59.562 F800.000 
G1 X6.219 Y59.456 F800.000 
G1 X6.119 Y59.231 F800.000 
G1 X6.119 Y59.231 F800.000 
G1 X6.194 Y58.938 F800.000 
G1 X6.294 Y58.756 F800.000 
G1 X6.362 Y58.681 F800.000 
G1 X6.444 Y58.625 F800.000 
G1 X6.631 Y58.581 F800.000 
G1 X6.819 Y58.581 F800.000 
G1 X6.906 Y58.612 F800.000 
G1 X7.056 Y58.731 F800.000 
G1 X7.112 Y58.806 F800.000 
G1 X7.112 Y58.806 F800.000 
G1 X7.119 Y58.956 F800.000 
G1 X7.106 Y59.087 F800.000 
G0 X7.062 Y59.181 
G0 X6.994 Y59.250 
G0 X6.894 Y59.294 
G1 X6.775 Y59.337 F800.000 
G1 X6.519 Y59.388 F800.000 
G1 X6.400 Y59.381 F800.000 
G1 X6.300 Y59.350 F800.000 
G1 X6.231 Y59.288 F800.000 
G1 X6.181 Y59.200 F800.000 
G1 X6.119 Y58.994 F800.000 
G1 X6.119 Y58.994 F800.000 
G1 X6.138 Y58.694 F800.000 
G1 X6.244 Y58.406 F800.000 
G1 X6.306 Y58.331 F800.000 
G1 X6.381 Y58.269 F800.000 
G1 X6.469 Y58.225 F800.000 
G1 X6.562 Y58.200 F800.000 
G1 X6.656 Y58.194 F800.000 
G1 X6.844 Y58.237 F800.000 
G1 X6.925 Y58.288 F800.000 
G1 X6.981 Y58.369 F800.000 
G1 X6.981 Y58.369 F800.000 
G1 X7.013 Y58.594 F800.000 
G1 X6.994 Y58.688 F800.000 
G0 X6.950 Y58.763 
G0 X6.869 Y58.819 
G1 X6.763 Y58.862 F800.000 
G1 X6.513 Y58.913 F800.000 
G1 X6.400 Y58.906 F800.000 
G1 X6.300 Y58.869 F800.000 
G1 X6.231 Y58.806 F800.000 
G1 X6.181 Y58.719 F800.000 
G1 X6.119 Y58.513 F800.000 
G1 X6.119 Y58.513 F800.000 
G1 X6.175 Y58.312 F800.000 
G1 X6.237 Y58.231 F800.000 
G1 X6.312 Y58.163 F800.000 
G1 X6.500 Y58.094 F800.000 
G1 X6.688 Y58.094 F800.000 
G1 X6.856 Y58.194 F800.000 
G1 X6.925 Y58.263 F800.000 
G1 X6.925 Y58.263 F800.000 
G1 X7.044 Y58.475 F800.000 
G1 X7.106 Y58.706 F800.000 
G1 X7.119 Y58.950 F800.000 
G1 X7.088 Y59.194 F800.000 
G0 Z2.000 
G0 X7.088 Y59.194 
G0 X6.575 Y89.244 
G1 Z-15.000 F800.000 
G1 X6.575 Y89.244 F800.000 
G1 X6.338 Y89.188 F800.000 
G1 X6.156 Y89.031 F800.000 
G1 X6.044 Y88.819 F800.000 
G1 X6.000 Y88.581 F800.000 
G1 X6.000 Y88.581 F800.000 
G1 X6.006 Y58.525 F800.000 
G1 X6.062 Y58.294 F800.000 
G1 X6.138 Y58.169 F800.000 
G1 X6.250 Y58.062 F800.000 
G1 X6.463 Y57.981 F800.000 
G1 X6.688 Y57.981 F800.000 
G1 X6.894 Y58.069 F800.000 
G1 X6.987 Y58.150 F800.000 
G1 X7.094 Y58.337 F800.000 
G1 X7.194 Y58.638 F800.000 
G1 X7.819 Y60.750 F800.000 
G1 X8.206 Y61.856 F800.000 
G1 X8.713 Y63.188 F800.000 
G1 X9.081 Y64.088 F800.000 
G1 X9.831 Y65.744 F800.000 
G1 X10.856 Y67.763 F800.000 
G1 X11.956 Y69.638 F800.000 
G1 X12.825 Y70.987 F800.000 
G1 X13.369 Y71.769 F800.000 
G1 X14.400 Y73.181 F800.000 
G1 X14.981 Y73.912 F800.000 
G1 X16.094 Y75.231 F800.000 
G1 X16.694 Y75.900 F800.000 
G1 X17.969 Y77.237 F800.000 
G1 X19.206 Y78.431 F800.000 
G1 X20.519 Y79.594 F800.000 
G1 X21.206 Y80.162 F800.000 
G1 X22.538 Y81.194 F800.000 
G1 X23.325 Y81.775 F800.000 
G1 X24.706 Y82.713 F800.000 
G1 X25.512 Y83.225 F800.000 
G1 X26.944 Y84.081 F800.000 
G1 X27.962 Y84.644 F800.000 
G1 X29.444 Y85.388 F800.000 
G1 X30.756 Y85.994 F800.000 
G1 X32.700 Y86.781 F800.000 
G1 X34.344 Y87.369 F800.000 
G1 X36.081 Y87.912 F800.000 
G1 X36.913 Y88.144 F800.000 
G1 X37.106 Y88.250 F800.000 
G1 X37.169 Y88.312 F800.000 
G1 X37.294 Y88.537 F800.000 
G1 X37.300 Y88.769 F800.000 
G1 X37.244 Y88.944 F800.000 
G1 X37.131 Y89.088 F800.000 
G1 X36.987 Y89.188 F800.000 
G1 X36.850 Y89.231 F800.000 
G1 X36.594 Y89.250 F800.000 
G1 X6.562 Y89.244 F800.000 
G1 X6.331 Y89.188 F800.000 
G1 X6.206 Y89.112 F800.000 
G1 X6.081 Y88.956 F800.000 
G1 X6.019 Y88.781 F800.000 
G1 X6.000 Y88.650 F800.000 
G1 X6.000 Y88.581 F800.000 
G1 X6.000 Y88.581 F800.000 
G0 Z2.000 
(Helix to depth: -15.000000) 
G0 Z2.000 
G0 X85.226 Y78.889 Z2.000 
G0 X85.226 Y78.889 Z-0.000 
G1 X85.226 Y78.889 Z-3.000 F800.000 
G1 X85.226 Y78.889 Z-3.000 F800.000 
G1 X85.815 Y79.543 Z-3.077 F800.000 
G1 X86.265 Y80.299 Z-3.155 F800.000 
G1 X86.559 Y81.129 Z-3.232 F800.000 
G1 X86.685 Y82.000 Z-3.309 F800.000 
G1 X86.639 Y82.879 Z-3.387 F800.000 
G1 X86.423 Y83.732 Z-3.464 F800.000 
G1 X86.044 Y84.527 Z-3.541 F800.000 
G1 X85.517 Y85.232 Z-3.618 F800.000 
G1 X84.863 Y85.821 Z-3.696 F800.000 
G1 X84.107 Y86.271 Z-3.773 F800.000 
G1 X83.277 Y86.565 Z-3.850 F800.000 
G1 X82.406 Y86.692 Z-3.928 F800.000 
G1 X81.527 Y86.646 Z-4.005 F800.000 
G1 X80.674 Y86.429 Z-4.082 F800.000 
G1 X79.880 Y86.050 Z-4.160 F800.000 
G1 X79.174 Y85.524 Z-4.237 F800.000 
G1 X78.585 Y84.870 Z-4.314 F800.000 
G1 X78.135 Y84.113 Z-4.391 F800.000 
G1 X77.841 Y83.284 Z-4.469 F800.000 
G1 X77.715 Y82.413 Z-4.546 F800.000 
G1 X77.761 Y81.534 Z-4.623 F800.000 
G1 X77.977 Y80.680 Z-4.701 F800.000 
G1 X78.356 Y79.886 Z-4.778 F800.000 
G1 X78.883 Y79.181 Z-4.855 F800.000 
G1 X79.537 Y78.592 Z-4.933 F800.000 
G1 X80.293 Y78.141 Z-5.010 F800.000 
G1 X81.123 Y77.847 Z-5.087 F800.000 
G1 X81.994 Y77.721 Z-5.164 F800.000 
G1 X82.873 Y77.767 Z-5.242 F800.000 
G1 X83.726 Y77.983 Z-5.319 F800.000 
G1 X84.520 Y78.362 Z-5.396 F800.000 
G1 X85.226 Y78.889 Z-5.474 F800.000 
G1 X85.815 Y79.543 Z-5.551 F800.000 
G1 X86.265 Y80.299 Z-5.628 F800.000 
G1 X86.559 Y81.129 Z-5.706 F800.000 
G1 X86.685 Y82.000 Z-5.783 F800.000 
G1 X86.639 Y82.879 Z-5.860 F800.000 
G1 X86.423 Y83.732 Z-5.937 F800.000 
G1 X86.044 Y84.527 Z-6.015 F800.000 
G1 X85.517 Y85.232 Z-6.092 F800.000 
G1 X84.863 Y85.821 Z-6.169 F800.000 
G1 X84.107 Y86.271 Z-6.247 F800.000 
G1 X83.277 Y86.565 Z-6.324 F800.000 
G1 X82.406 Y86.692 Z-6.401 F800.000 
G1 X81.527 Y86.646 Z-6.479 F800.000 
G1 X80.674 Y86.429 Z-6.556 F800.000 
G1 X79.880 Y86.050 Z-6.633 F800.000 
G1 X79.174 Y85.524 Z-6.711 F800.000 
G1 X78.585 Y84.870 Z-6.788 F800.000 
G1 X78.135 Y84.113 Z-6.865 F800.000 
G1 X77.841 Y83.284 Z-6.942 F800.000 
G1 X77.715 Y82.413 Z-7.020 F800.000 
G1 X77.761 Y81.534 Z-7.097 F800.000 
G1 X77.977 Y80.680 Z-7.174 F800.000 
G1 X78.356 Y79.886 Z-7.252 F800.000 
G1 X78.883 Y79.181 Z-7.329 F800.000 
G1 X79.537 Y78.592 Z-7.406 F800.000 
G1 X80.293 Y78.141 Z-7.484 F800.000 
G1 X81.123 Y77.847 Z-7.561 F800.000 
G1 X81.994 Y77.721 Z-7.638 F800.000 
G1 X82.873 Y77.767 Z-7.715 F800.000 
G1 X83.726 Y77.983 Z-7.793 F800.000 
G1 X84.520 Y78.362 Z-7.870 F800.000 
G1 X85.226 Y78.889 Z-7.947 F800.000 
G1 X85.815 Y79.543 Z-8.025 F800.000 
G1 X86.265 Y80.299 Z-8.102 F800.000 
G1 X86.559 Y81.129 Z-8.179 F800.000 
G1 X86.685 Y82.000 Z-8.257 F800.000 
G1 X86.639 Y82.879 Z-8.334 F800.000 
G1 X86.423 Y83.732 Z-8.411 F800.000 
G1 X86.044 Y84.527 Z-8.488 F800.000 
G1 X85.517 Y85.232 Z-8.566 F800.000 
G1 X84.863 Y85.821 Z-8.643 F800.000 
G1 X84.107 Y86.271 Z-8.720 F800.000 
G1 X83.277 Y86.565 Z-8.798 F800.000 
G1 X82.406 Y86.692 Z-8.875 F800.000 
G1 X81.527 Y86.646 Z-8.952 F800.000 
G1 X80.674 Y86.429 Z-9.030 F800.000 
G1 X79.880 Y86.050 Z-9.107 F800.000 
G1 X79.174 Y85.524 Z-9.184 F800.000 
G1 X78.585 Y84.870 Z-9.262 F800.000 
G1 X78.135 Y84.113 Z-9.339 F800.000 
G1 X77.841 Y83.284 Z-9.416 F800.000 
G1 X77.715 Y82.413 Z-9.493 F800.000 
G1 X77.761 Y81.534 Z-9.571 F800.000 
G1 X77.977 Y80.680 Z-9.648 F800.000 
G1 X78.356 Y79.886 Z-9.725 F800.000 
G1 X78.883 Y79.181 Z-9.803 F800.000 
G1 X79.537 Y78.592 Z-9.880 F800.000 
G1 X80.293 Y78.141 Z-9.957 F800.000 
G1 X81.123 Y77.847 Z-10.035 F800.000 
G1 X81.994 Y77.721 Z-10.112 F800.000 
G1 X82.873 Y77.767 Z-10.189 F800.000 
G1 X83.726 Y77.983 Z-10.266 F800.000 
G1 X84.520 Y78.362 Z-10.344 F800.000 
G1 X85.226 Y78.889 Z-10.421 F800.000 
G1 X85.815 Y79.543 Z-10.498 F800.000 
G1 X86.265 Y80.299 Z-10.576 F800.000 
G1 X86.559 Y81.129 Z-10.653 F800.000 
G1 X86.685 Y82.000 Z-10.730 F800.000 
G1 X86.639 Y82.879 Z-10.808 F800.000 
G1 X86.423 Y83.732 Z-10.885 F800.000 
G1 X86.044 Y84.527 Z-10.962 F800.000 
G1 X85.517 Y85.232 Z-11.039 F800.000 
G1 X84.863 Y85.821 Z-11.117 F800.000 
G1 X84.107 Y86.271 Z-11.194 F800.000 
G1 X83.277 Y86.565 Z-11.271 F800.000 
G1 X82.406 Y86.692 Z-11.349 F800.000 
G1 X81.527 Y86.646 Z-11.426 F800.000 
G1 X80.674 Y86.429 Z-11.503 F800.000 
G1 X79.880 Y86.050 Z-11.581 F800.000 
G1 X79.174 Y85.524 Z-11.658 F800.000 
G1 X78.585 Y84.870 Z-11.735 F800.000 
G1 X78.135 Y84.113 Z-11.812 F800.000 
G1 X77.841 Y83.284 Z-11.890 F800.000 
G1 X77.715 Y82.413 Z-11.967 F800.000 
G1 X77.761 Y81.534 Z-12.044 F800.000 
G1 X77.977 Y80.680 Z-12.122 F800.000 
G1 X78.356 Y79.886 Z-12.199 F800.000 
G1 X78.883 Y79.181 Z-12.276 F800.000 
G1 X79.537 Y78.592 Z-12.354 F800.000 
G1 X80.293 Y78.141 Z-12.431 F800.000 
G1 X81.123 Y77.847 Z-12.508 F800.000 
G1 X81.994 Y77.721 Z-12.586 F800.000 
G1 X82.873 Y77.767 Z-12.663 F800.000 
G1 X83.726 Y77.983 Z-12.740 F800.000 
G1 X84.520 Y78.362 Z-12.817 F800.000 
G1 X85.226 Y78.889 Z-12.895 F800.000 
G1 X85.815 Y79.543 Z-12.972 F800.000 
G1 X86.265 Y80.299 Z-13.049 F800.000 
G1 X86.559 Y81.129 Z-13.127 F800.000 
G1 X86.685 Y82.000 Z-13.204 F800.000 
G1 X86.639 Y82.879 Z-13.281 F800.000 
G1 X86.423 Y83.732 Z-13.359 F800.000 
G1 X86.044 Y84.527 Z-13.436 F800.000 
G1 X85.517 Y85.232 Z-13.513 F800.000 
G1 X84.863 Y85.821 Z-13.590 F800.000 
G1 X84.107 Y86.271 Z-13.668 F800.000 
G1 X83.277 Y86.565 Z-13.745 F800.000 
G1 X82.406 Y86.692 Z-13.822 F800.000 
G1 X81.527 Y86.646 Z-13.900 F800.000 
G1 X80.674 Y86.429 Z-13.977 F800.000 
G1 X79.880 Y86.050 Z-14.054 F800.000 
G1 X79.174 Y85.524 Z-14.132 F800.000 
G1 X78.585 Y84.870 Z-14.209 F800.000 
G1 X78.135 Y84.113 Z-14.286 F800.000 
G1 X77.841 Y83.284 Z-14.363 F800.000 
G1 X77.715 Y82.413 Z-14.441 F800.000 
G1 X77.761 Y81.534 Z-14.518 F800.000 
G1 X77.977 Y80.680 Z-14.595 F800.000 
G1 X78.356 Y79.886 Z-14.673 F800.000 
G1 X78.883 Y79.181 Z-14.750 F800.000 
G1 X79.537 Y78.592 Z-14.827 F800.000 
G1 X80.293 Y78.141 Z-14.905 F800.000 
G1 X81.123 Y77.847 Z-14.982 F800.000 
G1 X81.994 Y77.721 Z-15.000 F800.000 
G1 X82.873 Y77.767 Z-15.000 F800.000 
G1 X83.726 Y77.983 Z-15.000 F800.000 
G1 X84.520 Y78.362 Z-15.000 F800.000 
G1 X85.226 Y78.889 Z-15.000 F800.000 
G1 X85.815 Y79.543 Z-15.000 F800.000 
G1 X86.265 Y80.299 Z-15.000 F800.000 
G1 X86.559 Y81.129 Z-15.000 F800.000 
G1 X86.685 Y82.000 Z-15.000 F800.000 
G1 X86.639 Y82.879 Z-15.000 F800.000 
G1 X86.423 Y83.732 Z-15.000 F800.000 
G1 X86.044 Y84.527 Z-15.000 F800.000 
G1 X85.517 Y85.232 Z-15.000 F800.000 
G1 X84.863 Y85.821 Z-15.000 F800.000 
G1 X84.107 Y86.271 Z-15.000 F800.000 
G1 X83.277 Y86.565 Z-15.000 F800.000 
G1 X82.406 Y86.692 Z-15.000 F800.000 
G1 X81.527 Y86.646 Z-15.000 F800.000 
G1 X80.674 Y86.429 Z-15.000 F800.000 
G1 X79.880 Y86.050 Z-15.000 F800.000 
G1 X79.174 Y85.524 Z-15.000 F800.000 
G1 X78.585 Y84.870 Z-15.000 F800.000 
G1 X78.135 Y84.113 Z-15.000 F800.000 
G1 X77.841 Y83.284 Z-15.000 F800.000 
G1 X77.715 Y82.413 Z-15.000 F800.000 
G1 X77.761 Y81.534 Z-15.000 F800.000 
G1 X77.977 Y80.680 Z-15.000 F800.000 
G1 X78.356 Y79.886 Z-15.000 F800.000 
G1 X78.883 Y79.181 Z-15.000 F800.000 
G1 X79.537 Y78.592 Z-15.000 F800.000 
G1 X80.293 Y78.141 Z-15.000 F800.000 
G1 X81.123 Y77.847 Z-15.000 F800.000 
(Adaptive - depth: -15.000000) 
G1 X82.200 Y77.706 F800.000 
G1 X82.344 Y77.562 F800.000 
G1 X82.694 Y77.388 F800.000 
G1 X83.162 Y77.269 F800.000 
G1 X83.631 Y77.231 F800.000 
G1 X84.419 Y77.362 F800.000 
G1 X84.938 Y77.550 F800.000 
G1 X85.237 Y77.700 F800.000 
G1 X85.531 Y77.869 F800.000 
G1 X85.919 Y78.144 F800.000 
G1 X86.338 Y78.513 F800.000 
G1 X86.694 Y78.894 F800.000 
G1 X87.000 Y79.319 F800.000 
G1 X87.225 Y79.694 F800.000 
G1 X87.431 Y80.138 F800.000 
G1 X87.600 Y80.588 F800.000 
G1 X87.806 Y81.525 F800.000 
G1 X87.819 Y82.650 F800.000 
G1 X87.638 Y83.588 F800.000 
G1 X87.381 Y84.444 F800.000 
G1 X87.025 Y85.156 F800.000 
G1 X86.744 Y85.575 F800.000 
G1 X86.494 Y85.888 F800.000 
G1 X86.181 Y86.219 F800.000 
G1 X85.769 Y86.594 F800.000 
G1 X85.281 Y86.950 F800.000 
G1 X84.825 Y87.231 F800.000 
G1 X84.312 Y87.469 F800.000 
G1 X83.869 Y87.631 F800.000 
G1 X82.569 Y87.800 F800.000 
G1 X81.569 Y87.787 F800.000 
G1 X80.969 Y87.700 F800.000 
G1 X80.669 Y87.625 F800.000 
G1 X79.906 Y87.375 F800.000 
G1 X79.188 Y87.006 F800.000 
G1 X78.800 Y86.744 F800.000 
G1 X78.487 Y86.487 F800.000 
G1 X78.150 Y86.175 F800.000 
G1 X77.756 Y85.737 F800.000 
G1 X77.400 Y85.250 F800.000 
G1 X77.131 Y84.781 F800.000 
G1 X76.931 Y84.356 F800.000 
G1 X76.756 Y83.856 F800.000 
G1 X76.625 Y83.362 F800.000 
G1 X76.531 Y82.794 F800.000 
G1 X76.494 Y82.256 F800.000 
G1 X76.506 Y81.719 F800.000 
G1 X76.569 Y81.169 F800.000 
G1 X76.694 Y80.644 F800.000 
G1 X76.838 Y80.206 F800.000 
G1 X77.031 Y79.731 F800.000 
G1 X77.456 Y78.950 F800.000 
G1 X78.050 Y78.144 F800.000 
G1 X78.844 Y77.394 F800.000 
G1 X79.812 Y76.688 F800.000 
G1 X80.250 Y76.444 F800.000 
G1 X80.994 Y76.156 F800.000 
G1 X81.769 Y75.963 F800.000 
G1 X82.312 Y75.881 F800.000 
G1 X82.800 Y75.838 F800.000 
G1 X83.406 Y75.850 F800.000 
G1 X83.950 Y75.906 F800.000 
G1 X84.481 Y76.031 F800.000 
G1 X84.919 Y76.169 F800.000 
G1 X85.394 Y76.356 F800.000 
G1 X85.950 Y76.631 F800.000 
G1 X86.494 Y76.969 F800.000 
G1 X86.944 Y77.338 F800.000 
G1 X87.263 Y77.638 F800.000 
G1 X87.625 Y78.037 F800.000 
G1 X88.287 Y78.987 F800.000 
G1 X88.650 Y79.769 F800.000 
G1 X88.894 Y80.600 F800.000 
G1 X89.019 Y82.569 F800.000 
G1 X88.856 Y83.881 F800.000 
G1 X88.444 Y84.987 F800.000 
G1 X87.969 Y85.844 F800.000 
G1 X87.612 Y86.325 F800.000 
G1 X87.119 Y86.956 F800.000 
G1 X86.556 Y87.525 F800.000 
G1 X85.994 Y87.963 F800.000 
G1 X84.888 Y88.463 F800.000 
G1 X83.300 Y88.875 F800.000 
G1 X81.700 Y88.975 F800.000 
G1 X80.500 Y88.856 F800.000 
G1 X79.319 Y88.469 F800.000 
G1 X78.231 Y87.875 F800.000 
G1 X77.894 Y87.625 F800.000 
G1 X77.275 Y87.112 F800.000 
G1 X76.725 Y86.525 F800.000 
G1 X76.350 Y86.025 F800.000 
G1 X76.100 Y85.606 F800.000 
G1 X75.888 Y85.206 F800.000 
G1 X75.631 Y84.631 F800.000 
G1 X75.412 Y83.938 F800.000 
G1 X75.269 Y83.375 F800.000 
G1 X75.181 Y82.737 F800.000 
G1 X75.150 Y82.213 F800.000 
G1 X75.162 Y81.638 F800.000 
G1 X75.356 Y80.263 F800.000 
G1 X75.681 Y79.188 F800.000 
G1 X76.050 Y78.594 F800.000 
G1 X79.269 Y75.362 F800.000 
G1 X79.819 Y74.944 F800.000 
G1 X80.362 Y74.694 F800.000 
G1 X81.581 Y74.344 F800.000 
G1 X82.050 Y74.281 F800.000 
G1 X82.844 Y74.269 F800.000 
G1 X83.638 Y74.338 F800.000 
G1 X84.269 Y74.444 F800.000 
G1 X84.831 Y74.569 F800.000 
G1 X85.537 Y74.794 F800.000 
G1 X86.125 Y75.062 F800.000 
G1 X86.562 Y75.294 F800.000 
G1 X87.075 Y75.625 F800.000 
G1 X87.537 Y75.969 F800.000 
G1 X88.675 Y77.069 F800.000 
G1 X88.912 Y77.375 F800.000 
G1 X89.100 Y77.819 F800.000 
G1 X89.125 Y77.912 F800.000 
G1 X89.094 Y85.131 F800.000 
G1 X88.906 Y86.069 F800.000 
G1 X88.750 Y86.431 F800.000 
G1 X88.225 Y87.275 F800.000 
G1 X87.569 Y88.019 F800.000 
G1 X86.463 Y88.881 F800.000 
G1 X86.188 Y89.006 F800.000 
G1 X85.794 Y89.125 F800.000 
G1 X79.094 Y89.094 F800.000 
G1 X78.194 Y88.925 F800.000 
G1 X77.619 Y88.694 F800.000 
G1 X76.725 Y88.138 F800.000 
G1 X76.088 Y87.612 F800.000 
G1 X75.531 Y87.031 F800.000 
G1 X75.044 Y86.394 F800.000 
G1 X74.713 Y85.844 F800.000 
G1 X74.494 Y85.419 F800.000 
G1 X74.275 Y84.919 F800.000 
G1 X74.056 Y84.275 F800.000 
G1 X73.894 Y83.625 F800.000 
G1 X73.781 Y83.006 F800.000 
G1 X73.675 Y81.250 F800.000 
G1 X73.700 Y80.850 F800.000 
G1 X73.850 Y80.469 F800.000 
G1 X73.850 Y80.469 F800.000 
G1 X74.162 Y80.281 F800.000 
G1 X74.388 Y80.213 F800.000 
G1 X74.631 Y80.175 F800.000 
G0 X74.750 Y80.162 
G0 X76.131 Y80.075 
G0 X76.250 Y80.044 
G0 X76.362 Y80.000 
G0 X76.562 Y79.869 
G0 X78.444 Y77.881 
G0 X78.575 Y77.681 
G0 X78.812 Y76.850 
G1 X78.844 Y76.719 F800.000 
G1 X78.912 Y76.444 F800.000 
G1 X79.031 Y75.800 F800.000 
G1 X79.106 Y75.575 F800.000 
G1 X79.275 Y75.250 F800.000 
G1 X79.275 Y75.250 F800.000 
G1 X80.525 Y73.850 F800.000 
G1 X80.825 Y73.588 F800.000 
G1 X81.069 Y73.419 F800.000 
G1 X81.619 Y73.200 F800.000 
G1 X83.025 Y72.919 F800.000 
G1 X83.119 Y72.912 F800.000 
G1 X83.912 Y72.944 F800.000 
G1 X84.700 Y73.050 F800.000 
G1 X85.275 Y73.181 F800.000 
G1 X85.781 Y73.331 F800.000 
G1 X86.381 Y73.556 F800.000 
G1 X87.000 Y73.844 F800.000 
G1 X87.612 Y74.188 F800.000 
G1 X88.625 Y74.912 F800.000 
G1 X88.900 Y75.169 F800.000 
G1 X89.050 Y75.412 F800.000 
G1 X89.125 Y75.588 F800.000 
G1 X89.125 Y75.963 F800.000 
G1 X89.125 Y75.963 F800.000 
G1 X89.062 Y76.319 F800.000 
G1 X88.975 Y76.537 F800.000 
G1 X88.919 Y76.638 F800.000 
G1 X88.844 Y76.706 F800.000 
G0 X88.756 Y76.750 
G0 X88.656 Y76.763 
G0 X88.325 Y76.719 
G0 X81.125 Y74.706 
G1 X80.975 Y74.662 F800.000 
G1 X80.706 Y74.581 F800.000 
G1 X80.600 Y74.519 F800.000 
G1 X80.519 Y74.444 F800.000 
G1 X80.475 Y74.356 F800.000 
G1 X80.456 Y74.250 F800.000 
G1 X80.475 Y74.031 F800.000 
G1 X80.556 Y73.806 F800.000 
G1 X80.662 Y73.594 F800.000 
G1 X80.662 Y73.594 F800.000 
G1 X81.419 Y72.650 F800.000 
G1 X81.856 Y72.244 F800.000 
G1 X82.100 Y72.081 F800.000 
G1 X82.556 Y71.900 F800.000 
G1 X83.775 Y71.656 F800.000 
G1 X83.963 Y71.644 F800.000 
G1 X84.756 Y71.681 F800.000 
G1 X85.544 Y71.800 F800.000 
G1 X86.112 Y71.944 F800.000 
G1 X86.581 Y72.081 F800.000 
G1 X87.256 Y72.331 F800.000 
G1 X88.431 Y72.950 F800.000 
G1 X88.894 Y73.300 F800.000 
G1 X89.006 Y73.456 F800.000 
G1 X89.125 Y73.719 F800.000 
G1 X89.125 Y74.000 F800.000 
G1 X89.125 Y74.000 F800.000 
G1 X89.062 Y74.356 F800.000 
G1 X88.975 Y74.575 F800.000 
G1 X88.919 Y74.675 F800.000 
G1 X88.844 Y74.750 F800.000 
G0 X88.750 Y74.794 
G0 X88.650 Y74.812 
G0 X88.312 Y74.775 
G0 X82.188 Y73.350 
G1 X82.044 Y73.312 F800.000 
G1 X81.769 Y73.244 F800.000 
G1 X81.662 Y73.188 F800.000 
G1 X81.581 Y73.119 F800.000 
G1 X81.531 Y73.025 F800.000 
G1 X81.506 Y72.925 F800.000 
G1 X81.513 Y72.700 F800.000 
G1 X81.675 Y72.250 F800.000 
G1 X81.675 Y72.250 F800.000 
G1 X82.275 Y71.450 F800.000 
G1 X82.700 Y71.019 F800.000 
G1 X82.944 Y70.850 F800.000 
G1 X83.781 Y70.569 F800.000 
G1 X84.719 Y70.419 F800.000 
G1 X85.513 Y70.450 F800.000 
G1 X86.300 Y70.556 F800.000 
G1 X86.869 Y70.688 F800.000 
G1 X87.394 Y70.844 F800.000 
G1 X88.325 Y71.250 F800.000 
G1 X88.875 Y71.631 F800.000 
G1 X89.044 Y71.856 F800.000 
G1 X89.125 Y72.031 F800.000 
G1 X89.125 Y72.125 F800.000 
G1 X89.125 Y72.125 F800.000 
G1 X89.062 Y72.481 F800.000 
G1 X88.975 Y72.700 F800.000 
G1 X88.912 Y72.800 F800.000 
G1 X88.838 Y72.875 F800.000 
G0 X88.750 Y72.925 
G0 X88.650 Y72.950 
G0 X88.306 Y72.931 
G0 X83.013 Y72.106 
G1 X82.869 Y72.081 F800.000 
G1 X82.594 Y72.031 F800.000 
G1 X82.481 Y71.987 F800.000 
G1 X82.400 Y71.919 F800.000 
G1 X82.344 Y71.831 F800.000 
G1 X82.319 Y71.731 F800.000 
G1 X82.325 Y71.513 F800.000 
G1 X82.487 Y71.069 F800.000 
G1 X82.487 Y71.069 F800.000 
G1 X83.138 Y70.175 F800.000 
G1 X83.569 Y69.756 F800.000 
G1 X83.731 Y69.644 F800.000 
G1 X84.194 Y69.463 F800.000 
G1 X85.131 Y69.237 F800.000 
G1 X85.506 Y69.188 F800.000 
G1 X86.300 Y69.219 F800.000 
G1 X86.975 Y69.319 F800.000 
G1 X87.450 Y69.438 F800.000 
G1 X88.263 Y69.744 F800.000 
G1 X88.763 Y70.025 F800.000 
G1 X88.912 Y70.138 F800.000 
G1 X89.112 Y70.463 F800.000 
G1 X89.125 Y70.650 F800.000 
G1 X89.125 Y70.650 F800.000 
G1 X89.062 Y71.006 F800.000 
G1 X88.975 Y71.225 F800.000 
G1 X88.912 Y71.325 F800.000 
G1 X88.838 Y71.400 F800.000 
G0 X88.750 Y71.450 
G0 X88.650 Y71.475 
G0 X88.306 Y71.475 
G0 X83.831 Y70.894 
G1 X83.688 Y70.875 F800.000 
G1 X83.412 Y70.831 F800.000 
G1 X83.300 Y70.787 F800.000 
G1 X83.213 Y70.725 F800.000 
G1 X83.162 Y70.638 F800.000 
G1 X83.131 Y70.537 F800.000 
G1 X83.131 Y70.312 F800.000 
G1 X83.281 Y69.862 F800.000 
G1 X83.281 Y69.862 F800.000 
G1 X83.912 Y68.950 F800.000 
G1 X84.194 Y68.656 F800.000 
G1 X84.431 Y68.487 F800.000 
G1 X85.075 Y68.231 F800.000 
G1 X86.106 Y68.019 F800.000 
G1 X86.900 Y68.056 F800.000 
G1 X87.588 Y68.181 F800.000 
G1 X88.369 Y68.438 F800.000 
G1 X88.869 Y68.725 F800.000 
G1 X88.938 Y68.787 F800.000 
G1 X89.088 Y69.031 F800.000 
G1 X89.125 Y69.119 F800.000 
G1 X89.125 Y69.119 F800.000 
G1 X89.062 Y69.475 F800.000 
G1 X88.975 Y69.694 F800.000 
G1 X88.912 Y69.794 F800.000 
G1 X88.838 Y69.875 F800.000 
G0 X88.750 Y69.925 
G0 X88.650 Y69.963 
G0 X88.306 Y69.981 
G0 X84.475 Y69.800 
G1 X84.338 Y69.794 F800.000 
G1 X84.062 Y69.756 F800.000 
G1 X83.944 Y69.706 F800.000 
G1 X83.862 Y69.625 F800.000 
G1 X83.806 Y69.519 F800.000 
G1 X83.775 Y69.406 F800.000 
G1 X83.775 Y69.287 F800.000 
G1 X83.819 Y69.056 F800.000 
G1 X83.900 Y68.831 F800.000 
G1 X83.900 Y68.831 F800.000 
G1 X84.431 Y67.969 F800.000 
G1 X84.812 Y67.513 F800.000 
G1 X84.963 Y67.388 F800.000 
G1 X85.406 Y67.181 F800.000 
G1 X86.250 Y66.950 F800.000 
G1 X86.719 Y66.900 F800.000 
G1 X87.513 Y66.963 F800.000 
G1 X88.237 Y67.162 F800.000 
G1 X88.831 Y67.456 F800.000 
G1 X88.975 Y67.581 F800.000 
G1 X89.119 Y67.831 F800.000 
G1 X89.125 Y67.925 F800.000 
G1 X89.125 Y67.925 F800.000 
G1 X89.062 Y68.281 F800.000 
G1 X88.975 Y68.500 F800.000 
G1 X88.912 Y68.600 F800.000 
G1 X88.838 Y68.681 F800.000 
G0 X88.750 Y68.731 
G0 X88.644 Y68.763 
G0 X88.300 Y68.775 
G0 X85.231 Y68.569 
G1 X85.094 Y68.556 F800.000 
G1 X84.819 Y68.531 F800.000 
G1 X84.700 Y68.494 F800.000 
G1 X84.612 Y68.438 F800.000 
G1 X84.550 Y68.356 F800.000 
G1 X84.513 Y68.256 F800.000 
G1 X84.500 Y68.037 F800.000 
G1 X84.606 Y67.581 F800.000 
G1 X84.606 Y67.581 F800.000 
G1 X84.938 Y66.969 F800.000 
G1 X85.306 Y66.494 F800.000 
G1 X85.525 Y66.294 F800.000 
G1 X85.694 Y66.194 F800.000 
G1 X86.350 Y65.975 F800.000 
G1 X87.194 Y65.862 F800.000 
G1 X88.075 Y65.987 F800.000 
G1 X88.531 Y66.150 F800.000 
G1 X88.869 Y66.331 F800.000 
G1 X88.938 Y66.394 F800.000 
G1 X89.088 Y66.638 F800.000 
G1 X89.125 Y66.725 F800.000 
G1 X89.125 Y66.725 F800.000 
G1 X89.062 Y67.081 F800.000 
G1 X88.975 Y67.300 F800.000 
G1 X88.912 Y67.400 F800.000 
G1 X88.838 Y67.481 F800.000 
G0 X88.750 Y67.531 
G0 X88.650 Y67.569 
G0 X88.175 Y67.588 
G0 X85.775 Y67.481 
G1 X85.644 Y67.475 F800.000 
G1 X85.369 Y67.456 F800.000 
G1 X85.250 Y67.425 F800.000 
G1 X85.162 Y67.369 F800.000 
G1 X85.100 Y67.287 F800.000 
G1 X85.062 Y67.188 F800.000 
G1 X85.050 Y66.969 F800.000 
G1 X85.156 Y66.513 F800.000 
G1 X85.156 Y66.513 F800.000 
G1 X85.619 Y65.731 F800.000 
G1 X85.875 Y65.425 F800.000 
G1 X86.106 Y65.244 F800.000 
G1 X86.844 Y64.987 F800.000 
G1 X87.500 Y64.906 F800.000 
G1 X87.594 Y64.906 F800.000 
G1 X88.375 Y65.062 F800.000 
G1 X88.819 Y65.256 F800.000 
G1 X88.900 Y65.306 F800.000 
G1 X89.025 Y65.456 F800.000 
G1 X89.119 Y65.625 F800.000 
G1 X89.125 Y65.719 F800.000 
G1 X89.125 Y65.719 F800.000 
G1 X89.062 Y66.075 F800.000 
G1 X88.975 Y66.294 F800.000 
G1 X88.912 Y66.394 F800.000 
G1 X88.838 Y66.475 F800.000 
G0 X88.750 Y66.531 
G0 X88.537 Y66.588 
G0 X86.263 Y66.606 
G1 X86.125 Y66.606 F800.000 
G1 X85.850 Y66.600 F800.000 
G1 X85.731 Y66.569 F800.000 
G1 X85.638 Y66.519 F800.000 
G1 X85.575 Y66.438 F800.000 
G1 X85.531 Y66.344 F800.000 
G1 X85.500 Y66.125 F800.000 
G1 X85.588 Y65.656 F800.000 
G1 X85.588 Y65.656 F800.000 
G1 X85.950 Y64.925 F800.000 
G1 X86.188 Y64.600 F800.000 
G1 X86.400 Y64.394 F800.000 
G1 X86.656 Y64.250 F800.000 
G1 X87.125 Y64.100 F800.000 
G1 X87.781 Y64.013 F800.000 
G1 X88.156 Y64.037 F800.000 
G1 X88.619 Y64.175 F800.000 
G1 X88.875 Y64.300 F800.000 
G1 X88.950 Y64.362 F800.000 
G1 X89.100 Y64.606 F800.000 
G1 X89.125 Y64.700 F800.000 
G1 X89.125 Y64.700 F800.000 
G1 X89.062 Y65.056 F800.000 
G1 X88.975 Y65.275 F800.000 
G1 X88.912 Y65.375 F800.000 
G1 X88.838 Y65.456 F800.000 
G0 X88.750 Y65.513 
G0 X88.644 Y65.544 
G0 X86.781 Y65.531 
G1 X86.650 Y65.531 F800.000 
G1 X86.375 Y65.513 F800.000 
G1 X86.256 Y65.481 F800.000 
G1 X86.162 Y65.425 F800.000 
G1 X86.094 Y65.350 F800.000 
G1 X86.050 Y65.250 F800.000 
G1 X86.013 Y65.031 F800.000 
G1 X86.075 Y64.562 F800.000 
G1 X86.075 Y64.562 F800.000 
G1 X86.350 Y64.019 F800.000 
G1 X86.588 Y63.688 F800.000 
G1 X86.800 Y63.475 F800.000 
G1 X86.881 Y63.419 F800.000 
G1 X87.438 Y63.231 F800.000 
G1 X87.906 Y63.175 F800.000 
G1 X88.375 Y63.225 F800.000 
G1 X88.744 Y63.350 F800.000 
G1 X88.912 Y63.444 F800.000 
G1 X89.081 Y63.675 F800.000 
G1 X89.119 Y63.763 F800.000 
G1 X89.125 Y63.856 F800.000 
G1 X89.125 Y63.856 F800.000 
G1 X89.062 Y64.213 F800.000 
G1 X88.975 Y64.431 F800.000 
G1 X88.912 Y64.531 F800.000 
G1 X88.838 Y64.612 F800.000 
G0 X88.750 Y64.662 
G0 X88.644 Y64.694 
G0 X87.162 Y64.662 
G1 X87.031 Y64.656 F800.000 
G1 X86.756 Y64.619 F800.000 
G1 X86.631 Y64.569 F800.000 
G1 X86.531 Y64.494 F800.000 
G1 X86.469 Y64.388 F800.000 
G1 X86.425 Y64.275 F800.000 
G1 X86.406 Y64.156 F800.000 
G1 X86.412 Y63.913 F800.000 
G1 X86.463 Y63.681 F800.000 
G1 X86.463 Y63.681 F800.000 
G1 X86.769 Y63.044 F800.000 
G1 X87.019 Y62.731 F800.000 
G1 X87.175 Y62.612 F800.000 
G1 X87.638 Y62.456 F800.000 
G1 X88.013 Y62.406 F800.000 
G1 X88.388 Y62.431 F800.000 
G1 X88.669 Y62.506 F800.000 
G1 X88.925 Y62.638 F800.000 
G1 X89.044 Y62.788 F800.000 
G1 X89.125 Y62.956 F800.000 
G1 X89.125 Y62.956 F800.000 
G1 X89.062 Y63.312 F800.000 
G1 X88.975 Y63.531 F800.000 
G1 X88.912 Y63.631 F800.000 
G1 X88.838 Y63.712 F800.000 
G0 X88.750 Y63.763 
G0 X88.650 Y63.794 
G0 X87.569 Y63.775 
G1 X87.431 Y63.763 F800.000 
G1 X87.162 Y63.737 F800.000 
G1 X87.044 Y63.706 F800.000 
G1 X86.944 Y63.650 F800.000 
G1 X86.875 Y63.575 F800.000 
G1 X86.825 Y63.475 F800.000 
G1 X86.775 Y63.256 F800.000 
G1 X86.812 Y62.788 F800.000 
G1 X86.812 Y62.788 F800.000 
G1 X87.031 Y62.331 F800.000 
G1 X87.206 Y62.087 F800.000 
G1 X87.350 Y61.944 F800.000 
G1 X87.519 Y61.844 F800.000 
G1 X87.894 Y61.744 F800.000 
G1 X88.269 Y61.712 F800.000 
G1 X88.550 Y61.750 F800.000 
G1 X88.819 Y61.844 F800.000 
G1 X88.906 Y61.888 F800.000 
G1 X88.975 Y61.950 F800.000 
G1 X89.125 Y62.194 F800.000 
G1 X89.125 Y62.194 F800.000 
G1 X89.094 Y62.431 F800.000 
G1 X89.019 Y62.656 F800.000 
G1 X88.963 Y62.737 F800.000 
G0 X88.875 Y62.800 
G0 X88.775 Y62.837 
G0 X87.763 Y62.850 
G1 X87.625 Y62.844 F800.000 
G1 X87.350 Y62.825 F800.000 
G1 X87.237 Y62.794 F800.000 
G1 X87.144 Y62.737 F800.000 
G1 X87.081 Y62.663 F800.000 
G1 X87.050 Y62.562 F800.000 
G1 X87.037 Y62.344 F800.000 
G1 X87.062 Y62.112 F800.000 
G1 X87.062 Y62.112 F800.000 
G1 X87.225 Y61.737 F800.000 
G1 X87.450 Y61.400 F800.000 
G1 X87.594 Y61.256 F800.000 
G1 X87.675 Y61.200 F800.000 
G1 X88.044 Y61.094 F800.000 
G1 X88.325 Y61.075 F800.000 
G1 X88.606 Y61.112 F800.000 
G1 X88.875 Y61.206 F800.000 
G1 X88.950 Y61.263 F800.000 
G1 X89.112 Y61.500 F800.000 
G1 X89.125 Y61.594 F800.000 
G1 X89.125 Y61.594 F800.000 
G1 X89.094 Y61.831 F800.000 
G1 X89.019 Y62.050 F800.000 
G1 X88.956 Y62.138 F800.000 
G0 X88.875 Y62.194 
G0 X88.769 Y62.225 
G0 X88.013 Y62.206 
G1 X87.875 Y62.194 F800.000 
G1 X87.600 Y62.163 F800.000 
G1 X87.481 Y62.131 F800.000 
G1 X87.394 Y62.069 F800.000 
G1 X87.331 Y61.987 F800.000 
G1 X87.294 Y61.894 F800.000 
G1 X87.281 Y61.669 F800.000 
G1 X87.312 Y61.438 F800.000 
G1 X87.312 Y61.438 F800.000 
G1 X87.463 Y61.062 F800.000 
G1 X87.694 Y60.731 F800.000 
G1 X87.850 Y60.606 F800.000 
G1 X87.938 Y60.562 F800.000 
G1 X88.219 Y60.506 F800.000 
G1 X88.500 Y60.506 F800.000 
G1 X88.781 Y60.562 F800.000 
G1 X88.869 Y60.594 F800.000 
G1 X88.950 Y60.650 F800.000 
G1 X89.069 Y60.800 F800.000 
G1 X89.112 Y60.888 F800.000 
G1 X89.125 Y60.981 F800.000 
G1 X89.125 Y60.981 F800.000 
G1 X89.088 Y61.219 F800.000 
G1 X89.056 Y61.331 F800.000 
G1 X89.013 Y61.438 F800.000 
G1 X88.950 Y61.519 F800.000 
G0 X88.862 Y61.575 
G0 X88.756 Y61.600 
G0 X88.388 Y61.587 
G0 X88.256 Y61.569 
G1 X88.112 Y61.550 F800.000 
G1 X87.838 Y61.506 F800.000 
G1 X87.719 Y61.462 F800.000 
G1 X87.631 Y61.394 F800.000 
G1 X87.569 Y61.312 F800.000 
G1 X87.531 Y61.212 F800.000 
G1 X87.519 Y60.987 F800.000 
G1 X87.544 Y60.756 F800.000 
G1 X87.544 Y60.756 F800.000 
G1 X87.662 Y60.475 F800.000 
G1 X87.831 Y60.231 F800.000 
G1 X87.975 Y60.087 F800.000 
G1 X88.056 Y60.038 F800.000 
G1 X88.338 Y59.975 F800.000 
G1 X88.525 Y59.969 F800.000 
G1 X88.713 Y60.000 F800.000 
G1 X88.894 Y60.069 F800.000 
G1 X88.969 Y60.125 F800.000 
G1 X89.125 Y60.362 F800.000 
G1 X89.125 Y60.362 F800.000 
G1 X89.088 Y60.600 F800.000 
G1 X89.013 Y60.819 F800.000 
G1 X88.950 Y60.900 F800.000 
G0 X88.862 Y60.962 
G0 X88.763 Y60.994 
G0 X88.400 Y61.025 
G1 X88.269 Y61.025 F800.000 
G1 X87.994 Y61.013 F800.000 
G1 X87.875 Y60.981 F800.000 
G1 X87.781 Y60.925 F800.000 
G1 X87.719 Y60.850 F800.000 
G1 X87.681 Y60.750 F800.000 
G1 X87.662 Y60.644 F800.000 
G1 X87.694 Y60.300 F800.000 
G1 X87.694 Y60.300 F800.000 
G1 X87.838 Y59.913 F800.000 
G1 X88.006 Y59.669 F800.000 
G1 X88.150 Y59.538 F800.000 
G1 X88.237 Y59.494 F800.000 
G1 X88.425 Y59.456 F800.000 
G1 X88.612 Y59.462 F800.000 
G1 X88.888 Y59.538 F800.000 
G1 X88.963 Y59.594 F800.000 
G1 X89.075 Y59.744 F800.000 
G1 X89.119 Y59.831 F800.000 
G1 X89.119 Y59.831 F800.000 
G1 X89.075 Y60.056 F800.000 
G1 X89.031 Y60.138 F800.000 
G0 X88.969 Y60.194 
G0 X88.875 Y60.225 
G0 X88.656 Y60.219 
G0 X88.531 Y60.206 
G1 X88.400 Y60.188 F800.000 
G1 X88.138 Y60.131 F800.000 
G1 X88.025 Y60.081 F800.000 
G1 X87.950 Y60.019 F800.000 
G1 X87.906 Y59.931 F800.000 
G1 X87.888 Y59.831 F800.000 
G1 X87.900 Y59.612 F800.000 
G1 X87.900 Y59.612 F800.000 
G1 X88.031 Y59.337 F800.000 
G1 X88.156 Y59.181 F800.000 
G1 X88.312 Y59.056 F800.000 
G1 X88.406 Y59.019 F800.000 
G1 X88.594 Y59.013 F800.000 
G1 X88.781 Y59.044 F800.000 
G1 X88.875 Y59.075 F800.000 
G1 X88.956 Y59.125 F800.000 
G1 X89.069 Y59.275 F800.000 
G1 X89.112 Y59.356 F800.000 
G1 X89.125 Y59.450 F800.000 
G1 X89.125 Y59.450 F800.000 
G1 X89.081 Y59.669 F800.000 
G1 X89.025 Y59.750 F800.000 
G0 X88.950 Y59.800 
G0 X88.844 Y59.812 
G0 X88.719 Y59.800 
G1 X88.581 Y59.775 F800.000 
G1 X88.312 Y59.700 F800.000 
G1 X88.200 Y59.644 F800.000 
G1 X88.119 Y59.569 F800.000 
G1 X88.069 Y59.475 F800.000 
G1 X88.037 Y59.263 F800.000 
G1 X88.037 Y59.150 F800.000 
G1 X88.037 Y59.150 F800.000 
G1 X88.169 Y58.875 F800.000 
G1 X88.294 Y58.719 F800.000 
G1 X88.456 Y58.606 F800.000 
G1 X88.550 Y58.587 F800.000 
G1 X88.737 Y58.600 F800.000 
G1 X88.919 Y58.663 F800.000 
G1 X88.994 Y58.725 F800.000 
G1 X89.100 Y58.881 F800.000 
G1 X89.125 Y58.975 F800.000 
G1 X89.125 Y58.975 F800.000 
G1 X89.081 Y59.194 F800.000 
G1 X89.025 Y59.275 F800.000 
G0 X88.938 Y59.319 
G0 X88.831 Y59.325 
G1 X88.706 Y59.312 F800.000 
G1 X88.444 Y59.237 F800.000 
G1 X88.331 Y59.181 F800.000 
G1 X88.250 Y59.106 F800.000 
G1 X88.200 Y59.013 F800.000 
G1 X88.175 Y58.800 F800.000 
G1 X88.175 Y58.688 F800.000 
G1 X88.175 Y58.688 F800.000 
G1 X88.263 Y58.513 F800.000 
G1 X88.381 Y58.356 F800.000 
G1 X88.463 Y58.300 F800.000 
G1 X88.650 Y58.237 F800.000 
G1 X88.744 Y58.237 F800.000 
G1 X88.838 Y58.263 F800.000 
G1 X89.006 Y58.356 F800.000 
G1 X89.075 Y58.419 F800.000 
G1 X89.125 Y58.500 F800.000 
G1 X89.125 Y58.500 F800.000 
G1 X89.088 Y58.725 F800.000 
G1 X89.044 Y58.819 F800.000 
G0 X88.975 Y58.881 
G0 X88.881 Y58.919 
G1 X88.769 Y58.938 F800.000 
G1 X88.513 Y58.931 F800.000 
G1 X88.406 Y58.900 F800.000 
G1 X88.319 Y58.844 F800.000 
G1 X88.269 Y58.769 F800.000 
G1 X88.244 Y58.669 F800.000 
G1 X88.237 Y58.456 F800.000 
G1 X88.237 Y58.456 F800.000 
G1 X88.269 Y58.362 F800.000 
G1 X88.381 Y58.200 F800.000 
G1 X88.463 Y58.138 F800.000 
G1 X88.550 Y58.094 F800.000 
G1 X88.737 Y58.081 F800.000 
G1 X88.919 Y58.150 F800.000 
G1 X88.994 Y58.212 F800.000 
G1 X89.056 Y58.288 F800.000 
G1 X89.100 Y58.369 F800.000 
G1 X89.100 Y58.369 F800.000 
G1 X89.125 Y58.612 F800.000 
G1 X89.119 Y58.856 F800.000 
G1 X89.088 Y59.100 F800.000 
G1 X89.031 Y59.337 F800.000 
G0 Z2.000 
G0 X89.031 Y59.337 
G0 X88.800 Y84.581 
G1 Z-15.000 F800.000 
G1 X88.800 Y84.581 F800.000 
G1 X88.950 Y84.781 F800.000 
G1 X89.062 Y85.006 F800.000 
G1 X89.125 Y85.250 F800.000 
G1 X89.125 Y85.500 F800.000 
G1 X89.125 Y85.500 F800.000 
G1 X89.100 Y86.812 F800.000 
G1 X88.963 Y87.469 F800.000 
G1 X88.819 Y87.831 F800.000 
G1 X88.306 Y88.556 F800.000 
G1 X88.031 Y88.850 F800.000 
G1 X87.869 Y88.969 F800.000 
G1 X87.500 Y89.125 F800.000 
G1 X87.300 Y89.125 F800.000 
G1 X87.300 Y89.125 F800.000 
G1 X86.931 Y89.062 F800.000 
G1 X86.700 Y88.975 F800.000 
G1 X86.606 Y88.919 F800.000 
G1 X86.544 Y88.850 F800.000 
G0 X86.519 Y88.769 
G0 X86.537 Y88.688 
G0 X86.644 Y88.519 
G0 X88.287 Y86.781 
G1 X88.369 Y86.694 F800.000 
G1 X88.625 Y86.450 F800.000 
G1 X88.706 Y86.406 F800.000 
G1 X88.781 Y86.406 F800.000 
G1 X88.856 Y86.438 F800.000 
G1 X88.925 Y86.506 F800.000 
G1 X89.031 Y86.706 F800.000 
G1 X89.094 Y86.938 F800.000 
G1 X89.125 Y87.181 F800.000 
G1 X89.125 Y87.181 F800.000 
G1 X89.112 Y88.025 F800.000 
G1 X89.025 Y88.494 F800.000 
G1 X88.925 Y88.769 F800.000 
G1 X88.875 Y88.856 F800.000 
G1 X88.731 Y88.994 F800.000 
G1 X88.456 Y89.125 F800.000 
G1 X88.456 Y89.125 F800.000 
G1 X88.225 Y89.088 F800.000 
G1 X88.150 Y89.050 F800.000 
G0 X88.125 Y88.994 
G0 X88.131 Y88.925 
G0 X88.237 Y88.763 
G0 X88.556 Y88.406 
G1 X88.650 Y88.306 F800.000 
G1 X88.838 Y88.125 F800.000 
G1 X88.925 Y88.069 F800.000 
G1 X88.994 Y88.062 F800.000 
G1 X89.044 Y88.106 F800.000 
G1 X89.081 Y88.181 F800.000 
G1 X89.125 Y88.381 F800.000 
G1 X89.125 Y88.381 F800.000 
G1 X89.119 Y88.756 F800.000 
G1 X89.050 Y88.938 F800.000 
G1 X88.981 Y89.013 F800.000 
G1 X88.900 Y89.069 F800.000 
G1 X88.806 Y89.106 F800.000 
G1 X88.706 Y89.125 F800.000 
G1 X88.706 Y89.125 F800.000 
G1 X88.338 Y89.081 F800.000 
G1 X88.100 Y89.006 F800.000 
G1 X87.875 Y88.906 F800.000 
G0 X87.769 Y88.850 
G0 X86.031 Y88.000 
G0 X85.800 Y87.931 
G0 X81.731 Y87.875 
G0 X81.494 Y87.906 
G0 X80.175 Y88.487 
G1 X80.050 Y88.544 F800.000 
G1 X79.225 Y88.987 F800.000 
G1 X79.000 Y89.069 F800.000 
G1 X78.644 Y89.125 F800.000 
G1 X78.644 Y89.125 F800.000 
G1 X77.244 Y89.094 F800.000 
G1 X76.544 Y88.963 F800.000 
G1 X76.156 Y88.819 F800.000 
G1 X75.356 Y88.325 F800.000 
G1 X74.494 Y87.581 F800.000 
G1 X73.963 Y86.981 F800.000 
G1 X73.500 Y86.319 F800.000 
G1 X73.188 Y85.769 F800.000 
G1 X72.944 Y85.294 F800.000 
G1 X72.681 Y84.619 F800.000 
G1 X72.500 Y84.025 F800.000 
G1 X72.225 Y82.525 F800.000 
G1 X72.206 Y82.025 F800.000 
G1 X72.219 Y81.925 F800.000 
G1 X72.331 Y81.644 F800.000 
G1 X72.331 Y81.644 F800.000 
G1 X72.644 Y81.456 F800.000 
G1 X72.869 Y81.388 F800.000 
G1 X72.981 Y81.375 F800.000 
G1 X73.088 Y81.381 F800.000 
G0 X73.181 Y81.419 
G0 X73.269 Y81.481 
G0 X73.481 Y81.750 
G0 X77.456 Y88.156 
G1 X77.525 Y88.275 F800.000 
G1 X77.713 Y88.588 F800.000 
G1 X77.737 Y88.688 F800.000 
G1 X77.731 Y88.775 F800.000 
G1 X77.688 Y88.856 F800.000 
G1 X77.612 Y88.925 F800.000 
G1 X77.425 Y89.031 F800.000 
G1 X77.194 Y89.094 F800.000 
G1 X76.963 Y89.125 F800.000 
G1 X76.963 Y89.125 F800.000 
G1 X75.763 Y89.106 F800.000 
G1 X74.963 Y88.956 F800.000 
G1 X74.763 Y88.894 F800.000 
G1 X74.219 Y88.600 F800.000 
G1 X73.162 Y87.756 F800.000 
G1 X73.013 Y87.606 F800.000 
G1 X72.481 Y87.006 F800.000 
G1 X72.019 Y86.350 F800.000 
G1 X71.706 Y85.812 F800.000 
G1 X71.463 Y85.338 F800.000 
G1 X71.206 Y84.688 F800.000 
G1 X71.006 Y84.006 F800.000 
G1 X70.906 Y83.406 F800.000 
G1 X70.888 Y82.906 F800.000 
G1 X70.938 Y82.713 F800.000 
G1 X71.031 Y82.531 F800.000 
G1 X71.031 Y82.531 F800.000 
G1 X71.237 Y82.412 F800.000 
G1 X71.469 Y82.331 F800.000 
G1 X71.700 Y82.306 F800.000 
G1 X71.806 Y82.319 F800.000 
G0 X71.906 Y82.362 
G0 X72.069 Y82.506 
G0 X72.312 Y82.850 
G0 X75.763 Y88.162 
G1 X75.831 Y88.281 F800.000 
G1 X76.025 Y88.594 F800.000 
G1 X76.050 Y88.688 F800.000 
G1 X76.044 Y88.775 F800.000 
G1 X76.006 Y88.856 F800.000 
G1 X75.931 Y88.925 F800.000 
G1 X75.744 Y89.031 F800.000 
G1 X75.513 Y89.094 F800.000 
G1 X75.281 Y89.125 F800.000 
G1 X75.281 Y89.125 F800.000 
G1 X74.181 Y89.100 F800.000 
G1 X73.381 Y88.944 F800.000 
G1 X73.088 Y88.831 F800.000 
G1 X72.138 Y88.188 F800.000 
G1 X71.525 Y87.612 F800.000 
G1 X70.981 Y87.025 F800.000 
G1 X70.531 Y86.362 F800.000 
G1 X70.237 Y85.831 F800.000 
G1 X70.050 Y85.381 F800.000 
G1 X69.787 Y84.562 F800.000 
G1 X69.694 Y83.862 F800.000 
G1 X69.694 Y83.662 F800.000 
G1 X69.800 Y83.375 F800.000 
G1 X69.856 Y83.294 F800.000 
G1 X69.856 Y83.294 F800.000 
G1 X70.188 Y83.156 F800.000 
G1 X70.419 Y83.112 F800.000 
G1 X70.537 Y83.112 F800.000 
G1 X70.644 Y83.138 F800.000 
G0 X70.744 Y83.181 
G0 X70.912 Y83.331 
G0 X71.394 Y83.994 
G0 X74.306 Y88.181 
G1 X74.381 Y88.294 F800.000 
G1 X74.581 Y88.594 F800.000 
G1 X74.612 Y88.688 F800.000 
G1 X74.606 Y88.775 F800.000 
G1 X74.562 Y88.856 F800.000 
G1 X74.494 Y88.925 F800.000 
G1 X74.306 Y89.031 F800.000 
G1 X74.075 Y89.094 F800.000 
G1 X73.844 Y89.125 F800.000 
G1 X73.844 Y89.125 F800.000 
G1 X72.744 Y89.106 F800.000 
G1 X71.944 Y88.956 F800.000 
G1 X71.556 Y88.800 F800.000 
G1 X70.700 Y88.219 F800.000 
G1 X70.019 Y87.569 F800.000 
G1 X69.506 Y86.944 F800.000 
G1 X69.094 Y86.256 F800.000 
G1 X68.875 Y85.769 F800.000 
G1 X68.631 Y84.856 F800.000 
G1 X68.606 Y84.356 F800.000 
G1 X68.612 Y84.256 F800.000 
G1 X68.688 Y84.062 F800.000 
G1 X68.737 Y83.975 F800.000 
G1 X68.737 Y83.975 F800.000 
G1 X68.956 Y83.869 F800.000 
G1 X69.188 Y83.806 F800.000 
G1 X69.419 Y83.794 F800.000 
G1 X69.525 Y83.812 F800.000 
G0 X69.625 Y83.856 
G0 X69.787 Y84.006 
G0 X70.225 Y84.612 
G0 X72.638 Y88.181 
G1 X72.713 Y88.287 F800.000 
G1 X72.900 Y88.594 F800.000 
G1 X72.931 Y88.688 F800.000 
G1 X72.925 Y88.775 F800.000 
G1 X72.881 Y88.856 F800.000 
G1 X72.812 Y88.925 F800.000 
G1 X72.625 Y89.031 F800.000 
G1 X72.394 Y89.094 F800.000 
G1 X72.162 Y89.125 F800.000 
G1 X72.162 Y89.125 F800.000 
G1 X71.263 Y89.106 F800.000 
G1 X70.562 Y88.981 F800.000 
G1 X70.263 Y88.881 F800.000 
G1 X69.812 Y88.625 F800.000 
G1 X69.081 Y88.037 F800.000 
G1 X68.656 Y87.575 F800.000 
G1 X68.181 Y86.925 F800.000 
G1 X67.825 Y86.206 F800.000 
G1 X67.606 Y85.356 F800.000 
G1 X67.581 Y84.956 F800.000 
G1 X67.588 Y84.856 F800.000 
G1 X67.650 Y84.662 F800.000 
G1 X67.700 Y84.575 F800.000 
G1 X67.700 Y84.575 F800.000 
G1 X67.919 Y84.469 F800.000 
G1 X68.150 Y84.406 F800.000 
G1 X68.381 Y84.394 F800.000 
G1 X68.487 Y84.412 F800.000 
G0 X68.588 Y84.456 
G0 X68.750 Y84.606 
G0 X71.200 Y88.181 
G1 X71.275 Y88.294 F800.000 
G1 X71.463 Y88.594 F800.000 
G1 X71.494 Y88.688 F800.000 
G1 X71.487 Y88.775 F800.000 
G1 X71.444 Y88.856 F800.000 
G1 X71.375 Y88.925 F800.000 
G1 X71.188 Y89.031 F800.000 
G1 X70.956 Y89.094 F800.000 
G1 X70.725 Y89.125 F800.000 
G1 X70.725 Y89.125 F800.000 
G1 X69.825 Y89.106 F800.000 
G1 X69.225 Y88.994 F800.000 
G1 X68.925 Y88.894 F800.000 
G1 X68.475 Y88.625 F800.000 
G1 X67.994 Y88.231 F800.000 
G1 X67.562 Y87.775 F800.000 
G1 X67.438 Y87.612 F800.000 
G1 X67.006 Y86.931 F800.000 
G1 X66.725 Y86.175 F800.000 
G1 X66.638 Y85.675 F800.000 
G1 X66.631 Y85.375 F800.000 
G1 X66.650 Y85.275 F800.000 
G1 X66.737 Y85.094 F800.000 
G1 X66.806 Y85.019 F800.000 
G1 X66.806 Y85.019 F800.000 
G1 X67.144 Y84.906 F800.000 
G1 X67.381 Y84.881 F800.000 
G1 X67.494 Y84.888 F800.000 
G1 X67.606 Y84.919 F800.000 
G0 X67.700 Y84.969 
G0 X67.856 Y85.125 
G0 X69.781 Y88.175 
G1 X69.850 Y88.281 F800.000 
G1 X70.031 Y88.588 F800.000 
G1 X70.056 Y88.688 F800.000 
G1 X70.050 Y88.775 F800.000 
G1 X70.006 Y88.856 F800.000 
G1 X69.931 Y88.925 F800.000 
G1 X69.744 Y89.031 F800.000 
G1 X69.513 Y89.094 F800.000 
G1 X69.281 Y89.125 F800.000 
G1 X69.281 Y89.125 F800.000 
G1 X68.581 Y89.112 F800.000 
G1 X67.981 Y89.000 F800.000 
G1 X67.594 Y88.850 F800.000 
G1 X66.931 Y88.338 F800.000 
G1 X66.381 Y87.713 F800.000 
G1 X65.944 Y86.919 F800.000 
G1 X65.819 Y86.525 F800.000 
G1 X65.750 Y86.025 F800.000 
G1 X65.756 Y85.825 F800.000 
G1 X65.775 Y85.725 F800.000 
G1 X65.862 Y85.544 F800.000 
G1 X65.919 Y85.463 F800.000 
G1 X65.919 Y85.463 F800.000 
G1 X66.256 Y85.350 F800.000 
G1 X66.494 Y85.325 F800.000 
G1 X66.612 Y85.331 F800.000 
G1 X66.719 Y85.362 F800.000 
G0 X66.812 Y85.419 
G0 X66.969 Y85.575 
G0 X68.588 Y88.175 
G1 X68.650 Y88.281 F800.000 
G1 X68.831 Y88.588 F800.000 
G1 X68.856 Y88.688 F800.000 
G1 X68.850 Y88.775 F800.000 
G1 X68.806 Y88.856 F800.000 
G1 X68.731 Y88.925 F800.000 
G1 X68.544 Y89.031 F800.000 
G1 X68.312 Y89.094 F800.000 
G1 X68.081 Y89.125 F800.000 
G1 X68.081 Y89.125 F800.000 
G1 X67.481 Y89.119 F800.000 
G1 X66.781 Y88.994 F800.000 
G1 X66.487 Y88.881 F800.000 
G1 X65.994 Y88.500 F800.000 
G1 X65.513 Y87.956 F800.000 
G1 X65.287 Y87.606 F800.000 
G1 X64.994 Y86.856 F800.000 
G1 X64.919 Y86.356 F800.000 
G1 X64.925 Y86.156 F800.000 
G1 X65.000 Y85.975 F800.000 
G1 X65.056 Y85.888 F800.000 
G1 X65.056 Y85.888 F800.000 
G1 X65.394 Y85.775 F800.000 
G1 X65.631 Y85.750 F800.000 
G1 X65.744 Y85.756 F800.000 
G1 X65.850 Y85.787 F800.000 
G0 X65.944 Y85.844 
G0 X66.100 Y86.000 
G0 X67.400 Y88.169 
G1 X67.463 Y88.275 F800.000 
G1 X67.638 Y88.588 F800.000 
G1 X67.662 Y88.681 F800.000 
G1 X67.650 Y88.775 F800.000 
G1 X67.606 Y88.856 F800.000 
G1 X67.537 Y88.925 F800.000 
G1 X67.344 Y89.031 F800.000 
G1 X67.112 Y89.094 F800.000 
G1 X66.881 Y89.125 F800.000 
G1 X66.881 Y89.125 F800.000 
G1 X66.181 Y89.088 F800.000 
G1 X65.681 Y88.969 F800.000 
G1 X65.400 Y88.838 F800.000 
G1 X65.075 Y88.575 F800.000 
G1 X64.656 Y88.106 F800.000 
G1 X64.344 Y87.562 F800.000 
G1 X64.188 Y87.075 F800.000 
G1 X64.138 Y86.675 F800.000 
G1 X64.144 Y86.475 F800.000 
G1 X64.175 Y86.381 F800.000 
G1 X64.287 Y86.213 F800.000 
G1 X64.287 Y86.213 F800.000 
G1 X64.519 Y86.144 F800.000 
G1 X64.769 Y86.119 F800.000 
G1 X64.900 Y86.131 F800.000 
G1 X65.031 Y86.169 F800.000 
G0 X65.150 Y86.231 
G0 X65.250 Y86.306 
G0 X65.412 Y86.494 
G0 X66.438 Y88.169 
G1 X66.500 Y88.275 F800.000 
G1 X66.675 Y88.588 F800.000 
G1 X66.700 Y88.681 F800.000 
G1 X66.694 Y88.775 F800.000 
G1 X66.650 Y88.856 F800.000 
G1 X66.575 Y88.925 F800.000 
G1 X66.388 Y89.031 F800.000 
G1 X66.156 Y89.094 F800.000 
G1 X65.925 Y89.125 F800.000 
G1 X65.925 Y89.125 F800.000 
G1 X65.325 Y89.112 F800.000 
G1 X64.825 Y89.013 F800.000 
G1 X64.537 Y88.894 F800.000 
G1 X64.219 Y88.638 F800.000 
G1 X63.881 Y88.237 F800.000 
G1 X63.581 Y87.694 F800.000 
G1 X63.487 Y87.394 F800.000 
G1 X63.431 Y86.994 F800.000 
G1 X63.438 Y86.794 F800.000 
G1 X63.469 Y86.700 F800.000 
G1 X63.575 Y86.531 F800.000 
G1 X63.575 Y86.531 F800.000 
G1 X63.925 Y86.438 F800.000 
G1 X64.162 Y86.425 F800.000 
G1 X64.275 Y86.444 F800.000 
G1 X64.381 Y86.475 F800.000 
G0 X64.475 Y86.537 
G0 X64.631 Y86.700 
G0 X65.494 Y88.169 
G1 X65.550 Y88.269 F800.000 
G1 X65.719 Y88.581 F800.000 
G1 X65.744 Y88.681 F800.000 
G1 X65.731 Y88.775 F800.000 
G1 X65.688 Y88.850 F800.000 
G1 X65.619 Y88.925 F800.000 
G1 X65.425 Y89.031 F800.000 
G1 X65.194 Y89.094 F800.000 
G1 X64.963 Y89.125 F800.000 
G1 X64.963 Y89.125 F800.000 
G1 X64.463 Y89.119 F800.000 
G1 X64.062 Y89.044 F800.000 
G1 X63.769 Y88.944 F800.000 
G1 X63.587 Y88.838 F800.000 
G1 X63.225 Y88.463 F800.000 
G1 X62.950 Y88.013 F800.000 
G1 X62.837 Y87.725 F800.000 
G1 X62.756 Y87.325 F800.000 
G1 X62.750 Y87.125 F800.000 
G1 X62.763 Y87.025 F800.000 
G1 X62.862 Y86.844 F800.000 
G1 X62.925 Y86.769 F800.000 
G1 X62.925 Y86.769 F800.000 
G1 X63.156 Y86.700 F800.000 
G1 X63.406 Y86.675 F800.000 
G1 X63.538 Y86.694 F800.000 
G1 X63.669 Y86.725 F800.000 
G0 X63.781 Y86.787 
G0 X63.875 Y86.869 
G0 X64.019 Y87.062 
G0 X64.575 Y88.144 
G1 X64.625 Y88.250 F800.000 
G1 X64.775 Y88.575 F800.000 
G1 X64.794 Y88.675 F800.000 
G1 X64.781 Y88.769 F800.000 
G1 X64.731 Y88.850 F800.000 
G1 X64.662 Y88.925 F800.000 
G1 X64.469 Y89.031 F800.000 
G1 X64.237 Y89.094 F800.000 
G1 X64.006 Y89.125 F800.000 
G1 X64.006 Y89.125 F800.000 
G1 X63.606 Y89.106 F800.000 
G1 X63.206 Y89.013 F800.000 
G1 X62.919 Y88.881 F800.000 
G1 X62.831 Y88.825 F800.000 
G1 X62.487 Y88.431 F800.000 
G1 X62.281 Y88.069 F800.000 
G1 X62.188 Y87.775 F800.000 
G1 X62.150 Y87.475 F800.000 
G1 X62.156 Y87.275 F800.000 
G1 X62.188 Y87.175 F800.000 
G1 X62.300 Y87.006 F800.000 
G1 X62.300 Y87.006 F800.000 
G1 X62.531 Y86.938 F800.000 
G1 X62.769 Y86.912 F800.000 
G1 X63.000 Y86.944 F800.000 
G1 X63.106 Y86.981 F800.000 
G0 X63.194 Y87.050 
G0 X63.350 Y87.231 
G0 X63.837 Y88.138 
G1 X63.894 Y88.250 F800.000 
G1 X64.050 Y88.575 F800.000 
G1 X64.069 Y88.681 F800.000 
G1 X64.056 Y88.769 F800.000 
G1 X64.006 Y88.850 F800.000 
G1 X63.938 Y88.925 F800.000 
G1 X63.744 Y89.031 F800.000 
G1 X63.513 Y89.094 F800.000 
G1 X63.281 Y89.125 F800.000 
G1 X63.281 Y89.125 F800.000 
G1 X62.881 Y89.106 F800.000 
G1 X62.481 Y89.013 F800.000 
G1 X62.288 Y88.931 F800.000 
G1 X62.119 Y88.812 F800.000 
G1 X61.919 Y88.575 F800.000 
G1 X61.712 Y88.213 F800.000 
G1 X61.619 Y87.919 F800.000 
G1 X61.581 Y87.619 F800.000 
G1 X61.581 Y87.519 F800.000 
G1 X61.600 Y87.419 F800.000 
G1 X61.700 Y87.250 F800.000 
G1 X61.700 Y87.250 F800.000 
G1 X61.931 Y87.181 F800.000 
G1 X62.163 Y87.162 F800.000 
G1 X62.269 Y87.188 F800.000 
G0 X62.356 Y87.237 
G0 X62.438 Y87.312 
G0 X62.944 Y88.287 
G1 X62.994 Y88.400 F800.000 
G1 X63.138 Y88.725 F800.000 
G1 X63.156 Y88.819 F800.000 
G1 X63.138 Y88.906 F800.000 
G1 X63.081 Y88.975 F800.000 
G1 X63.000 Y89.025 F800.000 
G1 X62.794 Y89.094 F800.000 
G1 X62.562 Y89.125 F800.000 
G1 X62.562 Y89.125 F800.000 
G1 X62.163 Y89.106 F800.000 
G1 X61.862 Y89.031 F800.000 
G1 X61.587 Y88.900 F800.000 
G1 X61.506 Y88.838 F800.000 
G1 X61.256 Y88.506 F800.000 
G1 X61.125 Y88.219 F800.000 
G1 X61.050 Y87.919 F800.000 
G1 X61.044 Y87.719 F800.000 
G1 X61.062 Y87.619 F800.000 
G1 X61.106 Y87.531 F800.000 
G1 X61.169 Y87.450 F800.000 
G1 X61.244 Y87.388 F800.000 
G1 X61.244 Y87.388 F800.000 
G1 X61.475 Y87.338 F800.000 
G1 X61.706 Y87.331 F800.000 
G1 X61.806 Y87.362 F800.000 
G0 X61.894 Y87.419 
G0 X61.962 Y87.500 
G0 X62.288 Y88.256 
G1 X62.325 Y88.369 F800.000 
G1 X62.438 Y88.706 F800.000 
G1 X62.444 Y88.806 F800.000 
G1 X62.419 Y88.894 F800.000 
G1 X62.362 Y88.969 F800.000 
G1 X62.281 Y89.025 F800.000 
G1 X62.075 Y89.088 F800.000 
G1 X61.844 Y89.125 F800.000 
G1 X61.844 Y89.125 F800.000 
G1 X61.544 Y89.106 F800.000 
G1 X61.244 Y89.031 F800.000 
G1 X61.056 Y88.950 F800.000 
G1 X60.888 Y88.825 F800.000 
G1 X60.719 Y88.562 F800.000 
G1 X60.606 Y88.269 F800.000 
G1 X60.562 Y88.069 F800.000 
G1 X60.556 Y87.869 F800.000 
G1 X60.575 Y87.769 F800.000 
G1 X60.688 Y87.600 F800.000 
G1 X60.688 Y87.600 F800.000 
G1 X60.919 Y87.550 F800.000 
G1 X61.150 Y87.544 F800.000 
G1 X61.256 Y87.575 F800.000 
G0 X61.350 Y87.638 
G0 X61.425 Y87.719 
G0 X61.731 Y88.269 
G1 X61.788 Y88.381 F800.000 
G1 X61.931 Y88.713 F800.000 
G1 X61.950 Y88.806 F800.000 
G1 X61.931 Y88.894 F800.000 
G1 X61.875 Y88.963 F800.000 
G1 X61.800 Y89.019 F800.000 
G1 X61.594 Y89.088 F800.000 
G1 X61.362 Y89.125 F800.000 
G1 X61.362 Y89.125 F800.000 
G1 X60.962 Y89.106 F800.000 
G1 X60.569 Y88.981 F800.000 
G1 X60.400 Y88.862 F800.000 
G1 X60.275 Y88.700 F800.000 
G1 X60.144 Y88.412 F800.000 
G1 X60.087 Y88.112 F800.000 
G1 X60.087 Y88.013 F800.000 
G1 X60.112 Y87.912 F800.000 
G1 X60.225 Y87.744 F800.000 
G1 X60.225 Y87.744 F800.000 
G1 X60.456 Y87.694 F800.000 
G1 X60.575 Y87.681 F800.000 
G1 X60.688 Y87.694 F800.000 
G1 X60.788 Y87.725 F800.000 
G0 X60.875 Y87.794 
G0 X60.944 Y87.881 
G0 X61.094 Y88.225 
G1 X61.138 Y88.344 F800.000 
G1 X61.237 Y88.694 F800.000 
G1 X61.244 Y88.794 F800.000 
G1 X61.219 Y88.888 F800.000 
G1 X61.163 Y88.956 F800.000 
G1 X61.075 Y89.019 F800.000 
G1 X60.869 Y89.088 F800.000 
G1 X60.644 Y89.125 F800.000 
G1 X60.644 Y89.125 F800.000 
G1 X60.344 Y89.088 F800.000 
G1 X60.144 Y89.025 F800.000 
G1 X59.962 Y88.925 F800.000 
G1 X59.881 Y88.856 F800.000 
G1 X59.769 Y88.681 F800.000 
G1 X59.669 Y88.388 F800.000 
G1 X59.650 Y88.188 F800.000 
G1 X59.656 Y88.088 F800.000 
G1 X59.756 Y87.912 F800.000 
G1 X59.825 Y87.838 F800.000 
G1 X59.825 Y87.838 F800.000 
G1 X60.050 Y87.794 F800.000 
G1 X60.150 Y87.806 F800.000 
G0 X60.225 Y87.850 
G0 X60.288 Y87.925 
G0 X60.381 Y88.125 
G0 X60.444 Y88.350 
G1 X60.475 Y88.469 F800.000 
G1 X60.556 Y88.812 F800.000 
G1 X60.556 Y88.912 F800.000 
G1 X60.519 Y88.987 F800.000 
G1 X60.456 Y89.044 F800.000 
G1 X60.269 Y89.100 F800.000 
G1 X60.163 Y89.125 F800.000 
G1 X60.163 Y89.125 F800.000 
G1 X59.862 Y89.094 F800.000 
G1 X59.669 Y89.025 F800.000 
G1 X59.487 Y88.919 F800.000 
G1 X59.413 Y88.844 F800.000 
G1 X59.356 Y88.756 F800.000 
G1 X59.263 Y88.463 F800.000 
G1 X59.250 Y88.263 F800.000 
G1 X59.275 Y88.162 F800.000 
G1 X59.388 Y87.994 F800.000 
G1 X59.388 Y87.994 F800.000 
G1 X59.612 Y87.963 F800.000 
G1 X59.712 Y87.981 F800.000 
G0 X59.794 Y88.037 
G0 X59.856 Y88.119 
G0 X59.950 Y88.344 
G1 X59.987 Y88.463 F800.000 
G1 X60.075 Y88.812 F800.000 
G1 X60.075 Y88.906 F800.000 
G1 X60.038 Y88.987 F800.000 
G1 X59.975 Y89.044 F800.000 
G1 X59.788 Y89.100 F800.000 
G1 X59.681 Y89.125 F800.000 
G1 X59.681 Y89.125 F800.000 
G1 X59.481 Y89.112 F800.000 
G1 X59.281 Y89.050 F800.000 
G1 X59.100 Y88.950 F800.000 
G1 X59.019 Y88.881 F800.000 
G1 X58.956 Y88.794 F800.000 
G1 X58.875 Y88.494 F800.000 
G1 X58.869 Y88.394 F800.000 
G1 X58.881 Y88.294 F800.000 
G1 X58.925 Y88.200 F800.000 
G1 X58.987 Y88.119 F800.000 
G1 X59.069 Y88.056 F800.000 
G1 X59.069 Y88.056 F800.000 
G1 X59.294 Y88.031 F800.000 
G1 X59.394 Y88.062 F800.000 
G0 X59.469 Y88.119 
G0 X59.525 Y88.213 
G0 X59.562 Y88.319 
G1 X59.587 Y88.444 F800.000 
G1 X59.638 Y88.800 F800.000 
G1 X59.619 Y88.900 F800.000 
G1 X59.575 Y88.981 F800.000 
G1 X59.506 Y89.037 F800.000 
G1 X59.312 Y89.100 F800.000 
G1 X59.206 Y89.125 F800.000 
G1 X59.206 Y89.125 F800.000 
G1 X59.006 Y89.094 F800.000 
G1 X58.812 Y89.019 F800.000 
G1 X58.644 Y88.894 F800.000 
G1 X58.581 Y88.812 F800.000 
G1 X58.519 Y88.513 F800.000 
G1 X58.519 Y88.412 F800.000 
G1 X58.556 Y88.319 F800.000 
G1 X58.681 Y88.169 F800.000 
G1 X58.681 Y88.169 F800.000 
G1 X58.906 Y88.150 F800.000 
G1 X59.000 Y88.181 F800.000 
G0 X59.069 Y88.244 
G0 X59.119 Y88.338 
G1 X59.144 Y88.450 F800.000 
G1 X59.175 Y88.688 F800.000 
G1 X59.175 Y88.800 F800.000 
G1 X59.150 Y88.900 F800.000 
G1 X59.106 Y88.981 F800.000 
G1 X59.031 Y89.037 F800.000 
G1 X58.831 Y89.100 F800.000 
G1 X58.725 Y89.125 F800.000 
G1 X58.725 Y89.125 F800.000 
G1 X58.525 Y89.050 F800.000 
G1 X58.431 Y89.000 F800.000 
G1 X58.350 Y88.931 F800.000 
G1 X58.281 Y88.850 F800.000 
G1 X58.237 Y88.756 F800.000 
G1 X58.200 Y88.556 F800.000 
G1 X58.219 Y88.456 F800.000 
G1 X58.256 Y88.362 F800.000 
G1 X58.319 Y88.281 F800.000 
G1 X58.319 Y88.281 F800.000 
G1 X58.544 Y88.244 F800.000 
G1 X58.638 Y88.263 F800.000 
G0 X58.712 Y88.306 
G0 X58.775 Y88.381 
G1 X58.812 Y88.475 F800.000 
G1 X58.875 Y88.694 F800.000 
G1 X58.894 Y88.806 F800.000 
G1 X58.881 Y88.900 F800.000 
G1 X58.844 Y88.981 F800.000 
G1 X58.775 Y89.037 F800.000 
G1 X58.587 Y89.100 F800.000 
G1 X58.481 Y89.125 F800.000 
G1 X58.481 Y89.125 F800.000 
G1 X58.381 Y89.106 F800.000 
G1 X58.200 Y89.006 F800.000 
G1 X58.131 Y88.931 F800.000 
G1 X58.087 Y88.838 F800.000 
G1 X58.050 Y88.638 F800.000 
G1 X58.075 Y88.537 F800.000 
G1 X58.119 Y88.450 F800.000 
G1 X58.119 Y88.450 F800.000 
G1 X58.131 Y88.419 F800.000 
G1 X58.125 Y88.425 F800.000 
G1 X58.062 Y88.463 F800.000 
G1 X58.044 Y88.444 F800.000 
G1 X58.038 Y88.356 F800.000 
G1 X58.038 Y88.356 F800.000 
G1 X58.119 Y88.263 F800.000 
G1 X58.337 Y88.150 F800.000 
G1 X59.513 Y87.806 F800.000 
G1 X61.044 Y87.325 F800.000 
G1 X62.844 Y86.669 F800.000 
G1 X64.438 Y86.019 F800.000 
G1 X66.219 Y85.188 F800.000 
G1 X67.675 Y84.425 F800.000 
G1 X69.213 Y83.544 F800.000 
G1 X70.044 Y83.031 F800.000 
G1 X72.062 Y81.675 F800.000 
G1 X73.463 Y80.612 F800.000 
G1 X74.269 Y79.975 F800.000 
G1 X74.987 Y79.369 F800.000 
G1 X76.056 Y78.419 F800.000 
G1 X77.550 Y76.956 F800.000 
G1 X78.737 Y75.694 F800.000 
G1 X79.856 Y74.412 F800.000 
G1 X80.525 Y73.581 F800.000 
G1 X81.456 Y72.350 F800.000 
G1 X82.013 Y71.569 F800.000 
G1 X83.094 Y69.950 F800.000 
G1 X83.537 Y69.231 F800.000 
G1 X84.381 Y67.763 F800.000 
G1 X85.469 Y65.638 F800.000 
G1 X86.175 Y64.062 F800.000 
G1 X86.725 Y62.719 F800.000 
G1 X87.200 Y61.413 F800.000 
G1 X87.556 Y60.344 F800.000 
G1 X88.169 Y58.312 F800.000 
G1 X88.269 Y58.144 F800.000 
G1 X88.312 Y58.100 F800.000 
G1 X88.519 Y57.981 F800.000 
G1 X88.775 Y57.969 F800.000 
G1 X88.944 Y58.025 F800.000 
G1 X89.094 Y58.144 F800.000 
G1 X89.175 Y58.256 F800.000 
G1 X89.237 Y58.469 F800.000 
G1 X89.250 Y58.644 F800.000 
G1 X89.244 Y88.688 F800.000 
G1 X89.188 Y88.919 F800.000 
G1 X89.112 Y89.044 F800.000 
G1 X89.000 Y89.150 F800.000 
G1 X88.787 Y89.231 F800.000 
G1 X88.631 Y89.250 F800.000 
G1 X58.494 Y89.244 F800.000 
G1 X58.263 Y89.188 F800.000 
G1 X58.138 Y89.112 F800.000 
G1 X58.031 Y89.000 F800.000 
G1 X57.944 Y88.775 F800.000 
G1 X57.938 Y88.650 F800.000 
G1 X57.950 Y88.562 F800.000 
G1 X58.038 Y88.356 F800.000 
G1 X58.038 Y88.356 F800.000 
G0 Z2.000 
(Helix to depth: -15.000000) 
G0 Z2.000 
G0 X85.238 Y9.720 Z2.000 
G0 X85.238 Y9.720 Z-0.000 
G1 X85.238 Y9.720 Z-3.000 F800.000 
G1 X85.238 Y9.720 Z-3.000 F800.000 
G1 X85.827 Y10.374 Z-3.077 F800.000 
G1 X86.277 Y11.130 Z-3.155 F800.000 
G1 X86.571 Y11.960 Z-3.232 F800.000 
G1 X86.698 Y12.831 Z-3.309 F800.000 
G1 X86.652 Y13.710 Z-3.387 F800.000 
G1 X86.435 Y14.563 Z-3.464 F800.000 
G1 X86.056 Y15.358 Z-3.541 F800.000 
G1 X85.530 Y16.063 Z-3.618 F800.000 
G1 X84.876 Y16.652 Z-3.696 F800.000 
G1 X84.120 Y17.102 Z-3.773 F800.000 
G1 X83.290 Y17.396 Z-3.850 F800.000 
G1 X82.419 Y17.523 Z-3.928 F800.000 
G1 X81.540 Y17.477 Z-4.005 F800.000 
G1 X80.687 Y17.260 Z-4.082 F800.000 
G1 X79.892 Y16.881 Z-4.160 F800.000 
G1 X79.187 Y16.355 Z-4.237 F800.000 
G1 X78.598 Y15.701 Z-4.314 F800.000 
G1 X78.148 Y14.945 Z-4.391 F800.000 
G1 X77.854 Y14.115 Z-4.469 F800.000 
G1 X77.727 Y13.244 Z-4.546 F800.000 
G1 X77.773 Y12.365 Z-4.623 F800.000 
G1 X77.990 Y11.512 Z-4.701 F800.000 
G1 X78.369 Y10.717 Z-4.778 F800.000 
G1 X78.895 Y10.012 Z-4.855 F800.000 
G1 X79.549 Y9.423 Z-4.933 F800.000 
G1 X80.305 Y8.973 Z-5.010 F800.000 
